( Put the face-plate into the spoil-board cut-out )
( Secure the face-plate with clamps external to the hole profiles )
( Zero is the bottom-left vertex of the spoil-board cut-out, with Z on top of the plate )
( Aluminium stock is assumed to be 1050 grade, 1.6mm thick )
( Tool is an HSS 0.1mm 15-degree engraving bit running at 10000rpm )

(Project back-plate-engraving)
(Created by Estlcam version 11 build 11.107)
(Machining time about 00:07:04 hours)

(Required tools:)
(Al - HSS Engraving Tool, 15deg)

G90
M03 S10000
G00 Z20.0000


(No. 1: Hole 1)
G00 X13.1083 Y4.1947
G00 Z0.5000
G01 Z0.0000 F30 S10000
G01 X13.3681 Z-0.0750
G01 X13.1083 Z-0.1500
G01 X13.5064 F508
G01 Y4.2847
G01 X13.1083
G01 Y4.3747
G01 X13.5064
G01 Y4.4647
G01 X13.1083
G01 Y4.5547
G01 X13.5064
G01 Y4.6447
G01 X13.1083
G01 Y4.7347
G01 X13.5064
G01 Y4.8247
G01 X13.1083
G01 Y4.9147
G01 X13.5064
G01 Y5.0047
G01 X13.1083
G01 Y5.0947
G01 X13.5064
G01 Y5.1847
G01 X13.1083
G01 Y5.2747
G01 X13.5064
G01 Y5.3647
G01 X13.1083
G01 Y5.4547
G01 X13.5064
G01 Y5.5447
G01 X13.1083
G01 Y5.6347
G01 X14.6972
G01 Y5.7247
G01 X15.2381
G01 X13.1083
G01 Y5.8147
G01 X15.3945
G01 Y5.9047
G01 X15.5510
G01 X13.1083
G01 Y5.9947
G01 X13.5064
G01 Y6.0847
G01 X13.1083
G01 Y6.1747
G01 X13.5064
G01 Y6.2647
G01 X13.1083
G01 Y6.3547
G01 X13.5064
G01 Y6.4447
G01 X13.1083
G01 Y6.5347
G01 X13.5064
G01 Y6.6247
G01 X13.1083
G01 Y6.7147
G01 X13.5064
G01 Y6.8047
G01 X13.1083
G01 Y6.8947
G01 X13.5064
G01 Y6.9847
G01 X13.1083
G01 Y7.0747
G01 X13.5064
G01 Y7.1647
G01 X13.1083
G01 Y7.2547
G01 X13.5064
G01 Y7.3447
G01 X13.1083
G01 Y7.4347
G01 X13.5064
G01 X13.5172 Y7.5247
G01 X13.1083
G01 Y7.6147
G01 X15.5052
G01 Y7.5247
G01 X15.6362
G01 X14.6962
G01 X15.0205
G01 Y7.4347
G01 X15.7019
G01 X15.7675 Y7.3447
G01 X15.3068
G01 X15.3467 Y7.2547
G01 X15.8331
G01 X15.8698 Y7.1647
G01 X15.3827
G01 X15.4188 Y7.0747
G01 X15.8861
G01 X15.9024 Y6.9847
G01 X15.4548
G01 X15.4908 Y6.8947
G01 X15.9187
G01 X15.9350 Y6.8047
G01 X15.5269
G01 X15.5349 Y6.7147
G01 X15.9365
G01 X15.9201 Y6.6247
G01 X15.5010
G01 X15.4671 Y6.5347
G01 X15.9038
G01 X15.8874 Y6.4447
G01 X15.4332
G01 X15.3992 Y6.3547
G01 X15.8711
G01 X15.8401 Y6.2647
G01 X15.3653
G01 X15.3314 Y6.1747
G01 X15.7765
G01 X15.7129 Y6.0847
G01 X15.1751
G01 Y5.9947
G01 X14.8698
G01 X15.6493
G00 Z20.0000
G00 X15.3358 Y7.6147
G00 Z0.5000
G01 Z-0.1500 F30
G01 Y7.7047 F508
G01 X13.1083
G01 Y7.7947
G01 X15.0388
G00 Z20.0000
G00 X14.9420 Y7.5247
G00 Z0.5000
G01 Z-0.1500 F30
G01 Y7.4461 F508
G01 X14.6079 Y7.5389
G01 X14.5745 Y7.5407
G01 X13.5664
G03 X13.5165 Y7.4942 I0.0000 J-0.0500
G01 X13.5164 Y5.9825
G01 X13.5186 Y5.9677
G03 X13.5629 Y5.9326 I0.0478 J0.0148
G01 X14.6161 Y5.9325
G01 X14.6494 Y5.9402
G01 X15.2813 Y6.1265
G03 X15.3210 Y6.1755 I-0.0200 J0.0568
G01 X15.5309 Y6.7325
G03 X15.5231 Y6.7873 I-0.0648 J0.0187
G01 X15.3081 Y7.3241
G03 X15.2760 Y7.3535 I-0.0464 J-0.0186
G01 X14.9420 Y7.4461
G01 Y7.5247
G00 Z20.0000
G00 X14.9800 Y7.7947
G00 Z0.5000
G01 Z-0.1500 F30
G01 Y7.8126 F508
G01 X15.2116 Y7.7820
G01 X15.6112 Y7.5698
G01 X15.6237 Y7.5589
G01 X15.8646 Y7.2285
G01 X15.8712 Y7.2132
G01 X15.9541 Y6.7556
G01 X15.8708 Y6.2973
G01 X15.8640 Y6.2812
G01 X15.6216 Y5.9382
G01 X15.6086 Y5.9264
G01 X15.2169 Y5.7010
G01 X14.6857 Y5.6229
G01 X13.5629 Y5.6228
G03 X13.5164 Y5.5729 I0.0035 J-0.0499
G01 Y4.1338
G01 X13.0983
G01 Y7.8557
G01 X14.6535
G01 X14.9800 Y7.8126
G01 Y7.7947
G00 Z20.0000
G00 X13.5064 Y4.1947
G00 Z0.3500
G01 Z-0.1500 F30
G01 X13.3332 Z-0.2000
G01 X13.5064 Z-0.2500
G01 X13.1083 F508
G01 Y4.2847
G01 X13.5064
G01 Y4.3747
G01 X13.1083
G01 Y4.4647
G01 X13.5064
G01 Y4.5547
G01 X13.1083
G01 Y4.6447
G01 X13.5064
G01 Y4.7347
G01 X13.1083
G01 Y4.8247
G01 X13.5064
G01 Y4.9147
G01 X13.1083
G01 Y5.0047
G01 X13.5064
G01 Y5.0947
G01 X13.1083
G01 Y5.1847
G01 X13.5064
G01 Y5.2747
G01 X13.1083
G01 Y5.3647
G01 X13.5064
G01 Y5.4547
G01 X13.1083
G01 Y5.5447
G01 X13.5064
G01 X13.1083
G01 Y5.6347
G01 X14.6972
G01 Y5.7247
G01 X15.2381
G01 X13.1083
G01 Y5.8147
G01 X15.3945
G01 Y5.9047
G01 X15.5510
G01 X13.1083
G01 Y5.9947
G01 X13.5064
G01 Y6.0847
G01 X13.1083
G01 Y6.1747
G01 X13.5064
G01 Y6.2647
G01 X13.1083
G01 Y6.3547
G01 X13.5064
G01 Y6.4447
G01 X13.1083
G01 Y6.5347
G01 X13.5064
G01 Y6.6247
G01 X13.1083
G01 Y6.7147
G01 X13.5064
G01 Y6.8047
G01 X13.1083
G01 Y6.8947
G01 X13.5064
G01 Y6.9847
G01 X13.1083
G01 Y7.0747
G01 X13.5064
G01 Y7.1647
G01 X13.1083
G01 Y7.2547
G01 X13.5064
G01 Y7.3447
G01 X13.1083
G01 Y7.4347
G01 X13.5064
G01 X13.5172 Y7.5247
G01 X13.1083
G01 Y7.6147
G01 X15.5052
G01 Y7.5247
G01 X15.6362
G01 X14.6962
G01 X15.0205
G01 Y7.4347
G01 X15.7019
G01 X15.7675 Y7.3447
G01 X15.3068
G01 X15.3467 Y7.2547
G01 X15.8331
G01 X15.8698 Y7.1647
G01 X15.3827
G01 X15.4188 Y7.0747
G01 X15.8861
G01 X15.9024 Y6.9847
G01 X15.4548
G01 X15.4908 Y6.8947
G01 X15.9187
G01 X15.9350 Y6.8047
G01 X15.5269
G01 X15.5349 Y6.7147
G01 X15.9365
G01 X15.9201 Y6.6247
G01 X15.5010
G01 X15.4671 Y6.5347
G01 X15.9038
G01 X15.8874 Y6.4447
G01 X15.4332
G01 X15.3992 Y6.3547
G01 X15.8711
G01 X15.8401 Y6.2647
G01 X15.3653
G01 X15.3314 Y6.1747
G01 X15.7765
G01 X15.7129 Y6.0847
G01 X15.1751
G01 Y5.9947
G01 X14.8698
G01 X15.6493
G00 Z20.0000
G00 X15.3358 Y7.6147
G00 Z0.3500
G01 Z-0.2500 F30
G01 Y7.7047 F508
G01 X13.1083
G01 Y7.7947
G01 X15.0388
G00 Z20.0000
G00 X14.9420 Y7.5247
G00 Z0.3500
G01 Z-0.2500 F30
G01 Y7.4461 F508
G01 X14.6079 Y7.5389
G01 X14.5745 Y7.5407
G01 X13.5664
G03 X13.5165 Y7.4942 I0.0000 J-0.0500
G01 X13.5164 Y5.9825
G01 X13.5186 Y5.9677
G03 X13.5629 Y5.9326 I0.0478 J0.0148
G01 X14.6161 Y5.9325
G01 X14.6494 Y5.9402
G01 X15.2813 Y6.1265
G03 X15.3210 Y6.1755 I-0.0200 J0.0568
G01 X15.5309 Y6.7325
G03 X15.5231 Y6.7873 I-0.0648 J0.0187
G01 X15.3081 Y7.3241
G03 X15.2760 Y7.3535 I-0.0464 J-0.0186
G01 X14.9420 Y7.4461
G01 Y7.5247
G00 Z20.0000
G00 X14.9800 Y7.7947
G00 Z0.3500
G01 Z-0.2500 F30
G01 Y7.8126 F508
G01 X15.2116 Y7.7820
G01 X15.6112 Y7.5698
G01 X15.6237 Y7.5589
G01 X15.8646 Y7.2285
G01 X15.8712 Y7.2132
G01 X15.9541 Y6.7556
G01 X15.8708 Y6.2973
G01 X15.8640 Y6.2812
G01 X15.6216 Y5.9382
G01 X15.6086 Y5.9264
G01 X15.2169 Y5.7010
G01 X14.6857 Y5.6229
G01 X13.5629 Y5.6228
G03 X13.5164 Y5.5729 I0.0035 J-0.0499
G01 Y4.1338
G01 X13.0983
G01 Y7.8557
G01 X14.6535
G01 X14.9800 Y7.8126
G01 Y7.7947
G00 Z20.0000


(No. 2: Hole 2)
G00 X17.4045 Y4.1497 Z20.0000
G00 Z0.5000
G01 Z0.0000 F30
G01 X17.6643 Z-0.0750
G01 X17.4045 Z-0.1500
G01 X17.9358 F508
G01 X17.9605 Y4.2397
G01 X17.3780
G01 X17.3515 Y4.3297
G01 X17.9852
G01 X18.0100 Y4.4197
G01 X17.3250
G01 X17.2985 Y4.5097
G01 X17.6348
G01 X17.6120 Y4.5997
G01 X17.2720
G01 X17.2455 Y4.6897
G01 X17.5915
G01 X17.5711 Y4.7797
G01 X17.2190
G01 X17.1925 Y4.8697
G01 X17.5507
G01 X17.5302 Y4.9597
G01 X17.1659
G01 X17.1394 Y5.0497
G01 X17.5085
G01 X17.4857 Y5.1397
G01 X17.1129
G01 X17.0864 Y5.2297
G01 X17.4629
G01 X17.4400 Y5.3197
G01 X17.0599
G01 X17.0334 Y5.4097
G01 X17.4172
G01 X17.3933 Y5.4997
G01 X17.0069
G01 X16.9804 Y5.5897
G01 X17.3679
G01 X17.3424 Y5.6797
G01 X16.9539
G01 X16.9274 Y5.7697
G01 X17.3170
G01 X17.2915 Y5.8597
G01 X16.9009
G01 X16.8744 Y5.9497
G01 X17.2661
G01 X17.2406 Y6.0397
G01 X16.8478
G01 X16.8213 Y6.1297
G01 X17.2152
G01 X17.1898 Y6.2197
G01 X16.7948
G01 X16.7683 Y6.3097
G01 X17.1643
G01 X17.1389 Y6.3997
G01 X16.7418
G01 X16.7153 Y6.4897
G01 X17.1134
G01 X17.0880 Y6.5797
G01 X16.6888
G01 X16.6623 Y6.6697
G01 X17.0625
G01 X17.0371 Y6.7597
G01 X16.6358
G01 X16.6093 Y6.8497
G01 X17.0117
G01 X16.9862 Y6.9397
G01 X16.5828
G01 X16.5562 Y7.0297
G01 X16.9608
G01 X16.9353 Y7.1197
G01 X16.5297
G01 X16.5032 Y7.2097
G01 X16.9099
G01 X16.8844 Y7.2997
G01 X16.4767
G01 X16.4502 Y7.3897
G01 X16.8590
G01 X16.8336 Y7.4797
G01 X16.4237
G01 X16.3972 Y7.5697
G01 X16.8081
G01 X16.7827 Y7.6597
G01 X16.3707
G01 X16.3442 Y7.7497
G01 X16.7572
G01 X16.7318 Y7.8397
G01 X16.3177
G00 Z20.0000
G00 X17.7387 Y4.4197
G00 Z0.5000
G01 Z-0.1500 F30
G01 Y4.5097 F508
G01 X18.0347
G01 X18.0594 Y4.5997
G01 X17.7620
G01 X17.7822 Y4.6897
G01 X18.0841
G01 X18.1089 Y4.7797
G01 X17.8025
G01 X17.8231 Y4.8697
G01 X18.1336
G01 X18.1583 Y4.9597
G01 X17.8445
G01 X17.8658 Y5.0497
G01 X18.1830
G01 X18.2077 Y5.1397
G01 X17.8871
G01 X17.9103 Y5.2297
G01 X18.2325
G01 X18.2572 Y5.3197
G01 X17.9346
G01 X17.9589 Y5.4097
G01 X18.2819
G01 X18.3066 Y5.4997
G01 X17.9832
G01 X18.0075 Y5.5897
G01 X18.3314
G01 X18.3561 Y5.6797
G01 X18.0318
G01 X18.0561 Y5.7697
G01 X18.3808
G01 X18.4055 Y5.8597
G01 X18.0804
G01 X18.1047 Y5.9497
G01 X18.4303
G01 X18.4549 Y6.0397
G01 X18.1291
G01 X18.1543 Y6.1297
G01 X18.4789
G01 X18.5029 Y6.2197
G01 X18.1796
G01 X18.2048 Y6.3097
G01 X18.5270
G01 X18.5510 Y6.3997
G01 X18.2301
G01 X18.2553 Y6.4897
G01 X18.5750
G01 X18.5990 Y6.5797
G01 X18.2806
G01 X18.3058 Y6.6697
G01 X18.6230
G01 X18.6470 Y6.7597
G01 X18.3311
G01 X18.3563 Y6.8497
G01 X18.6697
G01 X18.6901 Y6.9397
G01 X18.3816
G01 X18.4068 Y7.0297
G01 X18.7105
G01 X18.7309 Y7.1197
G01 X18.4320
G01 X18.4573 Y7.2097
G01 X18.7514
G01 X18.7718 Y7.2997
G01 X18.4825
G01 X18.5078 Y7.3897
G01 X19.1683
G01 X19.1935 Y7.2997
G01 X18.9071
G01 X18.9270 Y7.2097
G01 X19.2186
G01 X19.2438 Y7.1197
G01 X18.9469
G01 X18.9668 Y7.0297
G01 X19.2689
G01 X19.2941 Y6.9397
G01 X18.9867
G01 X19.0066 Y6.8497
G01 X19.3192
G01 X19.3444 Y6.7597
G01 X19.0290
G01 X19.0516 Y6.6697
G01 X19.3695
G01 X19.3946 Y6.5797
G01 X19.0743
G01 X19.0977 Y6.4897
G01 X19.4198
G01 X19.4449 Y6.3997
G01 X19.1222
G01 X19.1468 Y6.3097
G01 X19.4701
G01 X19.4952 Y6.2197
G01 X19.1713
G01 X19.1958 Y6.1297
G01 X19.5204
G01 X19.5455 Y6.0397
G01 X19.2204
G01 X19.2449 Y5.9497
G01 X19.5706
G01 X19.5958 Y5.8597
G01 X19.2694
G01 X19.2940 Y5.7697
G01 X19.6209
G01 X19.6461 Y5.6797
G01 X19.3185
G01 X19.3431 Y5.5897
G01 X19.6712
G01 X19.6960 Y5.4997
G01 X19.3676
G01 X19.3921 Y5.4097
G01 X19.7187
G01 X19.7414 Y5.3197
G01 X19.4167
G01 X19.4412 Y5.2297
G01 X19.7640
G01 X19.7867 Y5.1397
G01 X19.4657
G01 X19.4903 Y5.0497
G01 X19.8094
G01 X19.8317 Y4.9597
G01 X19.5148
G01 X19.5393 Y4.8697
G01 X19.8524
G01 X19.8731 Y4.7797
G01 X19.5639
G01 X19.5884 Y4.6897
G01 X19.8938
G01 X19.9145 Y4.5997
G01 X19.6129
G01 X19.6375 Y4.5097
G01 X19.9379
G01 X19.6620
G01 Y4.4197
G01 X20.3463
G01 X20.3198 Y4.3297
G01 X19.6865
G01 X19.7111 Y4.2397
G01 X20.2933
G01 X20.2668 Y4.1497
G01 X19.7356
G00 Z20.0000
G00 X20.0416 Y4.4197
G00 Z0.5000
G01 Z-0.1500 F30
G01 Y4.5097 F508
G01 X20.3728
G01 X20.3993 Y4.5997
G01 X20.0672
G01 X20.0888 Y4.6897
G01 X20.4258
G01 X20.4523 Y4.7797
G01 X20.1100
G01 X20.1311 Y4.8697
G01 X20.4788
G01 X20.5054 Y4.9597
G01 X20.1522
G01 X20.1733 Y5.0497
G01 X20.5319
G01 X20.5584 Y5.1397
G01 X20.1949
G01 X20.2192 Y5.2297
G01 X20.5849
G01 X20.6114 Y5.3197
G01 X20.2436
G01 X20.2680 Y5.4097
G01 X20.6379
G01 X20.6644 Y5.4997
G01 X20.2923
G01 X20.3167 Y5.5897
G01 X20.6909
G01 X20.7174 Y5.6797
G01 X20.3411
G01 X20.3654 Y5.7697
G01 X20.7439
G01 X20.7704 Y5.8597
G01 X20.3898
G01 X20.4144 Y5.9497
G01 X20.7969
G01 X20.8235 Y6.0397
G01 X20.4394
G01 X20.4644 Y6.1297
G01 X20.8500
G01 X20.8765 Y6.2197
G01 X20.4895
G01 X20.5145 Y6.3097
G01 X20.9030
G01 X20.9295 Y6.3997
G01 X20.5395
G01 X20.5645 Y6.4897
G01 X20.9560
G01 X20.9825 Y6.5797
G01 X20.5895
G01 X20.6145 Y6.6697
G01 X21.0090
G01 X21.0355 Y6.7597
G01 X20.6396
G01 X20.6646 Y6.8497
G01 X21.0620
G01 X21.0885 Y6.9397
G01 X20.6896
G01 X20.7146 Y7.0297
G01 X21.1151
G01 X21.1416 Y7.1197
G01 X20.7396
G01 X20.7646 Y7.2097
G01 X21.1681
G01 X21.1946 Y7.2997
G01 X20.7897
G01 X20.8147 Y7.3897
G01 X21.2211
G01 X21.2476 Y7.4797
G01 X20.8397
G01 X20.8647 Y7.5697
G01 X21.2741
G01 X21.3006 Y7.6597
G01 X20.8897
G01 X20.9147 Y7.7497
G01 X21.3271
G01 X21.3536 Y7.8397
G01 X20.9397
G00 Z20.0000
G00 X19.1432 Y7.3897
G00 Z0.5000
G01 Z-0.1500 F30
G01 Y7.4797 F508
G01 X18.5330
G01 X18.5583 Y7.5697
G01 X19.1181
G01 X19.0929 Y7.6597
G01 X18.5835
G01 X18.6088 Y7.7497
G01 X19.0678
G01 X19.0426 Y7.8397
G01 X18.6340
G00 Z20.0000
G00 Z0.5000
G01 Z-0.1500 F30
G01 X18.6263 Y7.8419 F508
G01 X18.6302 Y7.8557
G01 X19.0491 Y7.8537
G01 X19.7028 Y5.5140
G01 X19.8381 Y4.9767
G01 X19.9366 Y4.5478
G01 X19.9457 Y4.5160
G03 X20.0382 Y4.5270 I0.0441 J0.0235
G01 X20.0629 Y4.6230
G01 X20.1821 Y5.1307
G01 X20.3954 Y5.9188
G01 X20.9358 Y7.8557
G01 X21.3687
G01 X20.2699 Y4.1338
G01 X19.7291 Y4.1355
G01 X19.0780 Y6.5241
G01 X18.9983 Y6.8410
G01 X18.8885 Y7.3388
G03 X18.7909 Y7.3389 I-0.0488 J-0.0109
G01 X18.6718 Y6.8137
G01 X18.4625 Y6.0295
G01 X17.9399 Y4.1338
G01 X17.3981 Y4.1363
G01 X16.3026 Y7.8557
G01 X16.7383 Y7.8536
G01 X17.4135 Y5.4651
G01 X17.5305 Y5.0039
G01 X17.6337 Y4.5480
G01 X17.6435 Y4.5146
G03 X17.7357 Y4.5285 I0.0434 J0.0249
G02 X18.1166 Y6.0323 I20.8491 J-4.4813
G01 X18.6263 Y7.8419
G01 X18.6340 Y7.8397
G00 Z20.0000
G00 X17.9358 Y4.1497
G00 Z0.3500
G01 Z-0.1500 F30
G01 X17.7626 Z-0.2000
G01 X17.9358 Z-0.2500
G01 X17.4045 F508
G01 X17.3780 Y4.2397
G01 X17.9605
G01 X17.9852 Y4.3297
G01 X17.3515
G01 X17.3250 Y4.4197
G01 X18.0100
G01 X17.6348
G01 Y4.5097
G01 X17.2985
G01 X17.2720 Y4.5997
G01 X17.6120
G01 X17.5915 Y4.6897
G01 X17.2455
G01 X17.2190 Y4.7797
G01 X17.5711
G01 X17.5507 Y4.8697
G01 X17.1925
G01 X17.1659 Y4.9597
G01 X17.5302
G01 X17.5085 Y5.0497
G01 X17.1394
G01 X17.1129 Y5.1397
G01 X17.4857
G01 X17.4629 Y5.2297
G01 X17.0864
G01 X17.0599 Y5.3197
G01 X17.4400
G01 X17.4172 Y5.4097
G01 X17.0334
G01 X17.0069 Y5.4997
G01 X17.3933
G01 X17.3679 Y5.5897
G01 X16.9804
G01 X16.9539 Y5.6797
G01 X17.3424
G01 X17.3170 Y5.7697
G01 X16.9274
G01 X16.9009 Y5.8597
G01 X17.2915
G01 X17.2661 Y5.9497
G01 X16.8744
G01 X16.8478 Y6.0397
G01 X17.2406
G01 X17.2152 Y6.1297
G01 X16.8213
G01 X16.7948 Y6.2197
G01 X17.1898
G01 X17.1643 Y6.3097
G01 X16.7683
G01 X16.7418 Y6.3997
G01 X17.1389
G01 X17.1134 Y6.4897
G01 X16.7153
G01 X16.6888 Y6.5797
G01 X17.0880
G01 X17.0625 Y6.6697
G01 X16.6623
G01 X16.6358 Y6.7597
G01 X17.0371
G01 X17.0117 Y6.8497
G01 X16.6093
G01 X16.5828 Y6.9397
G01 X16.9862
G01 X16.9608 Y7.0297
G01 X16.5562
G01 X16.5297 Y7.1197
G01 X16.9353
G01 X16.9099 Y7.2097
G01 X16.5032
G01 X16.4767 Y7.2997
G01 X16.8844
G01 X16.8590 Y7.3897
G01 X16.4502
G01 X16.4237 Y7.4797
G01 X16.8336
G01 X16.8081 Y7.5697
G01 X16.3972
G01 X16.3707 Y7.6597
G01 X16.7827
G01 X16.7572 Y7.7497
G01 X16.3442
G01 X16.3177 Y7.8397
G01 X16.7318
G00 Z20.0000
G00 X17.7387 Y4.4197
G00 Z0.3500
G01 Z-0.2500 F30
G01 Y4.5097 F508
G01 X18.0347
G01 X18.0594 Y4.5997
G01 X17.7620
G01 X17.7822 Y4.6897
G01 X18.0841
G01 X18.1089 Y4.7797
G01 X17.8025
G01 X17.8231 Y4.8697
G01 X18.1336
G01 X18.1583 Y4.9597
G01 X17.8445
G01 X17.8658 Y5.0497
G01 X18.1830
G01 X18.2077 Y5.1397
G01 X17.8871
G01 X17.9103 Y5.2297
G01 X18.2325
G01 X18.2572 Y5.3197
G01 X17.9346
G01 X17.9589 Y5.4097
G01 X18.2819
G01 X18.3066 Y5.4997
G01 X17.9832
G01 X18.0075 Y5.5897
G01 X18.3314
G01 X18.3561 Y5.6797
G01 X18.0318
G01 X18.0561 Y5.7697
G01 X18.3808
G01 X18.4055 Y5.8597
G01 X18.0804
G01 X18.1047 Y5.9497
G01 X18.4303
G01 X18.4549 Y6.0397
G01 X18.1291
G01 X18.1543 Y6.1297
G01 X18.4789
G01 X18.5029 Y6.2197
G01 X18.1796
G01 X18.2048 Y6.3097
G01 X18.5270
G01 X18.5510 Y6.3997
G01 X18.2301
G01 X18.2553 Y6.4897
G01 X18.5750
G01 X18.5990 Y6.5797
G01 X18.2806
G01 X18.3058 Y6.6697
G01 X18.6230
G01 X18.6470 Y6.7597
G01 X18.3311
G01 X18.3563 Y6.8497
G01 X18.6697
G01 X18.6901 Y6.9397
G01 X18.3816
G01 X18.4068 Y7.0297
G01 X18.7105
G01 X18.7309 Y7.1197
G01 X18.4320
G01 X18.4573 Y7.2097
G01 X18.7514
G01 X18.7718 Y7.2997
G01 X18.4825
G01 X18.5078 Y7.3897
G01 X19.1683
G01 X19.1935 Y7.2997
G01 X18.9071
G01 X18.9270 Y7.2097
G01 X19.2186
G01 X19.2438 Y7.1197
G01 X18.9469
G01 X18.9668 Y7.0297
G01 X19.2689
G01 X19.2941 Y6.9397
G01 X18.9867
G01 X19.0066 Y6.8497
G01 X19.3192
G01 X19.3444 Y6.7597
G01 X19.0290
G01 X19.0516 Y6.6697
G01 X19.3695
G01 X19.3946 Y6.5797
G01 X19.0743
G01 X19.0977 Y6.4897
G01 X19.4198
G01 X19.4449 Y6.3997
G01 X19.1222
G01 X19.1468 Y6.3097
G01 X19.4701
G01 X19.4952 Y6.2197
G01 X19.1713
G01 X19.1958 Y6.1297
G01 X19.5204
G01 X19.5455 Y6.0397
G01 X19.2204
G01 X19.2449 Y5.9497
G01 X19.5706
G01 X19.5958 Y5.8597
G01 X19.2694
G01 X19.2940 Y5.7697
G01 X19.6209
G01 X19.6461 Y5.6797
G01 X19.3185
G01 X19.3431 Y5.5897
G01 X19.6712
G01 X19.6960 Y5.4997
G01 X19.3676
G01 X19.3921 Y5.4097
G01 X19.7187
G01 X19.7414 Y5.3197
G01 X19.4167
G01 X19.4412 Y5.2297
G01 X19.7640
G01 X19.7867 Y5.1397
G01 X19.4657
G01 X19.4903 Y5.0497
G01 X19.8094
G01 X19.8317 Y4.9597
G01 X19.5148
G01 X19.5393 Y4.8697
G01 X19.8524
G01 X19.8731 Y4.7797
G01 X19.5639
G01 X19.5884 Y4.6897
G01 X19.8938
G01 X19.9145 Y4.5997
G01 X19.6129
G01 X19.6375 Y4.5097
G01 X19.9379
G01 X19.6620
G01 Y4.4197
G01 X20.3463
G01 X20.3198 Y4.3297
G01 X19.6865
G01 X19.7111 Y4.2397
G01 X20.2933
G01 X20.2668 Y4.1497
G01 X19.7356
G00 Z20.0000
G00 X20.0416 Y4.4197
G00 Z0.3500
G01 Z-0.2500 F30
G01 Y4.5097 F508
G01 X20.3728
G01 X20.3993 Y4.5997
G01 X20.0672
G01 X20.0888 Y4.6897
G01 X20.4258
G01 X20.4523 Y4.7797
G01 X20.1100
G01 X20.1311 Y4.8697
G01 X20.4788
G01 X20.5054 Y4.9597
G01 X20.1522
G01 X20.1733 Y5.0497
G01 X20.5319
G01 X20.5584 Y5.1397
G01 X20.1949
G01 X20.2192 Y5.2297
G01 X20.5849
G01 X20.6114 Y5.3197
G01 X20.2436
G01 X20.2680 Y5.4097
G01 X20.6379
G01 X20.6644 Y5.4997
G01 X20.2923
G01 X20.3167 Y5.5897
G01 X20.6909
G01 X20.7174 Y5.6797
G01 X20.3411
G01 X20.3654 Y5.7697
G01 X20.7439
G01 X20.7704 Y5.8597
G01 X20.3898
G01 X20.4144 Y5.9497
G01 X20.7969
G01 X20.8235 Y6.0397
G01 X20.4394
G01 X20.4644 Y6.1297
G01 X20.8500
G01 X20.8765 Y6.2197
G01 X20.4895
G01 X20.5145 Y6.3097
G01 X20.9030
G01 X20.9295 Y6.3997
G01 X20.5395
G01 X20.5645 Y6.4897
G01 X20.9560
G01 X20.9825 Y6.5797
G01 X20.5895
G01 X20.6145 Y6.6697
G01 X21.0090
G01 X21.0355 Y6.7597
G01 X20.6396
G01 X20.6646 Y6.8497
G01 X21.0620
G01 X21.0885 Y6.9397
G01 X20.6896
G01 X20.7146 Y7.0297
G01 X21.1151
G01 X21.1416 Y7.1197
G01 X20.7396
G01 X20.7646 Y7.2097
G01 X21.1681
G01 X21.1946 Y7.2997
G01 X20.7897
G01 X20.8147 Y7.3897
G01 X21.2211
G01 X21.2476 Y7.4797
G01 X20.8397
G01 X20.8647 Y7.5697
G01 X21.2741
G01 X21.3006 Y7.6597
G01 X20.8897
G01 X20.9147 Y7.7497
G01 X21.3271
G01 X21.3536 Y7.8397
G01 X20.9397
G00 Z20.0000
G00 X19.1432 Y7.3897
G00 Z0.3500
G01 Z-0.2500 F30
G01 Y7.4797 F508
G01 X18.5330
G01 X18.5583 Y7.5697
G01 X19.1181
G01 X19.0929 Y7.6597
G01 X18.5835
G01 X18.6088 Y7.7497
G01 X19.0678
G01 X19.0426 Y7.8397
G01 X18.6340
G00 Z20.0000
G00 Z0.3500
G01 Z-0.2500 F30
G01 X18.6263 Y7.8419 F508
G01 X18.6302 Y7.8557
G01 X19.0491 Y7.8537
G01 X19.7028 Y5.5140
G01 X19.8381 Y4.9767
G01 X19.9366 Y4.5478
G01 X19.9457 Y4.5160
G03 X20.0382 Y4.5270 I0.0441 J0.0235
G01 X20.0629 Y4.6230
G01 X20.1821 Y5.1307
G01 X20.3954 Y5.9188
G01 X20.9358 Y7.8557
G01 X21.3687
G01 X20.2699 Y4.1338
G01 X19.7291 Y4.1355
G01 X19.0780 Y6.5241
G01 X18.9983 Y6.8410
G01 X18.8885 Y7.3388
G03 X18.7909 Y7.3389 I-0.0488 J-0.0109
G01 X18.6718 Y6.8137
G01 X18.4625 Y6.0295
G01 X17.9399 Y4.1338
G01 X17.3981 Y4.1363
G01 X16.3026 Y7.8557
G01 X16.7383 Y7.8536
G01 X17.4135 Y5.4651
G01 X17.5305 Y5.0039
G01 X17.6337 Y4.5480
G01 X17.6435 Y4.5146
G03 X17.7357 Y4.5285 I0.0434 J0.0249
G02 X18.1166 Y6.0323 I20.8491 J-4.4813
G01 X18.6263 Y7.8419
G01 X18.6340 Y7.8397
G00 Z20.0000


(No. 3: Hole 3)
G00 X21.8477 Y4.1947 Z20.0000
G00 Z0.5000
G01 Z0.0000 F30
G01 X22.1075 Z-0.0750
G01 X21.8477 Z-0.1500
G01 X22.2458 F508
G01 Y4.2847
G01 X21.8477
G01 Y4.3747
G01 X22.2458
G01 Y4.4647
G01 X21.8477
G01 Y4.5547
G01 X22.2458
G01 Y4.6447
G01 X21.8477
G01 Y4.7347
G01 X22.2458
G01 Y4.8247
G01 X21.8477
G01 Y4.9147
G01 X22.2458
G01 Y5.0047
G01 X21.8477
G01 Y5.0947
G01 X22.2458
G01 Y5.1847
G01 X21.8477
G01 Y5.2747
G01 X22.2458
G01 Y5.3647
G01 X21.8477
G01 Y5.4547
G01 X22.2458
G01 Y5.5447
G01 X21.8477
G01 Y5.6347
G01 X22.2458
G01 X22.2806 Y5.7247
G01 X21.8477
G01 Y5.8147
G01 X24.0651
G01 X23.9417
G01 Y5.7247
G01 X23.5219
G01 X23.5898 Y5.6347
G01 X23.9919
G01 X24.0507 Y5.5447
G01 X23.6461
G01 X23.7024 Y5.4547
G01 X24.1095
G01 X24.1683 Y5.3647
G01 X23.7587
G01 X23.8150 Y5.2747
G01 X24.2271
G01 X24.2859 Y5.1847
G01 X23.8713
G01 X23.9276 Y5.0947
G01 X24.3447
G01 X24.4035 Y5.0047
G01 X23.9839
G01 X24.0402 Y4.9147
G01 X24.4623
G01 X24.5212 Y4.8247
G01 X24.0966
G01 X24.1529 Y4.7347
G01 X24.5800
G01 X24.6388 Y4.6447
G01 X24.2092
G01 X24.2655 Y4.5547
G01 X24.6976
G01 X24.7564 Y4.4647
G01 X24.3218
G01 X24.3781 Y4.3747
G01 X24.8152
G01 X24.8740 Y4.2847
G01 X24.4344
G01 X24.4907 Y4.1947
G01 X24.9328
G00 Z20.0000
G00 X21.8477 Y5.8147
G00 Z0.5000
G01 Z-0.1500 F30
G01 Y5.9047 F508
G01 X24.3357
G01 Y5.9947
G01 X24.4631
G01 X21.8477
G01 Y6.0847
G01 X22.2458
G01 Y6.1747
G01 X21.8477
G01 Y6.2647
G01 X22.2458
G01 Y6.3547
G01 X21.8477
G01 Y6.4447
G01 X22.2458
G01 Y6.5347
G01 X21.8477
G01 Y6.6247
G01 X22.2458
G01 Y6.7147
G01 X21.8477
G01 Y6.8047
G01 X22.2458
G01 Y6.8947
G01 X21.8477
G01 Y6.9847
G01 X22.2458
G01 Y7.0747
G01 X21.8477
G01 Y7.1647
G01 X22.2458
G01 Y7.2547
G01 X21.8477
G01 Y7.3447
G01 X22.2458
G01 Y7.4347
G01 X21.8477
G01 Y7.5247
G01 X22.2566
G01 X21.8477
G01 Y7.6147
G01 X24.4549
G01 Y7.5247
G01 X24.5777
G01 X23.7610
G01 X24.0760
G01 Y7.4347
G01 X24.6463
G01 X24.7149 Y7.3447
G01 X24.2404
G01 X24.3116 Y7.2547
G01 X24.7835
G01 X24.8057 Y7.1647
G01 X24.3827
G01 X24.4228 Y7.0747
G01 X24.8229
G01 X24.8401 Y6.9847
G01 X24.4399
G01 X24.4570 Y6.8947
G01 X24.8574
G01 X24.8718 Y6.8047
G01 X24.4731
G01 X24.4575 Y6.7147
G01 X24.8580
G01 X24.8437 Y6.6247
G01 X24.4410
G01 X24.4246 Y6.5347
G01 X24.8295
G01 X24.8143 Y6.4447
G01 X24.3907
G01 X24.3248 Y6.3547
G01 X24.7651
G01 X24.7135 Y6.2647
G01 X24.2590
G01 Y6.1747
G01 X24.1350
G01 X24.6618
G01 X24.5754 Y6.0847
G01 X23.9645
G00 Z20.0000
G00 X24.2784 Y7.6147
G00 Z0.5000
G01 Z-0.1500 F30
G01 Y7.7047 F508
G01 X21.8477
G01 Y7.7947
G01 X23.9857
G00 Z20.0000
G00 X23.9177 Y7.5247
G00 Z0.5000
G01 Z-0.1500 F30
G01 Y7.4964 F508
G01 X23.8965 Y7.4989
G01 X23.5403 Y7.5403
G01 X23.5146 Y7.5407
G01 X22.3058
G03 X22.2559 Y7.4942 I0.0000 J-0.0500
G01 X22.2558 Y6.0802
G01 X22.2580 Y6.0654
G03 X22.3023 Y6.0303 I0.0478 J0.0148
G01 X23.5562 Y6.0302
G01 X23.9259 Y6.0784
G01 X23.9403 Y6.0825
G01 X24.2131 Y6.2272
G01 X24.2251 Y6.2361
G01 X24.3978 Y6.4714
G01 X24.4047 Y6.4847
G01 X24.4102 Y6.5116
G01 X24.4626 Y6.7981
G01 X24.4631 Y6.8131
G01 X24.4059 Y7.1105
G01 X24.4009 Y7.1246
G01 X24.2261 Y7.3468
G01 X24.2152 Y7.3570
G01 X23.9320 Y7.4921
G01 X23.9177 Y7.4964
G01 Y7.5247
G00 Z20.0000
G00 X23.9536 Y7.7947
G00 Z0.5000
G01 Z-0.1500 F30
G01 Y7.8089 F508
G01 X24.1432 Y7.7849
G01 X24.5424 Y7.5813
G01 X24.5553 Y7.5706
G01 X24.7945 Y7.2569
G01 X24.8010 Y7.2422
G02 X24.3664 Y5.9044 I-0.9523 J-0.4301
G01 X23.9838 Y5.7772
G03 X23.9511 Y5.7311 I0.0173 J-0.0469
G01 X23.9531 Y5.7163
G01 X23.9594 Y5.7027
G01 X24.9861 Y4.1338
G01 X24.5171
G01 X23.5496 Y5.6801
G03 X23.4966 Y5.7206 I-0.0556 J-0.0179
G01 X22.3258
G03 X22.2558 Y5.6706 I-0.0163 J-0.0511
G01 Y4.1338
G01 X21.8377
G01 Y7.8557
G01 X23.5829
G01 X23.9536 Y7.8089
G01 Y7.7947
G00 Z20.0000
G00 X22.2458 Y4.1947
G00 Z0.3500
G01 Z-0.1500 F30
G01 X22.0726 Z-0.2000
G01 X22.2458 Z-0.2500
G01 X21.8477 F508
G01 Y4.2847
G01 X22.2458
G01 Y4.3747
G01 X21.8477
G01 Y4.4647
G01 X22.2458
G01 Y4.5547
G01 X21.8477
G01 Y4.6447
G01 X22.2458
G01 Y4.7347
G01 X21.8477
G01 Y4.8247
G01 X22.2458
G01 Y4.9147
G01 X21.8477
G01 Y5.0047
G01 X22.2458
G01 Y5.0947
G01 X21.8477
G01 Y5.1847
G01 X22.2458
G01 Y5.2747
G01 X21.8477
G01 Y5.3647
G01 X22.2458
G01 Y5.4547
G01 X21.8477
G01 Y5.5447
G01 X22.2458
G01 Y5.6347
G01 X21.8477
G01 Y5.7247
G01 X22.2806
G01 X21.8477
G01 Y5.8147
G01 X24.0651
G01 X23.9417
G01 Y5.7247
G01 X23.5219
G01 X23.5898 Y5.6347
G01 X23.9919
G01 X24.0507 Y5.5447
G01 X23.6461
G01 X23.7024 Y5.4547
G01 X24.1095
G01 X24.1683 Y5.3647
G01 X23.7587
G01 X23.8150 Y5.2747
G01 X24.2271
G01 X24.2859 Y5.1847
G01 X23.8713
G01 X23.9276 Y5.0947
G01 X24.3447
G01 X24.4035 Y5.0047
G01 X23.9839
G01 X24.0402 Y4.9147
G01 X24.4623
G01 X24.5212 Y4.8247
G01 X24.0966
G01 X24.1529 Y4.7347
G01 X24.5800
G01 X24.6388 Y4.6447
G01 X24.2092
G01 X24.2655 Y4.5547
G01 X24.6976
G01 X24.7564 Y4.4647
G01 X24.3218
G01 X24.3781 Y4.3747
G01 X24.8152
G01 X24.8740 Y4.2847
G01 X24.4344
G01 X24.4907 Y4.1947
G01 X24.9328
G00 Z20.0000
G00 X21.8477 Y5.8147
G00 Z0.3500
G01 Z-0.2500 F30
G01 Y5.9047 F508
G01 X24.3357
G01 Y5.9947
G01 X24.4631
G01 X21.8477
G01 Y6.0847
G01 X22.2458
G01 Y6.1747
G01 X21.8477
G01 Y6.2647
G01 X22.2458
G01 Y6.3547
G01 X21.8477
G01 Y6.4447
G01 X22.2458
G01 Y6.5347
G01 X21.8477
G01 Y6.6247
G01 X22.2458
G01 Y6.7147
G01 X21.8477
G01 Y6.8047
G01 X22.2458
G01 Y6.8947
G01 X21.8477
G01 Y6.9847
G01 X22.2458
G01 Y7.0747
G01 X21.8477
G01 Y7.1647
G01 X22.2458
G01 Y7.2547
G01 X21.8477
G01 Y7.3447
G01 X22.2458
G01 Y7.4347
G01 X21.8477
G01 Y7.5247
G01 X22.2566
G01 X21.8477
G01 Y7.6147
G01 X24.4549
G01 Y7.5247
G01 X24.5777
G01 X23.7610
G01 X24.0760
G01 Y7.4347
G01 X24.6463
G01 X24.7149 Y7.3447
G01 X24.2404
G01 X24.3116 Y7.2547
G01 X24.7835
G01 X24.8057 Y7.1647
G01 X24.3827
G01 X24.4228 Y7.0747
G01 X24.8229
G01 X24.8401 Y6.9847
G01 X24.4399
G01 X24.4570 Y6.8947
G01 X24.8574
G01 X24.8718 Y6.8047
G01 X24.4731
G01 X24.4575 Y6.7147
G01 X24.8580
G01 X24.8437 Y6.6247
G01 X24.4410
G01 X24.4246 Y6.5347
G01 X24.8295
G01 X24.8143 Y6.4447
G01 X24.3907
G01 X24.3248 Y6.3547
G01 X24.7651
G01 X24.7135 Y6.2647
G01 X24.2590
G01 Y6.1747
G01 X24.1350
G01 X24.6618
G01 X24.5754 Y6.0847
G01 X23.9645
G00 Z20.0000
G00 X24.2784 Y7.6147
G00 Z0.3500
G01 Z-0.2500 F30
G01 Y7.7047 F508
G01 X21.8477
G01 Y7.7947
G01 X23.9857
G00 Z20.0000
G00 X23.9177 Y7.5247
G00 Z0.3500
G01 Z-0.2500 F30
G01 Y7.4964 F508
G01 X23.8965 Y7.4989
G01 X23.5403 Y7.5403
G01 X23.5146 Y7.5407
G01 X22.3058
G03 X22.2559 Y7.4942 I0.0000 J-0.0500
G01 X22.2558 Y6.0802
G01 X22.2580 Y6.0654
G03 X22.3023 Y6.0303 I0.0478 J0.0148
G01 X23.5562 Y6.0302
G01 X23.9259 Y6.0784
G01 X23.9403 Y6.0825
G01 X24.2131 Y6.2272
G01 X24.2251 Y6.2361
G01 X24.3978 Y6.4714
G01 X24.4047 Y6.4847
G01 X24.4102 Y6.5116
G01 X24.4626 Y6.7981
G01 X24.4631 Y6.8131
G01 X24.4059 Y7.1105
G01 X24.4009 Y7.1246
G01 X24.2261 Y7.3468
G01 X24.2152 Y7.3570
G01 X23.9320 Y7.4921
G01 X23.9177 Y7.4964
G01 Y7.5247
G00 Z20.0000
G00 X23.9536 Y7.7947
G00 Z0.3500
G01 Z-0.2500 F30
G01 Y7.8089 F508
G01 X24.1432 Y7.7849
G01 X24.5424 Y7.5813
G01 X24.5553 Y7.5706
G01 X24.7945 Y7.2569
G01 X24.8010 Y7.2422
G02 X24.3664 Y5.9044 I-0.9523 J-0.4301
G01 X23.9838 Y5.7772
G03 X23.9511 Y5.7311 I0.0173 J-0.0469
G01 X23.9531 Y5.7163
G01 X23.9594 Y5.7027
G01 X24.9861 Y4.1338
G01 X24.5171
G01 X23.5496 Y5.6801
G03 X23.4966 Y5.7206 I-0.0556 J-0.0179
G01 X22.3258
G03 X22.2558 Y5.6706 I-0.0163 J-0.0511
G01 Y4.1338
G01 X21.8377
G01 Y7.8557
G01 X23.5829
G01 X23.9536 Y7.8089
G01 Y7.7947
G00 Z20.0000


(No. 4: Hole 4)
G00 X38.7657 Y4.2222 Z20.0000
G00 Z0.5000
G01 Z0.0000 F30
G01 X39.0255 Z-0.0750
G01 X38.7657 Z-0.1500
G01 X41.0951 F508
G01 Y4.3122
G01 X38.7657
G01 Y4.4022
G01 X41.0951
G01 X39.1812
G01 Y4.4922
G01 X38.7657
G01 Y4.5822
G01 X39.1638
G01 Y4.6722
G01 X38.7657
G01 Y4.7622
G01 X39.1638
G01 Y4.8522
G01 X38.7657
G01 Y4.9422
G01 X39.1638
G01 Y5.0322
G01 X38.7657
G01 Y5.1222
G01 X39.1638
G01 Y5.2122
G01 X38.7657
G01 Y5.3022
G01 X39.1638
G01 Y5.3922
G01 X38.7657
G01 Y5.4822
G01 X39.1638
G01 Y5.5722
G01 X38.7657
G01 Y5.6622
G01 X39.1638
G01 Y5.7522
G01 X38.7657
G01 Y5.8422
G01 X39.1638
G01 Y5.9322
G01 X38.7657
G01 Y6.0222
G01 X39.1638
G01 Y6.1122
G01 X38.7657
G01 Y6.2022
G01 X39.1638
G01 Y6.2922
G01 X38.7657
G01 Y6.3822
G01 X39.1638
G01 Y6.4722
G01 X38.7657
G01 Y6.5622
G01 X39.1638
G01 Y6.6522
G01 X38.7657
G01 Y6.7422
G01 X39.1638
G01 Y6.8322
G01 X38.7657
G01 Y6.9222
G01 X39.1638
G01 Y7.0122
G01 X38.7657
G01 Y7.1022
G01 X39.1638
G01 Y7.1922
G01 X38.7657
G01 Y7.2822
G01 X39.1638
G01 Y7.3722
G01 X38.7657
G01 Y7.4622
G01 X39.1638
G01 Y7.5522
G01 X38.7657
G01 Y7.6422
G01 X39.1638
G01 Y7.7322
G01 X38.7657
G01 Y7.8222
G01 X39.1638
G00 Z20.0000
G00 Z0.5000
G01 Z-0.1500 F30
G01 X39.1738 F508
G01 Y4.5544
G01 X39.1739 Y4.5309
G03 X39.2238 Y4.4844 I0.0499 J0.0035
G01 X41.1051
G01 Y4.1613
G01 X38.7557
G01 Y7.8832
G01 X39.1738
G01 Y7.8222
G01 X39.1638
G00 Z20.0000
G00 X38.7657 Y4.2222
G00 Z0.3500
G01 Z-0.1500 F30
G01 X38.9389 Z-0.2000
G01 X38.7657 Z-0.2500
G01 X41.0951 F508
G01 Y4.3122
G01 X38.7657
G01 Y4.4022
G01 X41.0951
G01 X39.1812
G01 Y4.4922
G01 X38.7657
G01 Y4.5822
G01 X39.1638
G01 Y4.6722
G01 X38.7657
G01 Y4.7622
G01 X39.1638
G01 Y4.8522
G01 X38.7657
G01 Y4.9422
G01 X39.1638
G01 Y5.0322
G01 X38.7657
G01 Y5.1222
G01 X39.1638
G01 Y5.2122
G01 X38.7657
G01 Y5.3022
G01 X39.1638
G01 Y5.3922
G01 X38.7657
G01 Y5.4822
G01 X39.1638
G01 Y5.5722
G01 X38.7657
G01 Y5.6622
G01 X39.1638
G01 Y5.7522
G01 X38.7657
G01 Y5.8422
G01 X39.1638
G01 Y5.9322
G01 X38.7657
G01 Y6.0222
G01 X39.1638
G01 Y6.1122
G01 X38.7657
G01 Y6.2022
G01 X39.1638
G01 Y6.2922
G01 X38.7657
G01 Y6.3822
G01 X39.1638
G01 Y6.4722
G01 X38.7657
G01 Y6.5622
G01 X39.1638
G01 Y6.6522
G01 X38.7657
G01 Y6.7422
G01 X39.1638
G01 Y6.8322
G01 X38.7657
G01 Y6.9222
G01 X39.1638
G01 Y7.0122
G01 X38.7657
G01 Y7.1022
G01 X39.1638
G01 Y7.1922
G01 X38.7657
G01 Y7.2822
G01 X39.1638
G01 Y7.3722
G01 X38.7657
G01 Y7.4622
G01 X39.1638
G01 Y7.5522
G01 X38.7657
G01 Y7.6422
G01 X39.1638
G01 Y7.7322
G01 X38.7657
G01 Y7.8222
G01 X39.1638
G00 Z20.0000
G00 Z0.3500
G01 Z-0.2500 F30
G01 X39.1738 F508
G01 Y4.5544
G01 X39.1739 Y4.5309
G03 X39.2238 Y4.4844 I0.0499 J0.0035
G01 X41.1051
G01 Y4.1613
G01 X38.7557
G01 Y7.8832
G01 X39.1738
G01 Y7.8222
G01 X39.1638
G00 Z20.0000


(No. 5: Hole 5)
G00 X41.7830 Y4.2222 Z20.0000
G00 Z0.5000
G01 Z0.0000 F30
G01 X42.0428 Z-0.0750
G01 X41.7830 Z-0.1500
G01 X44.6739 F508
G01 Y4.3122
G01 X41.7830
G01 Y4.4022
G01 X44.6739
G01 X42.1985
G01 Y4.4922
G01 X41.7830
G01 Y4.5822
G01 X42.1819
G01 Y4.6722
G01 X41.7830
G01 Y4.7622
G01 X42.1818
G01 Y4.8522
G01 X41.7830
G01 Y4.9422
G01 X42.1817
G01 X42.1816 Y5.0322
G01 X41.7830
G01 Y5.1222
G01 X42.1816
G01 X42.1815 Y5.2122
G01 X41.7830
G01 Y5.3022
G01 X42.1815
G01 X42.1814 Y5.3922
G01 X41.7830
G01 Y5.4822
G01 X42.1813
G01 Y5.5722
G01 X41.7830
G01 Y5.6622
G01 X42.1812
G01 Y5.7522
G01 X41.7830
G01 Y5.8422
G01 X42.1811
G01 X41.7830
G01 Y5.9322
G01 X44.3999
G01 Y6.0222
G01 X41.7830
G01 Y6.1122
G01 X44.3999
G01 Y6.2022
G01 X41.7830
G01 Y6.2922
G01 X42.1814
G01 X42.1811 Y6.3822
G01 X41.7830
G01 Y6.4722
G01 X42.1811
G01 Y6.5622
G01 X41.7830
G01 Y6.6522
G01 X42.1811
G01 Y6.7422
G01 X41.7830
G01 Y6.8322
G01 X42.1811
G01 Y6.9222
G01 X41.7830
G01 Y7.0122
G01 X42.1811
G01 Y7.1022
G01 X41.7830
G01 Y7.1922
G01 X42.1811
G01 Y7.2822
G01 X41.7830
G01 Y7.3722
G01 X42.1811
G01 Y7.4622
G01 X41.7830
G01 Y7.5522
G01 X42.1986
G01 X41.7830
G01 Y7.6422
G01 X44.5627
G01 Y7.7322
G01 X41.7830
G01 Y7.8222
G01 X44.5627
G00 Z20.0000
G00 Z0.5000
G01 Z-0.1500 F30
G01 X44.5727 F508
G01 Y7.5600
G01 X42.2376 Y7.5599
G03 X42.1911 Y7.5100 I0.0035 J-0.0499
G01 X42.1912 Y6.2804
G03 X42.2411 Y6.2340 I0.0499 J0.0035
G01 X44.4099
G01 Y5.9163
G01 X42.2611
G03 X42.1911 Y5.8663 I-0.0163 J-0.0511
G01 X42.1912 Y4.5309
G03 X42.2411 Y4.4844 I0.0499 J0.0035
G01 X44.6839
G01 Y4.1613
G01 X41.7730
G01 Y7.8832
G01 X44.5727
G01 Y7.8222
G01 X44.5627
G00 Z20.0000
G00 X44.6739 Y4.2222
G00 Z0.3500
G01 Z-0.1500 F30
G01 X44.5007 Z-0.2000
G01 X44.6739 Z-0.2500
G01 X41.7830 F508
G01 Y4.3122
G01 X44.6739
G01 Y4.4022
G01 X41.7830
G01 Y4.4922
G01 X42.1985
G01 X42.1819 Y4.5822
G01 X41.7830
G01 Y4.6722
G01 X42.1819
G01 X42.1818 Y4.7622
G01 X41.7830
G01 Y4.8522
G01 X42.1818
G01 X42.1817 Y4.9422
G01 X41.7830
G01 Y5.0322
G01 X42.1816
G01 Y5.1222
G01 X41.7830
G01 Y5.2122
G01 X42.1815
G01 Y5.3022
G01 X41.7830
G01 Y5.3922
G01 X42.1814
G01 X42.1813 Y5.4822
G01 X41.7830
G01 Y5.5722
G01 X42.1813
G01 X42.1812 Y5.6622
G01 X41.7830
G01 Y5.7522
G01 X42.1812
G01 X42.1811 Y5.8422
G01 X41.7830
G01 Y5.9322
G01 X44.3999
G01 Y6.0222
G01 X41.7830
G01 Y6.1122
G01 X44.3999
G01 Y6.2022
G01 X41.7830
G01 Y6.2922
G01 X42.1814
G01 X42.1811 Y6.3822
G01 X41.7830
G01 Y6.4722
G01 X42.1811
G01 Y6.5622
G01 X41.7830
G01 Y6.6522
G01 X42.1811
G01 Y6.7422
G01 X41.7830
G01 Y6.8322
G01 X42.1811
G01 Y6.9222
G01 X41.7830
G01 Y7.0122
G01 X42.1811
G01 Y7.1022
G01 X41.7830
G01 Y7.1922
G01 X42.1811
G01 Y7.2822
G01 X41.7830
G01 Y7.3722
G01 X42.1811
G01 Y7.4622
G01 X41.7830
G01 Y7.5522
G01 X42.1986
G01 X41.7830
G01 Y7.6422
G01 X44.5627
G01 Y7.7322
G01 X41.7830
G01 Y7.8222
G01 X44.5627
G00 Z20.0000
G00 Z0.3500
G01 Z-0.2500 F30
G01 X44.5727 F508
G01 Y7.5600
G01 X42.2376 Y7.5599
G03 X42.1911 Y7.5100 I0.0035 J-0.0499
G01 X42.1912 Y6.2804
G03 X42.2411 Y6.2340 I0.0499 J0.0035
G01 X44.4099
G01 Y5.9163
G01 X42.2611
G03 X42.1911 Y5.8663 I-0.0163 J-0.0511
G01 X42.1912 Y4.5309
G03 X42.2411 Y4.4844 I0.0499 J0.0035
G01 X44.6839
G01 Y4.1613
G01 X41.7730
G01 Y7.8832
G01 X44.5727
G01 Y7.8222
G01 X44.5627
G00 Z20.0000


(No. 6: Hole 6)
G00 X45.4017 Y4.2222 Z20.0000
G00 Z0.5000
G01 Z0.0000 F30
G01 X45.6615 Z-0.0750
G01 X45.4017 Z-0.1500
G01 X47.2174 F508
G01 Y4.3122
G01 X47.4918
G01 X45.4017
G01 Y4.4022
G01 X47.7209
G01 X45.8104
G01 Y4.4922
G01 X45.4017
G01 Y4.5822
G01 X45.7998
G01 Y4.6722
G01 X45.4017
G01 Y4.7622
G01 X45.7999
G01 Y4.8522
G01 X45.4017
G01 Y4.9422
G01 X45.7999
G01 Y5.0322
G01 X45.4017
G01 Y5.1222
G01 X45.8000
G01 Y5.2122
G01 X45.4017
G01 Y5.3022
G01 X45.8000
G01 X45.8001 Y5.3922
G01 X45.4017
G01 Y5.4822
G01 X45.8001
G01 Y5.5722
G01 X45.4017
G01 Y5.6622
G01 X45.8001
G01 X45.8002 Y5.7522
G01 X45.4017
G01 Y5.8422
G01 X45.8002
G01 Y5.9322
G01 X45.4017
G01 Y6.0222
G01 X45.8002
G01 X45.8003 Y6.1122
G01 X45.4017
G01 Y6.2022
G01 X45.8003
G01 Y6.2922
G01 X45.4017
G01 Y6.3822
G01 X45.8003
G01 X45.8004 Y6.4722
G01 X45.4017
G01 Y6.5622
G01 X45.8004
G01 Y6.6522
G01 X45.4017
G01 Y6.7422
G01 X45.8004
G01 X45.8005 Y6.8322
G01 X45.4017
G01 Y6.9222
G01 X45.8005
G01 Y7.0122
G01 X45.4017
G01 Y7.1022
G01 X45.8005
G01 X45.8006 Y7.1922
G01 X45.4017
G01 Y7.2822
G01 X45.8006
G01 Y7.3722
G01 X45.4017
G01 Y7.4622
G01 X45.8007
G01 X45.8106 Y7.5522
G01 X45.4017
G01 Y7.6422
G01 X47.6409
G01 Y7.5522
G01 X47.7982
G01 X46.7800
G01 X47.3004
G01 Y7.4622
G01 X47.9555
G01 Y7.3722
G01 X48.0817
G01 X47.4536
G01 X47.6068
G01 Y7.2822
G01 X48.1421
G01 X48.2025 Y7.1922
G01 X47.7587
G01 X47.8205 Y7.1022
G01 X48.2629
G01 X48.3233 Y7.0122
G01 X47.8779
G01 X47.9353 Y6.9222
G01 X48.3837
G01 X48.4420 Y6.8322
G01 X47.9928
G01 X48.0502 Y6.7422
G01 X48.4582
G01 X48.4731 Y6.6522
G01 X48.0800
G01 X48.0940 Y6.5622
G01 X48.4880
G01 X48.5029 Y6.4722
G01 X48.1080
G01 X48.1220 Y6.3822
G01 X48.5179
G01 X48.5328 Y6.2922
G01 X48.1359
G01 X48.1499 Y6.2022
G01 X48.5477
G01 X48.5627 Y6.1122
G01 X48.1639
G01 X48.1676 Y6.0222
G01 X48.5675
G01 X48.5581 Y5.9322
G01 X48.1589
G01 X48.1501 Y5.8422
G01 X48.5488
G01 X48.5394 Y5.7522
G01 X48.1414
G01 X48.1327 Y5.6622
G01 X48.5301
G01 X48.5207 Y5.5722
G01 X48.1153
G01 X48.0848 Y5.4822
G01 X48.5016
G01 X48.4692 Y5.3922
G01 X48.0542
G01 X48.0237 Y5.3022
G01 X48.4368
G01 X48.4044 Y5.2122
G01 X47.9918
G01 X47.9312 Y5.1222
G01 X48.3720
G01 X48.3317 Y5.0322
G01 X47.8702
G01 X47.8092 Y4.9422
G01 X48.2676
G01 X48.2036 Y4.8522
G01 X47.7238
G01 Y4.7622
G01 X47.6113
G01 X48.1395
G01 X48.0725 Y4.6722
G01 X47.4986
G01 Y4.5822
G01 X47.2917
G01 X47.9553
G01 X47.8381
G01 Y4.4922
G01 X46.9357
G00 Z20.0000
G00 X47.4835 Y7.6422
G00 Z0.5000
G01 Z-0.1500 F30
G01 Y7.7322 F508
G01 X45.4017
G01 Y7.8222
G01 X46.9614
G00 Z20.0000
G00 X46.9184 Y7.5522
G00 Z0.5000
G01 Z-0.1500 F30
G01 Y7.5222 F508
G01 X46.6019 Y7.5677
G01 X46.5748 Y7.5682
G01 X45.8598
G03 X45.8099 Y7.5217 I0.0000 J-0.0500
G01 X45.8098 Y7.4982
G01 Y4.5263
G03 X45.8287 Y4.4871 I0.0500 J0.0000
G01 X45.8417 Y4.4797
G01 X45.8563 Y4.4764
G01 X46.7115 Y4.4763
G01 X47.1123 Y4.5227
G01 X47.1437 Y4.5335
G01 X47.4693 Y4.6643
G01 X47.4975 Y4.6841
G01 X47.7636 Y4.8968
G01 X47.7738 Y4.9078
G01 X47.9816 Y5.2143
G01 X47.9940 Y5.2453
G01 X48.1158 Y5.6047
G01 X48.1201 Y5.6359
G01 X48.1609 Y6.0567
G01 X48.1574 Y6.0890
G01 X48.0632 Y6.6955
G01 X48.0587 Y6.7097
G01 X48.0452 Y6.7315
G01 X47.7640 Y7.1721
G01 X47.7542 Y7.1833
G01 X47.7300 Y7.1984
G01 X47.2708 Y7.4680
G01 X47.2569 Y7.4736
G01 X46.9184 Y7.5222
G01 Y7.5522
G00 Z20.0000
G00 X46.9581 Y7.8222
G00 Z0.5000
G01 Z-0.1500 F30
G01 Y7.8328 F508
G01 X47.4494 Y7.7633
G01 X48.0621 Y7.4128
G01 X48.0739 Y7.4018
G01 X48.4473 Y6.8454
G01 X48.4539 Y6.8287
G01 X48.5815 Y6.0600
G02 X47.7229 Y4.3912 I-1.7996 J-0.1294
G01 X47.2798 Y4.2193
G01 X46.7684 Y4.1613
G01 X45.3917
G01 Y7.8832
G01 X46.6022
G01 X46.9581 Y7.8328
G01 Y7.8222
G00 Z20.0000
G00 X47.2174 Y4.2222
G00 Z0.3500
G01 Z-0.1500 F30
G01 X47.0442 Z-0.2000
G01 X47.2174 Z-0.2500
G01 X45.4017 F508
G01 Y4.3122
G01 X47.4918
G01 Y4.4022
G01 X47.7209
G01 X45.4017
G01 Y4.4922
G01 X45.8104
G01 X45.7998 Y4.5822
G01 X45.4017
G01 Y4.6722
G01 X45.7998
G01 X45.7999 Y4.7622
G01 X45.4017
G01 Y4.8522
G01 X45.7999
G01 Y4.9422
G01 X45.4017
G01 Y5.0322
G01 X45.7999
G01 X45.8000 Y5.1222
G01 X45.4017
G01 Y5.2122
G01 X45.8000
G01 Y5.3022
G01 X45.4017
G01 Y5.3922
G01 X45.8001
G01 Y5.4822
G01 X45.4017
G01 Y5.5722
G01 X45.8001
G01 Y5.6622
G01 X45.4017
G01 Y5.7522
G01 X45.8002
G01 Y5.8422
G01 X45.4017
G01 Y5.9322
G01 X45.8002
G01 Y6.0222
G01 X45.4017
G01 Y6.1122
G01 X45.8003
G01 Y6.2022
G01 X45.4017
G01 Y6.2922
G01 X45.8003
G01 Y6.3822
G01 X45.4017
G01 Y6.4722
G01 X45.8004
G01 Y6.5622
G01 X45.4017
G01 Y6.6522
G01 X45.8004
G01 Y6.7422
G01 X45.4017
G01 Y6.8322
G01 X45.8005
G01 Y6.9222
G01 X45.4017
G01 Y7.0122
G01 X45.8005
G01 Y7.1022
G01 X45.4017
G01 Y7.1922
G01 X45.8006
G01 Y7.2822
G01 X45.4017
G01 Y7.3722
G01 X45.8006
G01 X45.8007 Y7.4622
G01 X45.4017
G01 Y7.5522
G01 X45.8106
G01 X45.4017
G01 Y7.6422
G01 X47.6409
G01 Y7.5522
G01 X47.7982
G01 X46.7800
G01 X47.3004
G01 Y7.4622
G01 X47.9555
G01 Y7.3722
G01 X48.0817
G01 X47.4536
G01 X47.6068
G01 Y7.2822
G01 X48.1421
G01 X48.2025 Y7.1922
G01 X47.7587
G01 X47.8205 Y7.1022
G01 X48.2629
G01 X48.3233 Y7.0122
G01 X47.8779
G01 X47.9353 Y6.9222
G01 X48.3837
G01 X48.4420 Y6.8322
G01 X47.9928
G01 X48.0502 Y6.7422
G01 X48.4582
G01 X48.4731 Y6.6522
G01 X48.0800
G01 X48.0940 Y6.5622
G01 X48.4880
G01 X48.5029 Y6.4722
G01 X48.1080
G01 X48.1220 Y6.3822
G01 X48.5179
G01 X48.5328 Y6.2922
G01 X48.1359
G01 X48.1499 Y6.2022
G01 X48.5477
G01 X48.5627 Y6.1122
G01 X48.1639
G01 X48.1676 Y6.0222
G01 X48.5675
G01 X48.5581 Y5.9322
G01 X48.1589
G01 X48.1501 Y5.8422
G01 X48.5488
G01 X48.5394 Y5.7522
G01 X48.1414
G01 X48.1327 Y5.6622
G01 X48.5301
G01 X48.5207 Y5.5722
G01 X48.1153
G01 X48.0848 Y5.4822
G01 X48.5016
G01 X48.4692 Y5.3922
G01 X48.0542
G01 X48.0237 Y5.3022
G01 X48.4368
G01 X48.4044 Y5.2122
G01 X47.9918
G01 X47.9312 Y5.1222
G01 X48.3720
G01 X48.3317 Y5.0322
G01 X47.8702
G01 X47.8092 Y4.9422
G01 X48.2676
G01 X48.2036 Y4.8522
G01 X47.7238
G01 Y4.7622
G01 X47.6113
G01 X48.1395
G01 X48.0725 Y4.6722
G01 X47.4986
G01 Y4.5822
G01 X47.2917
G01 X47.9553
G01 X47.8381
G01 Y4.4922
G01 X46.9357
G00 Z20.0000
G00 X47.4835 Y7.6422
G00 Z0.3500
G01 Z-0.2500 F30
G01 Y7.7322 F508
G01 X45.4017
G01 Y7.8222
G01 X46.9614
G00 Z20.0000
G00 X46.9184 Y7.5522
G00 Z0.3500
G01 Z-0.2500 F30
G01 Y7.5222 F508
G01 X46.6019 Y7.5677
G01 X46.5748 Y7.5682
G01 X45.8598
G03 X45.8099 Y7.5217 I0.0000 J-0.0500
G01 X45.8098 Y7.4982
G01 Y4.5263
G03 X45.8287 Y4.4871 I0.0500 J0.0000
G01 X45.8417 Y4.4797
G01 X45.8563 Y4.4764
G01 X46.7115 Y4.4763
G01 X47.1123 Y4.5227
G01 X47.1437 Y4.5335
G01 X47.4693 Y4.6643
G01 X47.4975 Y4.6841
G01 X47.7636 Y4.8968
G01 X47.7738 Y4.9078
G01 X47.9816 Y5.2143
G01 X47.9940 Y5.2453
G01 X48.1158 Y5.6047
G01 X48.1201 Y5.6359
G01 X48.1609 Y6.0567
G01 X48.1574 Y6.0890
G01 X48.0632 Y6.6955
G01 X48.0587 Y6.7097
G01 X48.0452 Y6.7315
G01 X47.7640 Y7.1721
G01 X47.7542 Y7.1833
G01 X47.7300 Y7.1984
G01 X47.2708 Y7.4680
G01 X47.2569 Y7.4736
G01 X46.9184 Y7.5222
G01 Y7.5522
G00 Z20.0000
G00 X46.9581 Y7.8222
G00 Z0.3500
G01 Z-0.2500 F30
G01 Y7.8328 F508
G01 X47.4494 Y7.7633
G01 X48.0621 Y7.4128
G01 X48.0739 Y7.4018
G01 X48.4473 Y6.8454
G01 X48.4539 Y6.8287
G01 X48.5815 Y6.0600
G02 X47.7229 Y4.3912 I-1.7996 J-0.1294
G01 X47.2798 Y4.2193
G01 X46.7684 Y4.1613
G01 X45.3917
G01 Y7.8832
G01 X46.6022
G01 X46.9581 Y7.8328
G01 Y7.8222
G00 Z20.0000


(No. 7: Hole 7)
G00 X50.0030 Y4.1347 Z20.0000
G00 Z0.5000
G01 Z0.0000 F30
G01 X50.2628 Z-0.0750
G01 X50.0030 Z-0.1500
G01 X50.3439 F508
G01 Y4.2247
G01 X50.7930
G01 X49.5494
G01 Y4.3147
G01 X49.3510
G01 X50.9933
G01 X49.8464
G01 Y4.4047
G01 X49.2573
G01 X49.1636 Y4.4947
G01 X49.6079
G01 X49.5039
G01 Y4.5847
G01 X49.1175
G01 X49.0815 Y4.6747
G01 X49.4217
G01 X49.3797 Y4.7647
G01 X49.0896
G00 Z20.0000
G00 X50.5426 Y4.3147
G00 Z0.5000
G01 Z-0.1500 F30
G01 Y4.4047 F508
G01 X51.0938
G01 X51.1714 Y4.4947
G01 X50.7699
G01 X50.8531 Y4.5847
G01 X51.2453
G01 X51.2651 Y4.6747
G01 X50.9222
G01 X50.9417 Y4.7647
G01 X51.2849
G01 X51.3046 Y4.8547
G01 X50.9612
G01 X50.9558 Y4.9447
G01 X51.3188
G01 X51.3111 Y5.0347
G01 X50.9387
G01 X50.8902 Y5.1247
G01 X51.2923
G01 X51.2626 Y5.2147
G01 X50.8221
G01 Y5.3047
G01 X50.6810
G01 X51.2151
G01 X51.1442 Y5.3947
G01 X50.4424
G01 Y5.4847
G01 X50.1089
G01 X51.0413
G01 X50.8918
G01 Y5.5747
G01 X49.8029
G01 Y5.6647
G01 X49.5702
G01 X50.6642
G01 X50.3463
G01 Y5.7547
G01 X49.4129
G01 Y5.8447
G01 X49.3067
G01 X50.0065
G01 X49.7581
G01 Y5.9347
G01 X49.2286
G01 X49.1869 Y6.0247
G01 X49.6219
G01 X49.5467 Y6.1147
G01 X49.1552
G01 X49.1439 Y6.2047
G01 X49.5059
G01 X49.4928 Y6.2947
G01 X49.1415
G01 X49.1604 Y6.3847
G01 X49.5034
G01 X49.5230 Y6.4747
G01 X49.1792
G01 X49.1981 Y6.5646
G01 X49.5710
G01 X49.6547 Y6.6546
G01 X49.2503
G01 X49.3252 Y6.7446
G01 X49.8607
G01 X49.4031
G01 Y6.8346
G01 X50.9713
G01 X51.0658 Y6.7446
G01 X50.5078
G01 X50.7206
G01 Y6.6546
G01 X51.1538
G01 X51.1883 Y6.5646
G01 X50.8230
G01 X50.8878 Y6.4747
G01 X51.2228
G00 Z20.0000
G00 X50.7904 Y6.8346
G00 Z0.5000
G01 Z-0.1500 F30
G01 Y6.9246 F508
G01 X49.6030
G01 X50.0368
G01 Y7.0146
G01 X50.3726
G00 Z20.0000
G00 Z0.5000
G01 Z-0.1500 F30
G01 X50.3736 Y7.0246 F508
G01 X50.6196 Y7.0005
G01 X50.9307 Y6.8818
G01 X50.9472 Y6.8714
G01 X51.1518 Y6.6766
G01 X51.1616 Y6.6620
G01 X51.2591 Y6.4152
G01 X50.9198 Y6.3758
G01 X50.8577 Y6.5178
G01 X50.8482 Y6.5292
G01 X50.7022 Y6.6584
G01 X50.6891 Y6.6657
G01 X50.5001 Y6.7370
G01 X50.4685 Y6.7470
G01 X50.1912 Y6.7732
G01 X49.9236 Y6.7498
G01 X49.8904 Y6.7451
G01 X49.6824 Y6.6664
G01 X49.6707 Y6.6572
G01 X49.5664 Y6.5457
G01 X49.5458 Y6.5216
G01 X49.5404 Y6.5077
G01 X49.5005 Y6.3271
G01 X49.5004 Y6.3121
G01 X49.5171 Y6.1960
G01 X49.5220 Y6.1819
G01 X49.5716 Y6.0882
G01 X49.5809 Y6.0765
G01 X49.6470 Y6.0149
G01 X49.6711 Y5.9942
G03 X50.3315 Y5.7692 I1.1231 J2.2143
G02 X51.1377 Y5.4185 I-0.1986 J-1.5584
G02 X51.0288 Y4.3196 I-0.5522 J-0.5001
G01 X50.6781 Y4.1621
G01 X50.1896 Y4.1073
G01 X49.7161 Y4.1513
G01 X49.3814 Y4.2772
G01 X49.3648 Y4.2875
G01 X49.1382 Y4.5063
G01 X49.0288 Y4.7630
G01 X49.3615 Y4.8270
G01 X49.4430 Y4.6536
G01 X49.4526 Y4.6422
G01 X49.6177 Y4.4984
G01 X49.6308 Y4.4914
G01 X49.8453 Y4.4156
G01 X49.8764 Y4.4063
G01 X50.1945 Y4.3788
G01 X50.4963 Y4.4055
G01 X50.5298 Y4.4104
G01 X50.7593 Y4.4996
G01 X50.7709 Y4.5090
G01 X50.8867 Y4.6366
G01 X50.9067 Y4.6605
G01 X50.9120 Y4.6744
G01 X50.9508 Y4.8543
G01 X50.9559 Y4.8788
G01 X50.9553 Y4.8937
G01 X50.9237 Y5.0575
G01 X50.9169 Y5.0708
G01 X50.8249 Y5.1988
G01 X50.8136 Y5.2086
G01 X50.6745 Y5.2970
G01 X50.6473 Y5.3127
G02 X49.7093 Y5.5922 I109.4670 J369.0509
G02 X49.1490 Y6.0841 I0.1779 J0.7678
G01 X49.1258 Y6.2685
G01 X49.1918 Y6.5945
G01 X49.1980 Y6.6074
G01 X49.3871 Y6.8347
G01 X49.4001 Y6.8446
G01 X49.7263 Y6.9909
G01 X50.1958 Y7.0420
G01 X50.3736 Y7.0246
G01 X50.3726 Y7.0146
G00 Z20.0000
G00 X50.3439 Y4.1347
G00 Z0.3500
G01 Z-0.1500 F30
G01 X50.1707 Z-0.2000
G01 X50.3439 Z-0.2500
G01 X50.0030 F508
G01 Y4.2247
G01 X49.5494
G01 X50.7930
G01 Y4.3147
G01 X50.9933
G01 X49.3510
G01 X49.2573 Y4.4047
G01 X49.8464
G01 X49.6079
G01 Y4.4947
G01 X49.1636
G01 X49.1175 Y4.5847
G01 X49.5039
G01 X49.4217 Y4.6747
G01 X49.0815
G01 X49.0896 Y4.7647
G01 X49.3797
G00 Z20.0000
G00 X50.5426 Y4.3147
G00 Z0.3500
G01 Z-0.2500 F30
G01 Y4.4047 F508
G01 X51.0938
G01 X51.1714 Y4.4947
G01 X50.7699
G01 X50.8531 Y4.5847
G01 X51.2453
G01 X51.2651 Y4.6747
G01 X50.9222
G01 X50.9417 Y4.7647
G01 X51.2849
G01 X51.3046 Y4.8547
G01 X50.9612
G01 X50.9558 Y4.9447
G01 X51.3188
G01 X51.3111 Y5.0347
G01 X50.9387
G01 X50.8902 Y5.1247
G01 X51.2923
G01 X51.2626 Y5.2147
G01 X50.8221
G01 Y5.3047
G01 X50.6810
G01 X51.2151
G01 X51.1442 Y5.3947
G01 X50.4424
G01 Y5.4847
G01 X50.1089
G01 X51.0413
G01 X50.8918
G01 Y5.5747
G01 X49.8029
G01 Y5.6647
G01 X49.5702
G01 X50.6642
G01 X50.3463
G01 Y5.7547
G01 X49.4129
G01 Y5.8447
G01 X49.3067
G01 X50.0065
G01 X49.7581
G01 Y5.9347
G01 X49.2286
G01 X49.1869 Y6.0247
G01 X49.6219
G01 X49.5467 Y6.1147
G01 X49.1552
G01 X49.1439 Y6.2047
G01 X49.5059
G01 X49.4928 Y6.2947
G01 X49.1415
G01 X49.1604 Y6.3847
G01 X49.5034
G01 X49.5230 Y6.4747
G01 X49.1792
G01 X49.1981 Y6.5646
G01 X49.5710
G01 X49.6547 Y6.6546
G01 X49.2503
G01 X49.3252 Y6.7446
G01 X49.8607
G01 X49.4031
G01 Y6.8346
G01 X50.9713
G01 X51.0658 Y6.7446
G01 X50.5078
G01 X50.7206
G01 Y6.6546
G01 X51.1538
G01 X51.1883 Y6.5646
G01 X50.8230
G01 X50.8878 Y6.4747
G01 X51.2228
G00 Z20.0000
G00 X50.7904 Y6.8346
G00 Z0.3500
G01 Z-0.2500 F30
G01 Y6.9246 F508
G01 X49.6030
G01 X50.0368
G01 Y7.0146
G01 X50.3726
G00 Z20.0000
G00 Z0.3500
G01 Z-0.2500 F30
G01 X50.3736 Y7.0246 F508
G01 X50.6196 Y7.0005
G01 X50.9307 Y6.8818
G01 X50.9472 Y6.8714
G01 X51.1518 Y6.6766
G01 X51.1616 Y6.6620
G01 X51.2591 Y6.4152
G01 X50.9198 Y6.3758
G01 X50.8577 Y6.5178
G01 X50.8482 Y6.5292
G01 X50.7022 Y6.6584
G01 X50.6891 Y6.6657
G01 X50.5001 Y6.7370
G01 X50.4685 Y6.7470
G01 X50.1912 Y6.7732
G01 X49.9236 Y6.7498
G01 X49.8904 Y6.7451
G01 X49.6824 Y6.6664
G01 X49.6707 Y6.6572
G01 X49.5664 Y6.5457
G01 X49.5458 Y6.5216
G01 X49.5404 Y6.5077
G01 X49.5005 Y6.3271
G01 X49.5004 Y6.3121
G01 X49.5171 Y6.1960
G01 X49.5220 Y6.1819
G01 X49.5716 Y6.0882
G01 X49.5809 Y6.0765
G01 X49.6470 Y6.0149
G01 X49.6711 Y5.9942
G03 X50.3315 Y5.7692 I1.1231 J2.2143
G02 X51.1377 Y5.4185 I-0.1986 J-1.5584
G02 X51.0288 Y4.3196 I-0.5522 J-0.5001
G01 X50.6781 Y4.1621
G01 X50.1896 Y4.1073
G01 X49.7161 Y4.1513
G01 X49.3814 Y4.2772
G01 X49.3648 Y4.2875
G01 X49.1382 Y4.5063
G01 X49.0288 Y4.7630
G01 X49.3615 Y4.8270
G01 X49.4430 Y4.6536
G01 X49.4526 Y4.6422
G01 X49.6177 Y4.4984
G01 X49.6308 Y4.4914
G01 X49.8453 Y4.4156
G01 X49.8764 Y4.4063
G01 X50.1945 Y4.3788
G01 X50.4963 Y4.4055
G01 X50.5298 Y4.4104
G01 X50.7593 Y4.4996
G01 X50.7709 Y4.5090
G01 X50.8867 Y4.6366
G01 X50.9067 Y4.6605
G01 X50.9120 Y4.6744
G01 X50.9508 Y4.8543
G01 X50.9559 Y4.8788
G01 X50.9553 Y4.8937
G01 X50.9237 Y5.0575
G01 X50.9169 Y5.0708
G01 X50.8249 Y5.1988
G01 X50.8136 Y5.2086
G01 X50.6745 Y5.2970
G01 X50.6473 Y5.3127
G02 X49.7093 Y5.5922 I109.4670 J369.0509
G02 X49.1490 Y6.0841 I0.1779 J0.7678
G01 X49.1258 Y6.2685
G01 X49.1918 Y6.5945
G01 X49.1980 Y6.6074
G01 X49.3871 Y6.8347
G01 X49.4001 Y6.8446
G01 X49.7263 Y6.9909
G01 X50.1958 Y7.0420
G01 X50.3736 Y7.0246
G01 X50.3726 Y7.0146
G00 Z20.0000
G00 X0.0000 Y0.0000

M05
M30
