( Put the face-plate into the spoil-board cut-out )
( Secure the face-plate with clamps external to the hole profiles )
( Zero is the bottom-left vertex of the spoil-board cut-out, with Z on top of the plate )
( Aluminium stock is assumed to be 1050 grade, 1.6mm thick )
( Tool is an HSS 2mm 2-flute endmill running at 19404rpm )

(Project back-plate-holes)
(Created by Estlcam version 11 build 11.107)
(Machining time about 00:03:20 hours)

(Required tools:)
(Al - HSS 2-Flute Endmill, 2mm)

G90
M03 S19404
G00 Z20.0000


(No. 1: Power Hole)
G00 X15.7260 Y11.9127
G00 Z0.5000
G01 Z0.0000 F30 S19404
G02 X15.0953 Y12.5053 Z-0.2500 I4.3740 J5.2873
G03 X15.7260 Y11.9127 Z-0.5000 I5.0048 J4.6947
G02 X17.7081 Y23.6317 I4.3740 J5.2873 F1479
G02 X26.8660 Y16.0556 I2.3919 J-6.4317
G02 X15.7260 Y11.9127 I-6.7660 J1.1444
G02 X15.0953 Y12.5053 Z-0.7500 I4.3740 J5.2873 F30
G03 X15.7260 Y11.9127 Z-1.0000 I5.0048 J4.6947
G02 X17.7081 Y23.6317 I4.3740 J5.2873 F1479
G02 X26.8660 Y16.0556 I2.3919 J-6.4317
G02 X15.7260 Y11.9127 I-6.7660 J1.1444
G02 X15.0953 Y12.5053 Z-1.2500 I4.3740 J5.2873 F30
G03 X15.7260 Y11.9127 Z-1.5000 I5.0048 J4.6947
G02 X17.7081 Y23.6317 I4.3740 J5.2873 F1479
G02 X26.8660 Y16.0556 I2.3919 J-6.4317
G02 X15.7260 Y11.9127 I-6.7660 J1.1444
G02 X15.0953 Y12.5053 Z-1.7500 I4.3740 J5.2873 F30
G03 X15.7260 Y11.9127 Z-2.0000 I5.0048 J4.6947
G02 X17.7081 Y23.6317 I4.3740 J5.2873 F1479
G02 X26.8660 Y16.0556 I2.3919 J-6.4317
G02 X15.7260 Y11.9127 I-6.7660 J1.1444
G02 X15.0953 Y12.5053 Z-2.2500 I4.3740 J5.2873 F30
G03 X15.7260 Y11.9127 Z-2.5000 I5.0048 J4.6947
G02 X17.7081 Y23.6317 I4.3740 J5.2873 F1479
G02 X26.8660 Y16.0556 I2.3919 J-6.4317
G02 X15.7260 Y11.9127 I-6.7660 J1.1444
G02 X15.5939 Y12.0248 Z-2.5500 I4.3740 J5.2873 F30
G03 X15.7260 Y11.9127 Z-2.6000 I4.5061 J5.1752
G02 X17.7081 Y23.6317 I4.3740 J5.2873 F1479
G02 X26.8660 Y16.0556 I2.3919 J-6.4317
G02 X15.7260 Y11.9127 I-6.7660 J1.1444
G00 Z20.0000


(No. 2: LEDs Hole)
G00 X37.0762 Y14.5157 Z20.0000
G00 Z0.5000
G01 Z0.0000 F30
G02 X36.7889 Y15.3321 Z-0.2500 I6.3238 J2.6843
G03 X37.0762 Y14.5157 Z-0.5000 I6.6111 J1.8679
G02 X44.2372 Y24.0187 I6.3238 J2.6843 F1479
G02 X48.8865 Y13.0656 I-0.8372 J-6.8187
G02 X37.0762 Y14.5157 I-5.4866 J4.1344
G02 X36.7889 Y15.3321 Z-0.7500 I6.3238 J2.6843 F30
G03 X37.0762 Y14.5157 Z-1.0000 I6.6111 J1.8679
G02 X44.2372 Y24.0187 I6.3238 J2.6843 F1479
G02 X48.8865 Y13.0656 I-0.8372 J-6.8187
G02 X37.0762 Y14.5157 I-5.4866 J4.1344
G02 X36.7889 Y15.3321 Z-1.2500 I6.3238 J2.6843 F30
G03 X37.0762 Y14.5157 Z-1.5000 I6.6111 J1.8679
G02 X44.2372 Y24.0187 I6.3238 J2.6843 F1479
G02 X48.8865 Y13.0656 I-0.8372 J-6.8187
G02 X37.0762 Y14.5157 I-5.4866 J4.1344
G02 X36.7889 Y15.3321 Z-1.7500 I6.3238 J2.6843 F30
G03 X37.0762 Y14.5157 Z-2.0000 I6.6111 J1.8679
G02 X44.2372 Y24.0187 I6.3238 J2.6843 F1479
G02 X48.8865 Y13.0656 I-0.8372 J-6.8187
G02 X37.0762 Y14.5157 I-5.4866 J4.1344
G02 X36.7889 Y15.3321 Z-2.2500 I6.3238 J2.6843 F30
G03 X37.0762 Y14.5157 Z-2.5000 I6.6111 J1.8679
G02 X44.2372 Y24.0187 I6.3238 J2.6843 F1479
G02 X48.8865 Y13.0656 I-0.8372 J-6.8187
G02 X37.0762 Y14.5157 I-5.4866 J4.1344
G02 X37.0105 Y14.6760 Z-2.5500 I6.3238 J2.6843 F30
G03 X37.0762 Y14.5157 Z-2.6000 I6.3895 J2.5240
G02 X44.2372 Y24.0187 I6.3238 J2.6843 F1479
G02 X48.8865 Y13.0656 I-0.8372 J-6.8187
G02 X37.0762 Y14.5157 I-5.4866 J4.1344
G00 Z20.0000


(No. 3: ICSP Hole)
G00 X36.7000 Y4.5500 Z20.0000
G00 Z0.5000
G01 Z0.0000 F30
G01 X35.8340 Z-0.2500
G01 X36.7000 Z-0.5000
G01 X26.8000 F1479
G01 Y7.3500
G01 X36.7000
G01 Y4.5500
G01 X35.8340 Z-0.7500 F30
G01 X36.7000 Z-1.0000
G01 X26.8000 F1479
G01 Y7.3500
G01 X36.7000
G01 Y4.5500
G01 X35.8340 Z-1.2500 F30
G01 X36.7000 Z-1.5000
G01 X26.8000 F1479
G01 Y7.3500
G01 X36.7000
G01 Y4.5500
G01 X35.8340 Z-1.7500 F30
G01 X36.7000 Z-2.0000
G01 X26.8000 F1479
G01 Y7.3500
G01 X36.7000
G01 Y4.5500
G01 X35.8340 Z-2.2500 F30
G01 X36.7000 Z-2.5000
G01 X26.8000 F1479
G01 Y7.3500
G01 X36.7000
G01 Y4.5500
G01 X36.5268 Z-2.5500 F30
G01 X36.7000 Z-2.6000
G01 X26.8000 F1479
G01 Y7.3500
G01 X36.7000
G01 Y4.5500
G00 Z20.0000
G00 X0.0000 Y0.0000

M05
M30
