%
( Put the face-plate into the spoil-board cut-out )
( Secure the face-plate with clamps external to the hole profiles )
( Zero is the bottom-left vertex of the spoil-board cut-out, with Z on top of the plate )
( Aluminium stock is assumed to be 1050 grade, 1.6mm thick )

(Project front-plate-holes)
(Created by Estlcam version 11 build 11.107)
(Machining time about 00:02:49 hours)

(Required tools:)
(Al - HSS 2-Flute Endmill, 2mm)

G90
M03 S19404

G00 Z-20.0000


(No. 1: GPIO Hole )
G00 X30.7000 Y8.8000
G00 Z-0.5000
G01 Z0.0000 F30 S19404
G01 X29.8340 Z0.2500
G01 X30.7000 Z0.5000
G01 X12.4400 F1479
G01 Y15.9000
G01 X51.0600
G01 Y8.8000
G01 X32.8000
G01 X30.7000
G01 X29.8340 Z0.7500 F30
G01 X30.7000 Z1.0000
G01 X12.4400 F1479
G01 Y15.9000
G01 X51.0600
G01 Y8.8000
G01 X32.8000
G01 X30.7000
G01 X29.8340 Z1.2500 F30
G01 X30.7000 Z1.5000
G01 X12.4400 F1479
G01 Y15.9000
G01 X51.0600
G01 Y8.8000
G01 X32.8000
G01 X30.7000
G01 X30.1804 Z1.6500 F30
G01 X30.7000 Z1.8000
G01 X12.4400 F1479
G01 Y15.9000
G01 X51.0600
G01 Y8.8000
G01 X32.8000
G01 X30.7000
G00 Z-20.0000
G00 X0.0000 Y0.0000

M05
M30
%

