( Put the face-plate into the spoil-board cut-out )
( Secure the face-plate with clamps external to the hole profiles )
( Zero is the bottom-left vertex of the spoil-board cut-out, with Z on top of the plate )
( Aluminium stock is assumed to be 1050 grade, 1.6mm thick )
( Tool is an HSS 2mm 2-flute endmill running at 19404rpm )

(Project front-plate-holes)
(Created by Estlcam version 11 build 11.107)
(Machining time about 00:04:10 hours)

(Required tools:)
(Al - HSS 2-Flute Endmill, 2mm)

G90
M03 S19404
G00 Z20.0000


(No. 1: GPIO Hole)
G00 X30.5000 Y10.9500
G00 Z0.5000
G01 Z0.0000 F30 S19404
G01 X29.6340 Z-0.2500
G01 X30.5000 Z-0.5000
G01 X12.4400 F1479
G01 Y18.0500
G01 X51.0600
G01 Y10.9500
G01 X33.0000
G01 X30.5000
G01 X29.6340 Z-0.7500 F30
G01 X30.5000 Z-1.0000
G01 X12.4400 F1479
G01 Y18.0500
G01 X51.0600
G01 Y10.9500
G01 X33.0000
G01 X30.5000
G01 X29.6340 Z-1.2500 F30
G01 X30.5000 Z-1.5000
G01 X12.4400 F1479
G01 Y18.0500
G01 X51.0600
G01 Y10.9500
G01 X33.0000
G01 X30.5000
G01 X29.6340 Z-1.7500 F30
G01 X30.5000 Z-2.0000
G01 X12.4400 F1479
G01 Y18.0500
G01 X51.0600
G01 Y10.9500
G01 X33.0000
G00 Z-1.6000
G01 X30.5000
G01 Z-2.0000 F30
G01 X29.6340 Z-2.2500
G01 X30.5000 Z-2.5000
G01 X12.4400 F1479
G01 Y18.0500
G01 X51.0600
G01 Y10.9500
G01 X33.0000
G00 Z-1.6000
G01 X30.5000
G00 Z-2.0000
G01 Z-2.5000 F30
G01 X30.3268 Z-2.5500
G01 X30.5000 Z-2.6000
G01 X12.4400 F1479
G01 Y18.0500
G01 X51.0600
G01 Y10.9500
G01 X33.0000
G00 Z-1.6000
G01 X30.5000
G00 Z20.0000
G00 X0.0000 Y0.0000

M05
M30
