( Put the face-plate into the spoil-board cut-out )
( Secure the face-plate with clamps external to the hole profiles )
( Zero is the bottom-left vertex of the spoil-board cut-out, with Z on top of the plate )
( Aluminium stock is assumed to be 1050 grade, 1.6mm thick )
( Tool is an HSS 0.1mm 15-degree engraving bit running at 10000rpm )


(Project front-plate-engraving)
(Created by Estlcam version 11 build 11.107)
(Machining time about 00:11:33 hours)

(Required tools:)
(Al - HSS Engraving Tool, 30deg)

G90
M03 S10000
G00 Z20.0000


(No. 1: Engraving 8)
G00 X12.4553 Y1.3647
G00 Z0.5000
G01 Z-0.1500 F30 S10000
G01 Y4.8530 F508
G01 X12.4512 Y5.2307
G01 X12.4465 Y5.3195
G01 X12.4540 Y5.3274
G01 X12.6660
G01 X12.6738 Y5.3021
G01 X12.6751 Y5.2830
G01 X12.6865 Y5.0496
G01 X12.6881 Y4.9776
G03 X12.9399 Y4.9297 I0.1320 J0.0079
G02 X13.7252 Y5.3776 I0.6933 J-0.3031
G01 X14.1439 Y5.2979
G01 X14.1592 Y5.2908
G01 X14.4340 Y5.0685
G01 X14.4447 Y5.0543
G01 X14.6224 Y4.6422
G01 X14.6859 Y4.0069
G01 X14.4344 Y2.9343
G01 X13.7181 Y2.5947
G01 X13.2323 Y2.7040
G01 X12.9142 Y3.0569
G03 X12.6830 Y2.9820 I-0.0988 J-0.0891
G01 X12.6908 Y2.8426
G01 X12.6935 Y2.5116
G01 Y1.4897
G01 X12.3303
G00 Z20.0000
G00 X12.4553 Y1.3647
G00 Z0.3500
G01 Z-0.3000 F30
G01 Y4.8530 F508
G01 X12.4512 Y5.2307
G01 X12.4465 Y5.3195
G01 X12.4540 Y5.3274
G01 X12.6660
G01 X12.6738 Y5.3021
G01 X12.6751 Y5.2830
G01 X12.6865 Y5.0496
G01 X12.6881 Y4.9776
G03 X12.9399 Y4.9297 I0.1320 J0.0079
G02 X13.7252 Y5.3776 I0.6933 J-0.3031
G01 X14.1439 Y5.2979
G01 X14.1592 Y5.2908
G01 X14.4340 Y5.0685
G01 X14.4447 Y5.0543
G01 X14.6224 Y4.6422
G01 X14.6859 Y4.0069
G01 X14.4344 Y2.9343
G01 X13.7181 Y2.5947
G01 X13.2323 Y2.7040
G01 X12.9142 Y3.0569
G03 X12.6830 Y2.9820 I-0.0988 J-0.0891
G01 X12.6908 Y2.8426
G01 X12.6935 Y2.5116
G01 Y1.4897
G01 X12.3303
G00 Z20.0000
G00 X12.4553 Y1.3647
G00 Z0.2000
G01 Z-0.4500 F30
G01 Y4.8530 F508
G01 X12.4512 Y5.2307
G01 X12.4465 Y5.3195
G01 X12.4540 Y5.3274
G01 X12.6660
G01 X12.6738 Y5.3021
G01 X12.6751 Y5.2830
G01 X12.6865 Y5.0496
G01 X12.6881 Y4.9776
G03 X12.9399 Y4.9297 I0.1320 J0.0079
G02 X13.7252 Y5.3776 I0.6933 J-0.3031
G01 X14.1439 Y5.2979
G01 X14.1592 Y5.2908
G01 X14.4340 Y5.0685
G01 X14.4447 Y5.0543
G01 X14.6224 Y4.6422
G01 X14.6859 Y4.0069
G01 X14.4344 Y2.9343
G01 X13.7181 Y2.5947
G01 X13.2323 Y2.7040
G01 X12.9142 Y3.0569
G03 X12.6830 Y2.9820 I-0.0988 J-0.0891
G01 X12.6908 Y2.8426
G01 X12.6935 Y2.5116
G01 Y1.4897
G01 X12.3303
G00 Z20.0000
G00 X12.4553 Y1.3647
G00 Z0.0500
G01 Z-0.5000 F30
G01 Y4.8530 F508
G01 X12.4512 Y5.2307
G01 X12.4465 Y5.3195
G01 X12.4540 Y5.3274
G01 X12.6660
G01 X12.6738 Y5.3021
G01 X12.6751 Y5.2830
G01 X12.6865 Y5.0496
G01 X12.6881 Y4.9776
G03 X12.9399 Y4.9297 I0.1320 J0.0079
G02 X13.7252 Y5.3776 I0.6933 J-0.3031
G01 X14.1439 Y5.2979
G01 X14.1592 Y5.2908
G01 X14.4340 Y5.0685
G01 X14.4447 Y5.0543
G01 X14.6224 Y4.6422
G01 X14.6859 Y4.0069
G01 X14.4344 Y2.9343
G01 X13.7181 Y2.5947
G01 X13.2323 Y2.7040
G01 X12.9142 Y3.0569
G03 X12.6830 Y2.9820 I-0.0988 J-0.0891
G01 X12.6908 Y2.8426
G01 X12.6935 Y2.5116
G01 Y1.4897
G01 X12.3303
G00 Z20.0000


(No. 2: Engraving 9)
G00 X12.7151 Y4.3328 Z20.0000
G00 Z0.5000
G01 Z-0.1500 F30
G01 X12.6936 Y3.9443 F508
G01 X12.7402 Y3.4364
G01 X12.7450 Y3.4119
G01 X12.8868 Y3.0521
G03 X12.9374 Y2.9898 I0.1360 J0.0588
G01 X13.1642 Y2.7972
G03 X13.2198 Y2.7701 I0.0809 J0.0953
G01 X13.5790 Y2.7012
G03 X13.6480 Y2.7059 I0.0246 J0.1499
G01 X13.9428 Y2.7685
G03 X13.9982 Y2.7960 I-0.0260 J0.1223
G01 X14.2178 Y2.9996
G03 X14.3817 Y3.4319 I-1.0464 J0.6440
G01 X14.4246 Y3.9905
G01 X14.3812 Y4.5354
G01 X14.3694 Y4.5738
G01 X14.2519 Y4.9055
G03 X14.2041 Y4.9693 I-0.1386 J-0.0542
G01 X14.0045 Y5.1531
G03 X13.9500 Y5.1825 I-0.0847 J-0.0919
G01 X13.6337 Y5.2493
G01 X13.6089 Y5.2519
G01 X13.5964 Y5.2514
G01 X13.3346 Y5.2206
G01 X13.3102 Y5.2152
G01 X13.0895 Y5.1122
G01 X13.0694 Y5.0974
G01 X12.9173 Y4.9334
G01 X12.9093 Y4.9238
G01 X12.8963 Y4.9025
G01 X12.7860 Y4.6652
G01 X12.7177 Y4.3520
G01 Z-0.3000 F30
G01 X12.7151 Y4.3328 F508
G01 X12.6936 Y3.9443
G01 X12.7402 Y3.4364
G01 X12.7450 Y3.4119
G01 X12.8868 Y3.0521
G03 X12.9374 Y2.9898 I0.1360 J0.0588
G01 X13.1642 Y2.7972
G03 X13.2198 Y2.7701 I0.0809 J0.0953
G01 X13.5790 Y2.7012
G03 X13.6480 Y2.7059 I0.0246 J0.1499
G01 X13.9428 Y2.7685
G03 X13.9982 Y2.7960 I-0.0260 J0.1223
G01 X14.2178 Y2.9996
G03 X14.3817 Y3.4319 I-1.0464 J0.6440
G01 X14.4246 Y3.9905
G01 X14.3812 Y4.5354
G01 X14.3694 Y4.5738
G01 X14.2519 Y4.9055
G03 X14.2041 Y4.9693 I-0.1386 J-0.0542
G01 X14.0045 Y5.1531
G03 X13.9500 Y5.1825 I-0.0847 J-0.0919
G01 X13.6337 Y5.2493
G01 X13.6089 Y5.2519
G01 X13.5964 Y5.2514
G01 X13.3346 Y5.2206
G01 X13.3102 Y5.2152
G01 X13.0895 Y5.1122
G01 X13.0694 Y5.0974
G01 X12.9173 Y4.9334
G01 X12.9093 Y4.9238
G01 X12.8963 Y4.9025
G01 X12.7860 Y4.6652
G01 X12.7177 Y4.3520
G01 Z-0.4500 F30
G01 X12.7151 Y4.3328 F508
G01 X12.6936 Y3.9443
G01 X12.7402 Y3.4364
G01 X12.7450 Y3.4119
G01 X12.8868 Y3.0521
G03 X12.9374 Y2.9898 I0.1360 J0.0588
G01 X13.1642 Y2.7972
G03 X13.2198 Y2.7701 I0.0809 J0.0953
G01 X13.5790 Y2.7012
G03 X13.6480 Y2.7059 I0.0246 J0.1499
G01 X13.9428 Y2.7685
G03 X13.9982 Y2.7960 I-0.0260 J0.1223
G01 X14.2178 Y2.9996
G03 X14.3817 Y3.4319 I-1.0464 J0.6440
G01 X14.4246 Y3.9905
G01 X14.3812 Y4.5354
G01 X14.3694 Y4.5738
G01 X14.2519 Y4.9055
G03 X14.2041 Y4.9693 I-0.1386 J-0.0542
G01 X14.0045 Y5.1531
G03 X13.9500 Y5.1825 I-0.0847 J-0.0919
G01 X13.6337 Y5.2493
G01 X13.6089 Y5.2519
G01 X13.5964 Y5.2514
G01 X13.3346 Y5.2206
G01 X13.3102 Y5.2152
G01 X13.0895 Y5.1122
G01 X13.0694 Y5.0974
G01 X12.9173 Y4.9334
G01 X12.9093 Y4.9238
G01 X12.8963 Y4.9025
G01 X12.7860 Y4.6652
G01 X12.7177 Y4.3520
G01 Z-0.5000 F30
G01 X12.7151 Y4.3328 F508
G01 X12.6936 Y3.9443
G01 X12.7402 Y3.4364
G01 X12.7450 Y3.4119
G01 X12.8868 Y3.0521
G03 X12.9374 Y2.9898 I0.1360 J0.0588
G01 X13.1642 Y2.7972
G03 X13.2198 Y2.7701 I0.0809 J0.0953
G01 X13.5790 Y2.7012
G03 X13.6480 Y2.7059 I0.0246 J0.1499
G01 X13.9428 Y2.7685
G03 X13.9982 Y2.7960 I-0.0260 J0.1223
G01 X14.2178 Y2.9996
G03 X14.3817 Y3.4319 I-1.0464 J0.6440
G01 X14.4246 Y3.9905
G01 X14.3812 Y4.5354
G01 X14.3694 Y4.5738
G01 X14.2519 Y4.9055
G03 X14.2041 Y4.9693 I-0.1386 J-0.0542
G01 X14.0045 Y5.1531
G03 X13.9500 Y5.1825 I-0.0847 J-0.0919
G01 X13.6337 Y5.2493
G01 X13.6089 Y5.2519
G01 X13.5964 Y5.2514
G01 X13.3346 Y5.2206
G01 X13.3102 Y5.2152
G01 X13.0895 Y5.1122
G01 X13.0694 Y5.0974
G01 X12.9173 Y4.9334
G01 X12.9093 Y4.9238
G01 X12.8963 Y4.9025
G01 X12.7860 Y4.6652
G01 X12.7177 Y4.3520
G00 Z20.0000


(No. 3: Engraving 10)
G00 X15.3332 Y3.9876 Z20.0000
G00 Z0.5000
G01 Z-0.1500 F30
G01 X15.4153 Y4.6069 F508
G02 X16.5040 Y5.3767 I1.0184 J-0.2855
G01 X17.3885 Y5.0238
G01 X17.6689 Y4.0101
G01 X17.6560 Y4.0069
G01 X15.7219
G03 X15.5987 Y3.9031 I0.0000 J-0.1250
G01 X15.5970 Y3.8783
G01 X15.6499 Y3.4205
G01 X15.6553 Y3.3961
G01 X15.6598 Y3.3845
G01 X15.8178 Y3.0500
G03 X15.8684 Y2.9933 I0.1373 J0.0716
G01 X16.1097 Y2.8003
G03 X16.1836 Y2.7714 I0.0894 J0.1197
G01 X16.5297 Y2.7049
G01 X16.5546 Y2.7051
G01 X16.8532 Y2.7391
G01 X16.8653 Y2.7423
G01 X16.8947 Y2.7543
G01 X17.0990 Y2.8420
G01 X17.1208 Y2.8541
G01 X17.3026 Y3.0173
G01 X17.3175 Y3.0374
G01 X17.3697 Y3.1317
G01 X17.5107 Y3.0922
G01 X17.2375 Y2.7494
G01 X16.5376 Y2.5907
G01 X16.0162 Y2.6789
G01 X15.6539 Y2.9310
G01 X15.6414 Y2.9450
G01 X15.4155 Y3.3717
G01 X15.3333 Y4.0197
G01 Z-0.3000 F30
G01 X15.3332 Y3.9876 F508
G01 X15.4153 Y4.6069
G02 X16.5040 Y5.3767 I1.0184 J-0.2855
G01 X17.3885 Y5.0238
G01 X17.6689 Y4.0101
G01 X17.6560 Y4.0069
G01 X15.7219
G03 X15.5987 Y3.9031 I0.0000 J-0.1250
G01 X15.5970 Y3.8783
G01 X15.6499 Y3.4205
G01 X15.6553 Y3.3961
G01 X15.6598 Y3.3845
G01 X15.8178 Y3.0500
G03 X15.8684 Y2.9933 I0.1373 J0.0716
G01 X16.1097 Y2.8003
G03 X16.1836 Y2.7714 I0.0894 J0.1197
G01 X16.5297 Y2.7049
G01 X16.5546 Y2.7051
G01 X16.8532 Y2.7391
G01 X16.8653 Y2.7423
G01 X16.8947 Y2.7543
G01 X17.0990 Y2.8420
G01 X17.1208 Y2.8541
G01 X17.3026 Y3.0173
G01 X17.3175 Y3.0374
G01 X17.3697 Y3.1317
G01 X17.5107 Y3.0922
G01 X17.2375 Y2.7494
G01 X16.5376 Y2.5907
G01 X16.0162 Y2.6789
G01 X15.6539 Y2.9310
G01 X15.6414 Y2.9450
G01 X15.4155 Y3.3717
G01 X15.3333 Y4.0197
G01 Z-0.4500 F30
G01 X15.3332 Y3.9876 F508
G01 X15.4153 Y4.6069
G02 X16.5040 Y5.3767 I1.0184 J-0.2855
G01 X17.3885 Y5.0238
G01 X17.6689 Y4.0101
G01 X17.6560 Y4.0069
G01 X15.7219
G03 X15.5987 Y3.9031 I0.0000 J-0.1250
G01 X15.5970 Y3.8783
G01 X15.6499 Y3.4205
G01 X15.6553 Y3.3961
G01 X15.6598 Y3.3845
G01 X15.8178 Y3.0500
G03 X15.8684 Y2.9933 I0.1373 J0.0716
G01 X16.1097 Y2.8003
G03 X16.1836 Y2.7714 I0.0894 J0.1197
G01 X16.5297 Y2.7049
G01 X16.5546 Y2.7051
G01 X16.8532 Y2.7391
G01 X16.8653 Y2.7423
G01 X16.8947 Y2.7543
G01 X17.0990 Y2.8420
G01 X17.1208 Y2.8541
G01 X17.3026 Y3.0173
G01 X17.3175 Y3.0374
G01 X17.3697 Y3.1317
G01 X17.5107 Y3.0922
G01 X17.2375 Y2.7494
G01 X16.5376 Y2.5907
G01 X16.0162 Y2.6789
G01 X15.6539 Y2.9310
G01 X15.6414 Y2.9450
G01 X15.4155 Y3.3717
G01 X15.3333 Y4.0197
G01 Z-0.5000 F30
G01 X15.3332 Y3.9876 F508
G01 X15.4153 Y4.6069
G02 X16.5040 Y5.3767 I1.0184 J-0.2855
G01 X17.3885 Y5.0238
G01 X17.6689 Y4.0101
G01 X17.6560 Y4.0069
G01 X15.7219
G03 X15.5987 Y3.9031 I0.0000 J-0.1250
G01 X15.5970 Y3.8783
G01 X15.6499 Y3.4205
G01 X15.6553 Y3.3961
G01 X15.6598 Y3.3845
G01 X15.8178 Y3.0500
G03 X15.8684 Y2.9933 I0.1373 J0.0716
G01 X16.1097 Y2.8003
G03 X16.1836 Y2.7714 I0.0894 J0.1197
G01 X16.5297 Y2.7049
G01 X16.5546 Y2.7051
G01 X16.8532 Y2.7391
G01 X16.8653 Y2.7423
G01 X16.8947 Y2.7543
G01 X17.0990 Y2.8420
G01 X17.1208 Y2.8541
G01 X17.3026 Y3.0173
G01 X17.3175 Y3.0374
G01 X17.3697 Y3.1317
G01 X17.5107 Y3.0922
G01 X17.2375 Y2.7494
G01 X16.5376 Y2.5907
G01 X16.0162 Y2.6789
G01 X15.6539 Y2.9310
G01 X15.6414 Y2.9450
G01 X15.4155 Y3.3717
G01 X15.3333 Y4.0197
G00 Z20.0000


(No. 4: Engraving 11)
G00 X15.8423 Y4.9702 Z20.0000
G00 Z0.5000
G01 Z-0.1500 F30
G01 X15.6826 Y4.6884 F508
G01 X15.6726 Y4.6656
G01 X15.6693 Y4.6535
G01 X15.6042 Y4.2775
G01 X15.6025 Y4.2526
G03 X15.7222 Y4.1313 I0.1249 J0.0036
G01 X17.3114 Y4.1312
G03 X17.4354 Y4.2723 I0.0000 J0.1250
G01 X17.3547 Y4.6815
G01 X17.3475 Y4.7054
G01 X17.3421 Y4.7167
G01 X17.1842 Y4.9947
G01 X17.1698 Y5.0151
G01 X17.1516 Y5.0322
G01 X16.8963 Y5.2029
G01 X16.8732 Y5.2125
G01 X16.8611 Y5.2154
G01 X16.5343 Y5.2693
G01 X16.5094 Y5.2708
G01 X16.4714 Y5.2651
G01 X16.1727 Y5.2095
G01 X16.1487 Y5.2025
G01 X16.1267 Y5.1908
G01 X15.8775 Y5.0097
G01 Z-0.3000 F30
G01 X15.8423 Y4.9702 F508
G01 X15.6826 Y4.6884
G01 X15.6726 Y4.6656
G01 X15.6693 Y4.6535
G01 X15.6042 Y4.2775
G01 X15.6025 Y4.2526
G03 X15.7222 Y4.1313 I0.1249 J0.0036
G01 X17.3114 Y4.1312
G03 X17.4354 Y4.2723 I0.0000 J0.1250
G01 X17.3547 Y4.6815
G01 X17.3475 Y4.7054
G01 X17.3421 Y4.7167
G01 X17.1842 Y4.9947
G01 X17.1698 Y5.0151
G01 X17.1516 Y5.0322
G01 X16.8963 Y5.2029
G01 X16.8732 Y5.2125
G01 X16.8611 Y5.2154
G01 X16.5343 Y5.2693
G01 X16.5094 Y5.2708
G01 X16.4714 Y5.2651
G01 X16.1727 Y5.2095
G01 X16.1487 Y5.2025
G01 X16.1267 Y5.1908
G01 X15.8775 Y5.0097
G01 Z-0.4500 F30
G01 X15.8423 Y4.9702 F508
G01 X15.6826 Y4.6884
G01 X15.6726 Y4.6656
G01 X15.6693 Y4.6535
G01 X15.6042 Y4.2775
G01 X15.6025 Y4.2526
G03 X15.7222 Y4.1313 I0.1249 J0.0036
G01 X17.3114 Y4.1312
G03 X17.4354 Y4.2723 I0.0000 J0.1250
G01 X17.3547 Y4.6815
G01 X17.3475 Y4.7054
G01 X17.3421 Y4.7167
G01 X17.1842 Y4.9947
G01 X17.1698 Y5.0151
G01 X17.1516 Y5.0322
G01 X16.8963 Y5.2029
G01 X16.8732 Y5.2125
G01 X16.8611 Y5.2154
G01 X16.5343 Y5.2693
G01 X16.5094 Y5.2708
G01 X16.4714 Y5.2651
G01 X16.1727 Y5.2095
G01 X16.1487 Y5.2025
G01 X16.1267 Y5.1908
G01 X15.8775 Y5.0097
G01 Z-0.5000 F30
G01 X15.8423 Y4.9702 F508
G01 X15.6826 Y4.6884
G01 X15.6726 Y4.6656
G01 X15.6693 Y4.6535
G01 X15.6042 Y4.2775
G01 X15.6025 Y4.2526
G03 X15.7222 Y4.1313 I0.1249 J0.0036
G01 X17.3114 Y4.1312
G03 X17.4354 Y4.2723 I0.0000 J0.1250
G01 X17.3547 Y4.6815
G01 X17.3475 Y4.7054
G01 X17.3421 Y4.7167
G01 X17.1842 Y4.9947
G01 X17.1698 Y5.0151
G01 X17.1516 Y5.0322
G01 X16.8963 Y5.2029
G01 X16.8732 Y5.2125
G01 X16.8611 Y5.2154
G01 X16.5343 Y5.2693
G01 X16.5094 Y5.2708
G01 X16.4714 Y5.2651
G01 X16.1727 Y5.2095
G01 X16.1487 Y5.2025
G01 X16.1267 Y5.1908
G01 X15.8775 Y5.0097
G00 Z20.0000


(No. 5: Engraving 12)
G00 X18.5388 Y3.1387 Z20.0000
G00 Z0.5000
G01 Z-0.1500 F30
G01 Y5.0971 F508
G03 X18.4226 Y5.2218 I-0.1250 J0.0000
G01 X18.1997 Y5.2221
G01 Y5.3274
G01 X18.4452 Y5.3281
G03 X18.5531 Y5.4190 I-0.0125 J0.1244
G01 X18.6771 Y5.9839
G01 X18.7770
G01 X18.7776 Y5.4400
G03 X18.8932 Y5.3278 I0.1244 J0.0125
G01 X19.3195 Y5.3274
G01 Y5.2221
G01 X18.9020
G03 X18.7773 Y5.1060 I0.0000 J-0.1250
G01 X18.7770 Y5.0771
G01 Y3.2445
G01 X18.7949 Y3.0524
G01 X18.7997 Y3.0280
G01 X18.8569 Y2.8967
G03 X18.8952 Y2.8481 I0.1143 J0.0507
G01 X18.9958 Y2.7799
G01 X19.0177 Y2.7680
G01 X19.0416 Y2.7608
G01 X19.2054 Y2.7371
G01 X19.3405 Y2.7469
G01 X19.3683 Y2.7512
G01 Y2.6417
G02 X18.6626 Y2.7352 I-0.2627 J0.7270
G01 X18.5337 Y3.1739
G01 Z-0.3000 F30
G01 X18.5388 Y3.1387 F508
G01 Y5.0971
G03 X18.4226 Y5.2218 I-0.1250 J0.0000
G01 X18.1997 Y5.2221
G01 Y5.3274
G01 X18.4452 Y5.3281
G03 X18.5531 Y5.4190 I-0.0125 J0.1244
G01 X18.6771 Y5.9839
G01 X18.7770
G01 X18.7776 Y5.4400
G03 X18.8932 Y5.3278 I0.1244 J0.0125
G01 X19.3195 Y5.3274
G01 Y5.2221
G01 X18.9020
G03 X18.7773 Y5.1060 I0.0000 J-0.1250
G01 X18.7770 Y5.0771
G01 Y3.2445
G01 X18.7949 Y3.0524
G01 X18.7997 Y3.0280
G01 X18.8569 Y2.8967
G03 X18.8952 Y2.8481 I0.1143 J0.0507
G01 X18.9958 Y2.7799
G01 X19.0177 Y2.7680
G01 X19.0416 Y2.7608
G01 X19.2054 Y2.7371
G01 X19.3405 Y2.7469
G01 X19.3683 Y2.7512
G01 Y2.6417
G02 X18.6626 Y2.7352 I-0.2627 J0.7270
G01 X18.5337 Y3.1739
G01 Z-0.4500 F30
G01 X18.5388 Y3.1387 F508
G01 Y5.0971
G03 X18.4226 Y5.2218 I-0.1250 J0.0000
G01 X18.1997 Y5.2221
G01 Y5.3274
G01 X18.4452 Y5.3281
G03 X18.5531 Y5.4190 I-0.0125 J0.1244
G01 X18.6771 Y5.9839
G01 X18.7770
G01 X18.7776 Y5.4400
G03 X18.8932 Y5.3278 I0.1244 J0.0125
G01 X19.3195 Y5.3274
G01 Y5.2221
G01 X18.9020
G03 X18.7773 Y5.1060 I0.0000 J-0.1250
G01 X18.7770 Y5.0771
G01 Y3.2445
G01 X18.7949 Y3.0524
G01 X18.7997 Y3.0280
G01 X18.8569 Y2.8967
G03 X18.8952 Y2.8481 I0.1143 J0.0507
G01 X18.9958 Y2.7799
G01 X19.0177 Y2.7680
G01 X19.0416 Y2.7608
G01 X19.2054 Y2.7371
G01 X19.3405 Y2.7469
G01 X19.3683 Y2.7512
G01 Y2.6417
G02 X18.6626 Y2.7352 I-0.2627 J0.7270
G01 X18.5337 Y3.1739
G01 Z-0.5000 F30
G01 X18.5388 Y3.1387 F508
G01 Y5.0971
G03 X18.4226 Y5.2218 I-0.1250 J0.0000
G01 X18.1997 Y5.2221
G01 Y5.3274
G01 X18.4452 Y5.3281
G03 X18.5531 Y5.4190 I-0.0125 J0.1244
G01 X18.6771 Y5.9839
G01 X18.7770
G01 X18.7776 Y5.4400
G03 X18.8932 Y5.3278 I0.1244 J0.0125
G01 X19.3195 Y5.3274
G01 Y5.2221
G01 X18.9020
G03 X18.7773 Y5.1060 I0.0000 J-0.1250
G01 X18.7770 Y5.0771
G01 Y3.2445
G01 X18.7949 Y3.0524
G01 X18.7997 Y3.0280
G01 X18.8569 Y2.8967
G03 X18.8952 Y2.8481 I0.1143 J0.0507
G01 X18.9958 Y2.7799
G01 X19.0177 Y2.7680
G01 X19.0416 Y2.7608
G01 X19.2054 Y2.7371
G01 X19.3405 Y2.7469
G01 X19.3683 Y2.7512
G01 Y2.6417
G02 X18.6626 Y2.7352 I-0.2627 J0.7270
G01 X18.5337 Y3.1739
G00 Z20.0000


(No. 6: Engraving 13)
G00 X19.9430 Y3.3490 Z20.0000
G00 Z0.5000
G01 Z-0.1500 F30
G01 X19.8599 Y4.0036 F508
G01 X19.9399 Y4.6069
G02 X21.0287 Y5.3767 I1.0185 J-0.2857
G01 X21.9132 Y5.0238
G01 X22.1935 Y4.0101
G01 X22.1807 Y4.0069
G01 X20.2341 Y4.0063
G03 X20.1219 Y3.8907 I0.0125 J-0.1244
G01 X20.1217 Y3.8783
G01 X20.1248 Y3.8475
G01 X20.1767 Y3.4082
G01 X20.1845 Y3.3845
G01 X20.3424 Y3.0500
G01 X20.3552 Y3.0286
G01 X20.3721 Y3.0102
G01 X20.6445 Y2.7930
G01 X20.6667 Y2.7816
G01 X20.6785 Y2.7776
G01 X21.0544 Y2.7049
G01 X21.0793 Y2.7051
G01 X21.3655 Y2.7371
G01 X21.3899 Y2.7423
G01 X21.6236 Y2.8420
G01 X21.6454 Y2.8541
G01 X21.6554 Y2.8617
G01 X21.8272 Y3.0173
G01 X21.8421 Y3.0374
G01 X21.8943 Y3.1317
G01 X22.0354 Y3.0922
G01 X21.7622 Y2.7494
G01 X21.0623 Y2.5907
G01 X20.5408 Y2.6789
G01 X20.1785 Y2.9310
G01 X20.1660 Y2.9450
G01 X19.9295 Y3.3918
G01 Z-0.3000 F30
G01 X19.9430 Y3.3490 F508
G01 X19.8599 Y4.0036
G01 X19.9399 Y4.6069
G02 X21.0287 Y5.3767 I1.0185 J-0.2857
G01 X21.9132 Y5.0238
G01 X22.1935 Y4.0101
G01 X22.1807 Y4.0069
G01 X20.2341 Y4.0063
G03 X20.1219 Y3.8907 I0.0125 J-0.1244
G01 X20.1217 Y3.8783
G01 X20.1248 Y3.8475
G01 X20.1767 Y3.4082
G01 X20.1845 Y3.3845
G01 X20.3424 Y3.0500
G01 X20.3552 Y3.0286
G01 X20.3721 Y3.0102
G01 X20.6445 Y2.7930
G01 X20.6667 Y2.7816
G01 X20.6785 Y2.7776
G01 X21.0544 Y2.7049
G01 X21.0793 Y2.7051
G01 X21.3655 Y2.7371
G01 X21.3899 Y2.7423
G01 X21.6236 Y2.8420
G01 X21.6454 Y2.8541
G01 X21.6554 Y2.8617
G01 X21.8272 Y3.0173
G01 X21.8421 Y3.0374
G01 X21.8943 Y3.1317
G01 X22.0354 Y3.0922
G01 X21.7622 Y2.7494
G01 X21.0623 Y2.5907
G01 X20.5408 Y2.6789
G01 X20.1785 Y2.9310
G01 X20.1660 Y2.9450
G01 X19.9295 Y3.3918
G01 Z-0.4500 F30
G01 X19.9430 Y3.3490 F508
G01 X19.8599 Y4.0036
G01 X19.9399 Y4.6069
G02 X21.0287 Y5.3767 I1.0185 J-0.2857
G01 X21.9132 Y5.0238
G01 X22.1935 Y4.0101
G01 X22.1807 Y4.0069
G01 X20.2341 Y4.0063
G03 X20.1219 Y3.8907 I0.0125 J-0.1244
G01 X20.1217 Y3.8783
G01 X20.1248 Y3.8475
G01 X20.1767 Y3.4082
G01 X20.1845 Y3.3845
G01 X20.3424 Y3.0500
G01 X20.3552 Y3.0286
G01 X20.3721 Y3.0102
G01 X20.6445 Y2.7930
G01 X20.6667 Y2.7816
G01 X20.6785 Y2.7776
G01 X21.0544 Y2.7049
G01 X21.0793 Y2.7051
G01 X21.3655 Y2.7371
G01 X21.3899 Y2.7423
G01 X21.6236 Y2.8420
G01 X21.6454 Y2.8541
G01 X21.6554 Y2.8617
G01 X21.8272 Y3.0173
G01 X21.8421 Y3.0374
G01 X21.8943 Y3.1317
G01 X22.0354 Y3.0922
G01 X21.7622 Y2.7494
G01 X21.0623 Y2.5907
G01 X20.5408 Y2.6789
G01 X20.1785 Y2.9310
G01 X20.1660 Y2.9450
G01 X19.9295 Y3.3918
G01 Z-0.5000 F30
G01 X19.9430 Y3.3490 F508
G01 X19.8599 Y4.0036
G01 X19.9399 Y4.6069
G02 X21.0287 Y5.3767 I1.0185 J-0.2857
G01 X21.9132 Y5.0238
G01 X22.1935 Y4.0101
G01 X22.1807 Y4.0069
G01 X20.2341 Y4.0063
G03 X20.1219 Y3.8907 I0.0125 J-0.1244
G01 X20.1217 Y3.8783
G01 X20.1248 Y3.8475
G01 X20.1767 Y3.4082
G01 X20.1845 Y3.3845
G01 X20.3424 Y3.0500
G01 X20.3552 Y3.0286
G01 X20.3721 Y3.0102
G01 X20.6445 Y2.7930
G01 X20.6667 Y2.7816
G01 X20.6785 Y2.7776
G01 X21.0544 Y2.7049
G01 X21.0793 Y2.7051
G01 X21.3655 Y2.7371
G01 X21.3899 Y2.7423
G01 X21.6236 Y2.8420
G01 X21.6454 Y2.8541
G01 X21.6554 Y2.8617
G01 X21.8272 Y3.0173
G01 X21.8421 Y3.0374
G01 X21.8943 Y3.1317
G01 X22.0354 Y3.0922
G01 X21.7622 Y2.7494
G01 X21.0623 Y2.5907
G01 X20.5408 Y2.6789
G01 X20.1785 Y2.9310
G01 X20.1660 Y2.9450
G01 X19.9295 Y3.3918
G00 Z20.0000


(No. 7: Engraving 14)
G00 X21.8654 Y4.7191 Z20.0000
G00 Z0.5000
G01 Z-0.1500 F30
G01 X21.7088 Y4.9948 F508
G03 X21.6531 Y5.0479 I-0.1302 J-0.0805
G01 X21.4317 Y5.1965
G03 X21.3627 Y5.2193 I-0.0841 J-0.1390
G01 X21.0590 Y5.2693
G01 X21.0341 Y5.2708
G01 X20.9961 Y5.2651
G01 X20.6852 Y5.2066
G01 X20.6621 Y5.1972
G01 X20.6514 Y5.1908
G01 X20.4022 Y5.0097
G01 X20.3836 Y4.9930
G01 X20.3687 Y4.9730
G01 X20.2073 Y4.6884
G01 X20.1973 Y4.6656
G01 X20.1940 Y4.6535
G01 X20.1288 Y4.2775
G01 X20.1273 Y4.2651
G01 X20.1280 Y4.2402
G03 X20.2467 Y4.1313 I0.1240 J0.0160
G01 X21.8361 Y4.1312
G03 X21.9548 Y4.3001 I-0.0011 J0.1269
G01 X21.8794 Y4.6816
G01 Z-0.3000 F30
G01 X21.8654 Y4.7191 F508
G01 X21.7088 Y4.9948
G03 X21.6531 Y5.0479 I-0.1302 J-0.0805
G01 X21.4317 Y5.1965
G03 X21.3627 Y5.2193 I-0.0841 J-0.1390
G01 X21.0590 Y5.2693
G01 X21.0341 Y5.2708
G01 X20.9961 Y5.2651
G01 X20.6852 Y5.2066
G01 X20.6621 Y5.1972
G01 X20.6514 Y5.1908
G01 X20.4022 Y5.0097
G01 X20.3836 Y4.9930
G01 X20.3687 Y4.9730
G01 X20.2073 Y4.6884
G01 X20.1973 Y4.6656
G01 X20.1940 Y4.6535
G01 X20.1288 Y4.2775
G01 X20.1273 Y4.2651
G01 X20.1280 Y4.2402
G03 X20.2467 Y4.1313 I0.1240 J0.0160
G01 X21.8361 Y4.1312
G03 X21.9548 Y4.3001 I-0.0011 J0.1269
G01 X21.8794 Y4.6816
G01 Z-0.4500 F30
G01 X21.8654 Y4.7191 F508
G01 X21.7088 Y4.9948
G03 X21.6531 Y5.0479 I-0.1302 J-0.0805
G01 X21.4317 Y5.1965
G03 X21.3627 Y5.2193 I-0.0841 J-0.1390
G01 X21.0590 Y5.2693
G01 X21.0341 Y5.2708
G01 X20.9961 Y5.2651
G01 X20.6852 Y5.2066
G01 X20.6621 Y5.1972
G01 X20.6514 Y5.1908
G01 X20.4022 Y5.0097
G01 X20.3836 Y4.9930
G01 X20.3687 Y4.9730
G01 X20.2073 Y4.6884
G01 X20.1973 Y4.6656
G01 X20.1940 Y4.6535
G01 X20.1288 Y4.2775
G01 X20.1273 Y4.2651
G01 X20.1280 Y4.2402
G03 X20.2467 Y4.1313 I0.1240 J0.0160
G01 X21.8361 Y4.1312
G03 X21.9548 Y4.3001 I-0.0011 J0.1269
G01 X21.8794 Y4.6816
G01 Z-0.5000 F30
G01 X21.8654 Y4.7191 F508
G01 X21.7088 Y4.9948
G03 X21.6531 Y5.0479 I-0.1302 J-0.0805
G01 X21.4317 Y5.1965
G03 X21.3627 Y5.2193 I-0.0841 J-0.1390
G01 X21.0590 Y5.2693
G01 X21.0341 Y5.2708
G01 X20.9961 Y5.2651
G01 X20.6852 Y5.2066
G01 X20.6621 Y5.1972
G01 X20.6514 Y5.1908
G01 X20.4022 Y5.0097
G01 X20.3836 Y4.9930
G01 X20.3687 Y4.9730
G01 X20.2073 Y4.6884
G01 X20.1973 Y4.6656
G01 X20.1940 Y4.6535
G01 X20.1288 Y4.2775
G01 X20.1273 Y4.2651
G01 X20.1280 Y4.2402
G03 X20.2467 Y4.1313 I0.1240 J0.0160
G01 X21.8361 Y4.1312
G03 X21.9548 Y4.3001 I-0.0011 J0.1269
G01 X21.8794 Y4.6816
G00 Z20.0000


(No. 8: Engraving 15)
G00 X23.0761 Y3.8349 Z20.0000
G00 Z0.5000
G01 Z-0.1500 F30
G01 X23.1587 Y4.5441 F508
G02 X25.5769 Y6.4165 I2.3654 J-0.5572
G02 X27.0282 Y5.9109 I0.1277 J-1.9692
G02 X27.5480 Y4.5712 I-1.3312 J-1.2872
G01 X27.5482 Y4.5556
G01 X27.5124 Y4.1150
G01 X27.5095 Y4.0983
G01 X27.4030 Y3.7047
G01 X27.3982 Y3.6922
G02 X26.4607 Y2.9262 I-0.9995 J0.2665
G02 X26.0551 Y3.1187 I-0.0808 J0.3534
G01 X26.0270 Y3.2789
G01 X26.0262 Y3.2916
G01 X26.0335 Y3.4616
G03 X25.7779 Y3.5212 I-0.1351 J-0.0018
G02 X24.5506 Y2.9866 I-0.8960 J0.3809
G01 X24.3143 Y3.1602
G01 X24.1623 Y3.4454
G01 X24.1093 Y3.8407
G01 X24.1091 Y3.8511
G01 X24.1488 Y4.2406
G01 X24.1514 Y4.2531
G01 X24.2701 Y4.6131
G01 X24.2747 Y4.6230
G02 X25.3387 Y5.3767 I1.1104 J-0.4398
G01 X25.7765 Y5.2688
G01 X26.0742 Y4.9202
G03 X26.2936 Y4.9650 I0.0939 J0.0998
G01 X26.3807 Y5.3176
G01 X26.5460 Y5.3193
G01 X26.2696 Y4.0997
G01 X26.1934 Y3.7013
G01 X26.1661 Y3.3837
G01 X26.1689 Y3.3589
G01 X26.2258 Y3.1598
G03 X26.7920 Y3.0757 I0.3298 J0.2723
G01 X26.9847 Y3.2169
G01 X27.0033 Y3.2335
G01 X27.1753 Y3.4660
G01 X27.1880 Y3.4875
G01 X27.1974 Y3.5094
G03 X27.2081 Y5.4779 I-1.8664 J0.9944
G01 X27.2018 Y5.4887
G01 X27.1836 Y5.5132
G01 X26.9408 Y5.8296
G01 X26.9237 Y5.8478
G01 X26.5561 Y6.1078
G01 X26.5175 Y6.1235
G01 X26.1098 Y6.2683
G01 X26.0856 Y6.2743
G01 X25.5752 Y6.3261
G01 X24.9419 Y6.2527
G01 X24.9176 Y6.2473
G01 X24.3561 Y6.0216
G01 X24.3453 Y6.0153
G01 X24.3210 Y5.9967
G01 X23.8864 Y5.6548
G01 X23.8684 Y5.6375
G01 X23.5132 Y5.1358
G01 X23.4978 Y5.0989
G01 X23.2891 Y4.5382
G01 X23.2828 Y4.5141
G01 X23.2102 Y3.8632
G01 X23.2099 Y3.8383
G01 X23.2653 Y3.3309
G01 X23.2774 Y3.2945
G01 X23.4350 Y2.8708
G01 X23.4411 Y2.8599
G01 X23.4585 Y2.8355
G01 X23.7071 Y2.4980
G01 X23.7150 Y2.4883
G01 X23.7335 Y2.4715
G01 X24.0996 Y2.2037
G01 X24.1106 Y2.1979
G01 X24.1387 Y2.1872
G01 X24.5563 Y2.0334
G01 X24.5804 Y2.0272
G03 X26.6808 Y2.3707 I0.5570 J3.1870
G01 X26.7212 Y2.2884
G02 X24.5233 Y1.9368 I-1.5748 J2.7991
G02 X23.1407 Y3.2872 I0.3200 J1.7105
G01 X23.0762 Y3.8631
G01 Z-0.3000 F30
G01 X23.0761 Y3.8349 F508
G01 X23.1587 Y4.5441
G02 X25.5769 Y6.4165 I2.3654 J-0.5572
G02 X27.0282 Y5.9109 I0.1277 J-1.9692
G02 X27.5480 Y4.5712 I-1.3312 J-1.2872
G01 X27.5482 Y4.5556
G01 X27.5124 Y4.1150
G01 X27.5095 Y4.0983
G01 X27.4030 Y3.7047
G01 X27.3982 Y3.6922
G02 X26.4607 Y2.9262 I-0.9995 J0.2665
G02 X26.0551 Y3.1187 I-0.0808 J0.3534
G01 X26.0270 Y3.2789
G01 X26.0262 Y3.2916
G01 X26.0335 Y3.4616
G03 X25.7779 Y3.5212 I-0.1351 J-0.0018
G02 X24.5506 Y2.9866 I-0.8960 J0.3809
G01 X24.3143 Y3.1602
G01 X24.1623 Y3.4454
G01 X24.1093 Y3.8407
G01 X24.1091 Y3.8511
G01 X24.1488 Y4.2406
G01 X24.1514 Y4.2531
G01 X24.2701 Y4.6131
G01 X24.2747 Y4.6230
G02 X25.3387 Y5.3767 I1.1104 J-0.4398
G01 X25.7765 Y5.2688
G01 X26.0742 Y4.9202
G03 X26.2936 Y4.9650 I0.0939 J0.0998
G01 X26.3807 Y5.3176
G01 X26.5460 Y5.3193
G01 X26.2696 Y4.0997
G01 X26.1934 Y3.7013
G01 X26.1661 Y3.3837
G01 X26.1689 Y3.3589
G01 X26.2258 Y3.1598
G03 X26.7920 Y3.0757 I0.3298 J0.2723
G01 X26.9847 Y3.2169
G01 X27.0033 Y3.2335
G01 X27.1753 Y3.4660
G01 X27.1880 Y3.4875
G01 X27.1974 Y3.5094
G03 X27.2081 Y5.4779 I-1.8664 J0.9944
G01 X27.2018 Y5.4887
G01 X27.1836 Y5.5132
G01 X26.9408 Y5.8296
G01 X26.9237 Y5.8478
G01 X26.5561 Y6.1078
G01 X26.5175 Y6.1235
G01 X26.1098 Y6.2683
G01 X26.0856 Y6.2743
G01 X25.5752 Y6.3261
G01 X24.9419 Y6.2527
G01 X24.9176 Y6.2473
G01 X24.3561 Y6.0216
G01 X24.3453 Y6.0153
G01 X24.3210 Y5.9967
G01 X23.8864 Y5.6548
G01 X23.8684 Y5.6375
G01 X23.5132 Y5.1358
G01 X23.4978 Y5.0989
G01 X23.2891 Y4.5382
G01 X23.2828 Y4.5141
G01 X23.2102 Y3.8632
G01 X23.2099 Y3.8383
G01 X23.2653 Y3.3309
G01 X23.2774 Y3.2945
G01 X23.4350 Y2.8708
G01 X23.4411 Y2.8599
G01 X23.4585 Y2.8355
G01 X23.7071 Y2.4980
G01 X23.7150 Y2.4883
G01 X23.7335 Y2.4715
G01 X24.0996 Y2.2037
G01 X24.1106 Y2.1979
G01 X24.1387 Y2.1872
G01 X24.5563 Y2.0334
G01 X24.5804 Y2.0272
G03 X26.6808 Y2.3707 I0.5570 J3.1870
G01 X26.7212 Y2.2884
G02 X24.5233 Y1.9368 I-1.5748 J2.7991
G02 X23.1407 Y3.2872 I0.3200 J1.7105
G01 X23.0762 Y3.8631
G01 Z-0.4500 F30
G01 X23.0761 Y3.8349 F508
G01 X23.1587 Y4.5441
G02 X25.5769 Y6.4165 I2.3654 J-0.5572
G02 X27.0282 Y5.9109 I0.1277 J-1.9692
G02 X27.5480 Y4.5712 I-1.3312 J-1.2872
G01 X27.5482 Y4.5556
G01 X27.5124 Y4.1150
G01 X27.5095 Y4.0983
G01 X27.4030 Y3.7047
G01 X27.3982 Y3.6922
G02 X26.4607 Y2.9262 I-0.9995 J0.2665
G02 X26.0551 Y3.1187 I-0.0808 J0.3534
G01 X26.0270 Y3.2789
G01 X26.0262 Y3.2916
G01 X26.0335 Y3.4616
G03 X25.7779 Y3.5212 I-0.1351 J-0.0018
G02 X24.5506 Y2.9866 I-0.8960 J0.3809
G01 X24.3143 Y3.1602
G01 X24.1623 Y3.4454
G01 X24.1093 Y3.8407
G01 X24.1091 Y3.8511
G01 X24.1488 Y4.2406
G01 X24.1514 Y4.2531
G01 X24.2701 Y4.6131
G01 X24.2747 Y4.6230
G02 X25.3387 Y5.3767 I1.1104 J-0.4398
G01 X25.7765 Y5.2688
G01 X26.0742 Y4.9202
G03 X26.2936 Y4.9650 I0.0939 J0.0998
G01 X26.3807 Y5.3176
G01 X26.5460 Y5.3193
G01 X26.2696 Y4.0997
G01 X26.1934 Y3.7013
G01 X26.1661 Y3.3837
G01 X26.1689 Y3.3589
G01 X26.2258 Y3.1598
G03 X26.7920 Y3.0757 I0.3298 J0.2723
G01 X26.9847 Y3.2169
G01 X27.0033 Y3.2335
G01 X27.1753 Y3.4660
G01 X27.1880 Y3.4875
G01 X27.1974 Y3.5094
G03 X27.2081 Y5.4779 I-1.8664 J0.9944
G01 X27.2018 Y5.4887
G01 X27.1836 Y5.5132
G01 X26.9408 Y5.8296
G01 X26.9237 Y5.8478
G01 X26.5561 Y6.1078
G01 X26.5175 Y6.1235
G01 X26.1098 Y6.2683
G01 X26.0856 Y6.2743
G01 X25.5752 Y6.3261
G01 X24.9419 Y6.2527
G01 X24.9176 Y6.2473
G01 X24.3561 Y6.0216
G01 X24.3453 Y6.0153
G01 X24.3210 Y5.9967
G01 X23.8864 Y5.6548
G01 X23.8684 Y5.6375
G01 X23.5132 Y5.1358
G01 X23.4978 Y5.0989
G01 X23.2891 Y4.5382
G01 X23.2828 Y4.5141
G01 X23.2102 Y3.8632
G01 X23.2099 Y3.8383
G01 X23.2653 Y3.3309
G01 X23.2774 Y3.2945
G01 X23.4350 Y2.8708
G01 X23.4411 Y2.8599
G01 X23.4585 Y2.8355
G01 X23.7071 Y2.4980
G01 X23.7150 Y2.4883
G01 X23.7335 Y2.4715
G01 X24.0996 Y2.2037
G01 X24.1106 Y2.1979
G01 X24.1387 Y2.1872
G01 X24.5563 Y2.0334
G01 X24.5804 Y2.0272
G03 X26.6808 Y2.3707 I0.5570 J3.1870
G01 X26.7212 Y2.2884
G02 X24.5233 Y1.9368 I-1.5748 J2.7991
G02 X23.1407 Y3.2872 I0.3200 J1.7105
G01 X23.0762 Y3.8631
G01 Z-0.5000 F30
G01 X23.0761 Y3.8349 F508
G01 X23.1587 Y4.5441
G02 X25.5769 Y6.4165 I2.3654 J-0.5572
G02 X27.0282 Y5.9109 I0.1277 J-1.9692
G02 X27.5480 Y4.5712 I-1.3312 J-1.2872
G01 X27.5482 Y4.5556
G01 X27.5124 Y4.1150
G01 X27.5095 Y4.0983
G01 X27.4030 Y3.7047
G01 X27.3982 Y3.6922
G02 X26.4607 Y2.9262 I-0.9995 J0.2665
G02 X26.0551 Y3.1187 I-0.0808 J0.3534
G01 X26.0270 Y3.2789
G01 X26.0262 Y3.2916
G01 X26.0335 Y3.4616
G03 X25.7779 Y3.5212 I-0.1351 J-0.0018
G02 X24.5506 Y2.9866 I-0.8960 J0.3809
G01 X24.3143 Y3.1602
G01 X24.1623 Y3.4454
G01 X24.1093 Y3.8407
G01 X24.1091 Y3.8511
G01 X24.1488 Y4.2406
G01 X24.1514 Y4.2531
G01 X24.2701 Y4.6131
G01 X24.2747 Y4.6230
G02 X25.3387 Y5.3767 I1.1104 J-0.4398
G01 X25.7765 Y5.2688
G01 X26.0742 Y4.9202
G03 X26.2936 Y4.9650 I0.0939 J0.0998
G01 X26.3807 Y5.3176
G01 X26.5460 Y5.3193
G01 X26.2696 Y4.0997
G01 X26.1934 Y3.7013
G01 X26.1661 Y3.3837
G01 X26.1689 Y3.3589
G01 X26.2258 Y3.1598
G03 X26.7920 Y3.0757 I0.3298 J0.2723
G01 X26.9847 Y3.2169
G01 X27.0033 Y3.2335
G01 X27.1753 Y3.4660
G01 X27.1880 Y3.4875
G01 X27.1974 Y3.5094
G03 X27.2081 Y5.4779 I-1.8664 J0.9944
G01 X27.2018 Y5.4887
G01 X27.1836 Y5.5132
G01 X26.9408 Y5.8296
G01 X26.9237 Y5.8478
G01 X26.5561 Y6.1078
G01 X26.5175 Y6.1235
G01 X26.1098 Y6.2683
G01 X26.0856 Y6.2743
G01 X25.5752 Y6.3261
G01 X24.9419 Y6.2527
G01 X24.9176 Y6.2473
G01 X24.3561 Y6.0216
G01 X24.3453 Y6.0153
G01 X24.3210 Y5.9967
G01 X23.8864 Y5.6548
G01 X23.8684 Y5.6375
G01 X23.5132 Y5.1358
G01 X23.4978 Y5.0989
G01 X23.2891 Y4.5382
G01 X23.2828 Y4.5141
G01 X23.2102 Y3.8632
G01 X23.2099 Y3.8383
G01 X23.2653 Y3.3309
G01 X23.2774 Y3.2945
G01 X23.4350 Y2.8708
G01 X23.4411 Y2.8599
G01 X23.4585 Y2.8355
G01 X23.7071 Y2.4980
G01 X23.7150 Y2.4883
G01 X23.7335 Y2.4715
G01 X24.0996 Y2.2037
G01 X24.1106 Y2.1979
G01 X24.1387 Y2.1872
G01 X24.5563 Y2.0334
G01 X24.5804 Y2.0272
G03 X26.6808 Y2.3707 I0.5570 J3.1870
G01 X26.7212 Y2.2884
G02 X24.5233 Y1.9368 I-1.5748 J2.7991
G02 X23.1407 Y3.2872 I0.3200 J1.7105
G01 X23.0762 Y3.8631
G00 Z20.0000


(No. 9: Engraving 16)
G00 X26.0906 Y4.1247 Z20.0000
G00 Z0.5000
G01 Z-0.1500 F30
G01 X26.1393 Y4.3603 F508
G01 X26.1556 Y4.5449
G01 X26.1502 Y4.5855
G01 X26.1089 Y4.8157
G01 X26.1021 Y4.8397
G01 X26.0906 Y4.8619
G01 X25.9548 Y5.0606
G01 X25.9387 Y5.0797
G01 X25.9192 Y5.0952
G01 X25.7077 Y5.2239
G01 X25.6967 Y5.2298
G01 X25.6733 Y5.2383
G01 X25.3937 Y5.2830
G01 X25.3688 Y5.2844
G01 X25.0950 Y5.2397
G01 X25.0709 Y5.2332
G01 X25.0365 Y5.2153
G01 X24.8257 Y5.0960
G01 X24.8054 Y5.0816
G01 X24.6054 Y4.8667
G01 X24.5904 Y4.8468
G01 X24.5774 Y4.8229
G01 X24.4420 Y4.5685
G01 X24.4325 Y4.5454
G01 X24.3407 Y4.2267
G01 X24.3378 Y4.2145
G01 X24.3345 Y4.1833
G01 X24.3053 Y3.8480
G01 X24.3402 Y3.5330
G01 X24.3479 Y3.5092
G01 X24.4447 Y3.2891
G01 X24.4570 Y3.2673
G01 X24.4733 Y3.2485
G01 X24.6422 Y3.1056
G01 X24.6628 Y3.0915
G01 X24.6858 Y3.0817
G01 X24.9323 Y3.0324
G01 X24.9571 Y3.0300
G01 X24.9819 Y3.0326
G01 X25.3081 Y3.1041
G01 X25.3318 Y3.1118
G01 X25.3535 Y3.1242
G01 X25.6507 Y3.3384
G01 X25.6605 Y3.3462
G01 X25.6774 Y3.3645
G01 X25.9235 Y3.6956
G01 X25.9401 Y3.7332
G01 X26.0847 Y4.1051
G01 Z-0.3000 F30
G01 X26.0906 Y4.1247 F508
G01 X26.1393 Y4.3603
G01 X26.1556 Y4.5449
G01 X26.1502 Y4.5855
G01 X26.1089 Y4.8157
G01 X26.1021 Y4.8397
G01 X26.0906 Y4.8619
G01 X25.9548 Y5.0606
G01 X25.9387 Y5.0797
G01 X25.9192 Y5.0952
G01 X25.7077 Y5.2239
G01 X25.6967 Y5.2298
G01 X25.6733 Y5.2383
G01 X25.3937 Y5.2830
G01 X25.3688 Y5.2844
G01 X25.0950 Y5.2397
G01 X25.0709 Y5.2332
G01 X25.0365 Y5.2153
G01 X24.8257 Y5.0960
G01 X24.8054 Y5.0816
G01 X24.6054 Y4.8667
G01 X24.5904 Y4.8468
G01 X24.5774 Y4.8229
G01 X24.4420 Y4.5685
G01 X24.4325 Y4.5454
G01 X24.3407 Y4.2267
G01 X24.3378 Y4.2145
G01 X24.3345 Y4.1833
G01 X24.3053 Y3.8480
G01 X24.3402 Y3.5330
G01 X24.3479 Y3.5092
G01 X24.4447 Y3.2891
G01 X24.4570 Y3.2673
G01 X24.4733 Y3.2485
G01 X24.6422 Y3.1056
G01 X24.6628 Y3.0915
G01 X24.6858 Y3.0817
G01 X24.9323 Y3.0324
G01 X24.9571 Y3.0300
G01 X24.9819 Y3.0326
G01 X25.3081 Y3.1041
G01 X25.3318 Y3.1118
G01 X25.3535 Y3.1242
G01 X25.6507 Y3.3384
G01 X25.6605 Y3.3462
G01 X25.6774 Y3.3645
G01 X25.9235 Y3.6956
G01 X25.9401 Y3.7332
G01 X26.0847 Y4.1051
G01 Z-0.4500 F30
G01 X26.0906 Y4.1247 F508
G01 X26.1393 Y4.3603
G01 X26.1556 Y4.5449
G01 X26.1502 Y4.5855
G01 X26.1089 Y4.8157
G01 X26.1021 Y4.8397
G01 X26.0906 Y4.8619
G01 X25.9548 Y5.0606
G01 X25.9387 Y5.0797
G01 X25.9192 Y5.0952
G01 X25.7077 Y5.2239
G01 X25.6967 Y5.2298
G01 X25.6733 Y5.2383
G01 X25.3937 Y5.2830
G01 X25.3688 Y5.2844
G01 X25.0950 Y5.2397
G01 X25.0709 Y5.2332
G01 X25.0365 Y5.2153
G01 X24.8257 Y5.0960
G01 X24.8054 Y5.0816
G01 X24.6054 Y4.8667
G01 X24.5904 Y4.8468
G01 X24.5774 Y4.8229
G01 X24.4420 Y4.5685
G01 X24.4325 Y4.5454
G01 X24.3407 Y4.2267
G01 X24.3378 Y4.2145
G01 X24.3345 Y4.1833
G01 X24.3053 Y3.8480
G01 X24.3402 Y3.5330
G01 X24.3479 Y3.5092
G01 X24.4447 Y3.2891
G01 X24.4570 Y3.2673
G01 X24.4733 Y3.2485
G01 X24.6422 Y3.1056
G01 X24.6628 Y3.0915
G01 X24.6858 Y3.0817
G01 X24.9323 Y3.0324
G01 X24.9571 Y3.0300
G01 X24.9819 Y3.0326
G01 X25.3081 Y3.1041
G01 X25.3318 Y3.1118
G01 X25.3535 Y3.1242
G01 X25.6507 Y3.3384
G01 X25.6605 Y3.3462
G01 X25.6774 Y3.3645
G01 X25.9235 Y3.6956
G01 X25.9401 Y3.7332
G01 X26.0847 Y4.1051
G01 Z-0.5000 F30
G01 X26.0906 Y4.1247 F508
G01 X26.1393 Y4.3603
G01 X26.1556 Y4.5449
G01 X26.1502 Y4.5855
G01 X26.1089 Y4.8157
G01 X26.1021 Y4.8397
G01 X26.0906 Y4.8619
G01 X25.9548 Y5.0606
G01 X25.9387 Y5.0797
G01 X25.9192 Y5.0952
G01 X25.7077 Y5.2239
G01 X25.6967 Y5.2298
G01 X25.6733 Y5.2383
G01 X25.3937 Y5.2830
G01 X25.3688 Y5.2844
G01 X25.0950 Y5.2397
G01 X25.0709 Y5.2332
G01 X25.0365 Y5.2153
G01 X24.8257 Y5.0960
G01 X24.8054 Y5.0816
G01 X24.6054 Y4.8667
G01 X24.5904 Y4.8468
G01 X24.5774 Y4.8229
G01 X24.4420 Y4.5685
G01 X24.4325 Y4.5454
G01 X24.3407 Y4.2267
G01 X24.3378 Y4.2145
G01 X24.3345 Y4.1833
G01 X24.3053 Y3.8480
G01 X24.3402 Y3.5330
G01 X24.3479 Y3.5092
G01 X24.4447 Y3.2891
G01 X24.4570 Y3.2673
G01 X24.4733 Y3.2485
G01 X24.6422 Y3.1056
G01 X24.6628 Y3.0915
G01 X24.6858 Y3.0817
G01 X24.9323 Y3.0324
G01 X24.9571 Y3.0300
G01 X24.9819 Y3.0326
G01 X25.3081 Y3.1041
G01 X25.3318 Y3.1118
G01 X25.3535 Y3.1242
G01 X25.6507 Y3.3384
G01 X25.6605 Y3.3462
G01 X25.6774 Y3.3645
G01 X25.9235 Y3.6956
G01 X25.9401 Y3.7332
G01 X26.0847 Y4.1051
G00 Z20.0000


(No. 10: Engraving 17)
G00 X28.7712 Y4.0474 Z20.0000
G00 Z0.5000
G01 Z-0.1500 F30
G01 Y2.6425 F508
G01 X28.5329
G01 Y4.7689
G01 X28.5288 Y5.0959
G01 X28.5209 Y5.3274
G01 X28.7327
G01 X28.7441 Y5.0488
G01 X28.7495 Y4.8496
G03 X28.8853 Y4.7280 I0.1258 J0.0038
G01 X29.0824 Y5.0116
G02 X29.5937 Y5.3806 I0.4651 J-0.1058
G01 X29.6521 Y5.3766
G01 X29.6554 Y5.3596
G01 Y5.1813
G01 X29.5258 Y5.1840
G01 X29.5009 Y5.1826
G01 X29.2105 Y5.1116
G01 X29.1880 Y5.1009
G01 X29.1679 Y5.0860
G03 X28.8192 Y4.5231 I0.8160 J-0.8950
G01 X28.8128 Y4.4990
G01 X28.8098 Y4.4706
G01 X28.7717 Y4.0589
G01 Z-0.3000 F30
G01 X28.7712 Y4.0474 F508
G01 Y2.6425
G01 X28.5329
G01 Y4.7689
G01 X28.5288 Y5.0959
G01 X28.5209 Y5.3274
G01 X28.7327
G01 X28.7441 Y5.0488
G01 X28.7495 Y4.8496
G03 X28.8853 Y4.7280 I0.1258 J0.0038
G01 X29.0824 Y5.0116
G02 X29.5937 Y5.3806 I0.4651 J-0.1058
G01 X29.6521 Y5.3766
G01 X29.6554 Y5.3596
G01 Y5.1813
G01 X29.5258 Y5.1840
G01 X29.5009 Y5.1826
G01 X29.2105 Y5.1116
G01 X29.1880 Y5.1009
G01 X29.1679 Y5.0860
G03 X28.8192 Y4.5231 I0.8160 J-0.8950
G01 X28.8128 Y4.4990
G01 X28.8098 Y4.4706
G01 X28.7717 Y4.0589
G01 Z-0.4500 F30
G01 X28.7712 Y4.0474 F508
G01 Y2.6425
G01 X28.5329
G01 Y4.7689
G01 X28.5288 Y5.0959
G01 X28.5209 Y5.3274
G01 X28.7327
G01 X28.7441 Y5.0488
G01 X28.7495 Y4.8496
G03 X28.8853 Y4.7280 I0.1258 J0.0038
G01 X29.0824 Y5.0116
G02 X29.5937 Y5.3806 I0.4651 J-0.1058
G01 X29.6521 Y5.3766
G01 X29.6554 Y5.3596
G01 Y5.1813
G01 X29.5258 Y5.1840
G01 X29.5009 Y5.1826
G01 X29.2105 Y5.1116
G01 X29.1880 Y5.1009
G01 X29.1679 Y5.0860
G03 X28.8192 Y4.5231 I0.8160 J-0.8950
G01 X28.8128 Y4.4990
G01 X28.8098 Y4.4706
G01 X28.7717 Y4.0589
G01 Z-0.5000 F30
G01 X28.7712 Y4.0474 F508
G01 Y2.6425
G01 X28.5329
G01 Y4.7689
G01 X28.5288 Y5.0959
G01 X28.5209 Y5.3274
G01 X28.7327
G01 X28.7441 Y5.0488
G01 X28.7495 Y4.8496
G03 X28.8853 Y4.7280 I0.1258 J0.0038
G01 X29.0824 Y5.0116
G02 X29.5937 Y5.3806 I0.4651 J-0.1058
G01 X29.6521 Y5.3766
G01 X29.6554 Y5.3596
G01 Y5.1813
G01 X29.5258 Y5.1840
G01 X29.5009 Y5.1826
G01 X29.2105 Y5.1116
G01 X29.1880 Y5.1009
G01 X29.1679 Y5.0860
G03 X28.8192 Y4.5231 I0.8160 J-0.8950
G01 X28.8128 Y4.4990
G01 X28.8098 Y4.4706
G01 X28.7717 Y4.0589
G00 Z20.0000


(No. 11: Engraving 18)
G00 X30.1893 Y3.9876 Z20.0000
G00 Z0.5000
G01 Z-0.1500 F30
G01 X30.2714 Y4.6069 F508
G02 X31.3602 Y5.3767 I1.0184 J-0.2855
G01 X32.2446 Y5.0238
G01 X32.5250 Y4.0101
G01 X32.5121 Y4.0069
G01 X30.5780
G03 X30.4548 Y3.9031 I0.0000 J-0.1250
G01 X30.4531 Y3.8783
G01 X30.5061 Y3.4205
G01 X30.5114 Y3.3961
G01 X30.5159 Y3.3845
G01 X30.6738 Y3.0500
G03 X30.7244 Y2.9933 I0.1373 J0.0715
G01 X30.9658 Y2.8003
G03 X31.0397 Y2.7714 I0.0894 J0.1197
G01 X31.3858 Y2.7049
G01 X31.4108 Y2.7051
G01 X31.7092 Y2.7391
G01 X31.7213 Y2.7423
G01 X31.7507 Y2.7543
G01 X31.9551 Y2.8420
G01 X31.9769 Y2.8541
G01 X32.1587 Y3.0173
G01 X32.1735 Y3.0374
G01 X32.2258 Y3.1317
G01 X32.3668 Y3.0922
G01 X32.0936 Y2.7494
G01 X31.3937 Y2.5907
G01 X30.8723 Y2.6789
G01 X30.5100 Y2.9310
G01 X30.4975 Y2.9450
G01 X30.2716 Y3.3717
G01 X30.1894 Y4.0197
G01 Z-0.3000 F30
G01 X30.1893 Y3.9876 F508
G01 X30.2714 Y4.6069
G02 X31.3602 Y5.3767 I1.0184 J-0.2855
G01 X32.2446 Y5.0238
G01 X32.5250 Y4.0101
G01 X32.5121 Y4.0069
G01 X30.5780
G03 X30.4548 Y3.9031 I0.0000 J-0.1250
G01 X30.4531 Y3.8783
G01 X30.5061 Y3.4205
G01 X30.5114 Y3.3961
G01 X30.5159 Y3.3845
G01 X30.6738 Y3.0500
G03 X30.7244 Y2.9933 I0.1373 J0.0715
G01 X30.9658 Y2.8003
G03 X31.0397 Y2.7714 I0.0894 J0.1197
G01 X31.3858 Y2.7049
G01 X31.4108 Y2.7051
G01 X31.7092 Y2.7391
G01 X31.7213 Y2.7423
G01 X31.7507 Y2.7543
G01 X31.9551 Y2.8420
G01 X31.9769 Y2.8541
G01 X32.1587 Y3.0173
G01 X32.1735 Y3.0374
G01 X32.2258 Y3.1317
G01 X32.3668 Y3.0922
G01 X32.0936 Y2.7494
G01 X31.3937 Y2.5907
G01 X30.8723 Y2.6789
G01 X30.5100 Y2.9310
G01 X30.4975 Y2.9450
G01 X30.2716 Y3.3717
G01 X30.1894 Y4.0197
G01 Z-0.4500 F30
G01 X30.1893 Y3.9876 F508
G01 X30.2714 Y4.6069
G02 X31.3602 Y5.3767 I1.0184 J-0.2855
G01 X32.2446 Y5.0238
G01 X32.5250 Y4.0101
G01 X32.5121 Y4.0069
G01 X30.5780
G03 X30.4548 Y3.9031 I0.0000 J-0.1250
G01 X30.4531 Y3.8783
G01 X30.5061 Y3.4205
G01 X30.5114 Y3.3961
G01 X30.5159 Y3.3845
G01 X30.6738 Y3.0500
G03 X30.7244 Y2.9933 I0.1373 J0.0715
G01 X30.9658 Y2.8003
G03 X31.0397 Y2.7714 I0.0894 J0.1197
G01 X31.3858 Y2.7049
G01 X31.4108 Y2.7051
G01 X31.7092 Y2.7391
G01 X31.7213 Y2.7423
G01 X31.7507 Y2.7543
G01 X31.9551 Y2.8420
G01 X31.9769 Y2.8541
G01 X32.1587 Y3.0173
G01 X32.1735 Y3.0374
G01 X32.2258 Y3.1317
G01 X32.3668 Y3.0922
G01 X32.0936 Y2.7494
G01 X31.3937 Y2.5907
G01 X30.8723 Y2.6789
G01 X30.5100 Y2.9310
G01 X30.4975 Y2.9450
G01 X30.2716 Y3.3717
G01 X30.1894 Y4.0197
G01 Z-0.5000 F30
G01 X30.1893 Y3.9876 F508
G01 X30.2714 Y4.6069
G02 X31.3602 Y5.3767 I1.0184 J-0.2855
G01 X32.2446 Y5.0238
G01 X32.5250 Y4.0101
G01 X32.5121 Y4.0069
G01 X30.5780
G03 X30.4548 Y3.9031 I0.0000 J-0.1250
G01 X30.4531 Y3.8783
G01 X30.5061 Y3.4205
G01 X30.5114 Y3.3961
G01 X30.5159 Y3.3845
G01 X30.6738 Y3.0500
G03 X30.7244 Y2.9933 I0.1373 J0.0715
G01 X30.9658 Y2.8003
G03 X31.0397 Y2.7714 I0.0894 J0.1197
G01 X31.3858 Y2.7049
G01 X31.4108 Y2.7051
G01 X31.7092 Y2.7391
G01 X31.7213 Y2.7423
G01 X31.7507 Y2.7543
G01 X31.9551 Y2.8420
G01 X31.9769 Y2.8541
G01 X32.1587 Y3.0173
G01 X32.1735 Y3.0374
G01 X32.2258 Y3.1317
G01 X32.3668 Y3.0922
G01 X32.0936 Y2.7494
G01 X31.3937 Y2.5907
G01 X30.8723 Y2.6789
G01 X30.5100 Y2.9310
G01 X30.4975 Y2.9450
G01 X30.2716 Y3.3717
G01 X30.1894 Y4.0197
G00 Z20.0000


(No. 12: Engraving 19)
G00 X30.5835 Y4.1312 Z20.0000
G00 Z0.5000
G01 Z-0.1500 F30
G01 X32.1675 F508
G03 X32.2863 Y4.3001 I-0.0011 J0.1269
G01 X32.2108 Y4.6816
G01 X32.2078 Y4.6937
G01 X32.1982 Y4.7167
G01 X32.0402 Y4.9948
G01 X32.0258 Y5.0151
G01 X32.0076 Y5.0322
G01 X31.7632 Y5.1965
G01 X31.7412 Y5.2083
G01 X31.7173 Y5.2154
G01 X31.3904 Y5.2693
G01 X31.3655 Y5.2708
G01 X31.3275 Y5.2651
G01 X31.0288 Y5.2095
G01 X31.0048 Y5.2025
G01 X30.9935 Y5.1972
G01 X30.9620 Y5.1759
G01 X30.7337 Y5.0097
G01 X30.7150 Y4.9930
G01 X30.7001 Y4.9730
G01 X30.5388 Y4.6884
G01 X30.5287 Y4.6656
G01 X30.5210 Y4.6284
G01 X30.4603 Y4.2775
G00 Z20.0000
G00 X30.5835 Y4.1312
G00 Z0.3500
G01 Z-0.3000 F30
G01 X32.1675 F508
G03 X32.2863 Y4.3001 I-0.0011 J0.1269
G01 X32.2108 Y4.6816
G01 X32.2078 Y4.6937
G01 X32.1982 Y4.7167
G01 X32.0402 Y4.9948
G01 X32.0258 Y5.0151
G01 X32.0076 Y5.0322
G01 X31.7632 Y5.1965
G01 X31.7412 Y5.2083
G01 X31.7173 Y5.2154
G01 X31.3904 Y5.2693
G01 X31.3655 Y5.2708
G01 X31.3275 Y5.2651
G01 X31.0288 Y5.2095
G01 X31.0048 Y5.2025
G01 X30.9935 Y5.1972
G01 X30.9620 Y5.1759
G01 X30.7337 Y5.0097
G01 X30.7150 Y4.9930
G01 X30.7001 Y4.9730
G01 X30.5388 Y4.6884
G01 X30.5287 Y4.6656
G01 X30.5210 Y4.6284
G01 X30.4603 Y4.2775
G00 Z20.0000
G00 X30.5835 Y4.1312
G00 Z0.2000
G01 Z-0.4500 F30
G01 X32.1675 F508
G03 X32.2863 Y4.3001 I-0.0011 J0.1269
G01 X32.2108 Y4.6816
G01 X32.2078 Y4.6937
G01 X32.1982 Y4.7167
G01 X32.0402 Y4.9948
G01 X32.0258 Y5.0151
G01 X32.0076 Y5.0322
G01 X31.7632 Y5.1965
G01 X31.7412 Y5.2083
G01 X31.7173 Y5.2154
G01 X31.3904 Y5.2693
G01 X31.3655 Y5.2708
G01 X31.3275 Y5.2651
G01 X31.0288 Y5.2095
G01 X31.0048 Y5.2025
G01 X30.9935 Y5.1972
G01 X30.9620 Y5.1759
G01 X30.7337 Y5.0097
G01 X30.7150 Y4.9930
G01 X30.7001 Y4.9730
G01 X30.5388 Y4.6884
G01 X30.5287 Y4.6656
G01 X30.5210 Y4.6284
G01 X30.4603 Y4.2775
G00 Z20.0000
G00 X30.5835 Y4.1312
G00 Z0.0500
G01 Z-0.5000 F30
G01 X32.1675 F508
G03 X32.2863 Y4.3001 I-0.0011 J0.1269
G01 X32.2108 Y4.6816
G01 X32.2078 Y4.6937
G01 X32.1982 Y4.7167
G01 X32.0402 Y4.9948
G01 X32.0258 Y5.0151
G01 X32.0076 Y5.0322
G01 X31.7632 Y5.1965
G01 X31.7412 Y5.2083
G01 X31.7173 Y5.2154
G01 X31.3904 Y5.2693
G01 X31.3655 Y5.2708
G01 X31.3275 Y5.2651
G01 X31.0288 Y5.2095
G01 X31.0048 Y5.2025
G01 X30.9935 Y5.1972
G01 X30.9620 Y5.1759
G01 X30.7337 Y5.0097
G01 X30.7150 Y4.9930
G01 X30.7001 Y4.9730
G01 X30.5388 Y4.6884
G01 X30.5287 Y4.6656
G01 X30.5210 Y4.6284
G01 X30.4603 Y4.2775
G00 Z20.0000


(No. 13: Engraving 20)
G00 X33.6770 Y4.3352 Z20.0000
G00 Z0.5000
G01 Z-0.1500 F30
G03 X34.3545 Y4.1031 I1.1501 J2.2521 F508
G02 X35.0198 Y3.8574 I-0.2523 J-1.7068
G01 X35.0353 Y3.8468
G01 X35.1213 Y3.7762
G01 X35.1316 Y3.7659
G01 X35.1942 Y3.6888
G01 X35.2027 Y3.6759
G01 X35.2494 Y3.5875
G01 X35.2548 Y3.5743
G01 X35.2844 Y3.4721
G01 X35.2871 Y3.4571
G01 X35.2973 Y3.3379
G01 X35.2313 Y3.0262
G01 X35.2244 Y3.0123
G01 X35.0337 Y2.7911
G01 X34.7013 Y2.6418
G01 X34.2387 Y2.5898
G01 X34.2244 Y2.5896
G01 X33.7790 Y2.6310
G01 X33.4552 Y2.7518
G01 X33.2474 Y2.9475
G01 X33.1790 Y3.1083
G01 X33.3584 Y3.1488
G01 X33.4149 Y3.0332
G01 X33.4208 Y3.0221
G01 X33.4356 Y3.0021
G01 X33.6080 Y2.8505
G03 X33.6675 Y2.8202 I0.0991 J0.1208
G01 X33.8939 Y2.7409
G01 X33.9324 Y2.7360
G01 X34.2217 Y2.7104
G01 X34.2342 Y2.7099
G01 X34.2637 Y2.7122
G01 X34.5656 Y2.7389
G01 X34.5901 Y2.7436
G01 X34.6181 Y2.7539
G01 X34.8215 Y2.8321
G01 X34.8438 Y2.8434
G01 X34.8634 Y2.8588
G01 X34.9984 Y3.0072
G03 X35.0273 Y3.0619 I-0.0926 J0.0840
G01 X35.0711 Y3.2642
G01 X35.0731 Y3.2765
G01 X35.0734 Y3.3015
G01 X35.0419 Y3.4712
G01 X35.0348 Y3.4951
G01 X35.0231 Y3.5172
G01 X34.9311 Y3.6456
G03 X34.8796 Y3.6890 I-0.1233 J-0.0940
G01 X34.7405 Y3.7772
G01 X34.7182 Y3.7884
G02 X33.7780 Y4.0689 I190.3029 J639.6573
G01 X33.5652 Y4.1630
G01 X33.5539 Y4.1695
G01 X33.4279 Y4.2616
G01 X33.4193 Y4.2695
G01 X33.3258 Y4.3773
G01 X33.2651 Y4.5100
G01 X33.2445 Y4.6720
G01 X33.3040 Y4.9663
G01 X33.3111 Y4.9811
G01 X33.4816 Y5.1861
G01 X33.7886 Y5.3238
G01 X34.2318 Y5.3721
G01 X34.2459 Y5.3722
G01 X34.6418 Y5.3334
G01 X34.9419 Y5.2198
G01 X35.1374 Y5.0337
G01 X35.1964 Y4.8841
G01 X35.0165 Y4.8618
G01 X35.0074 Y4.8670
G01 X34.9723 Y4.9479
G03 X34.9256 Y5.0049 I-0.1328 J-0.0612
G01 X34.7874 Y5.1266
G01 X34.7658 Y5.1391
G01 X34.7396 Y5.1492
G01 X34.5505 Y5.2205
G01 X34.5263 Y5.2269
G01 X34.2378 Y5.2546
G01 X33.9398 Y5.2291
G01 X33.9153 Y5.2244
G01 X33.8881 Y5.2146
G01 X33.7060 Y5.1463
G01 X33.6836 Y5.1353
G01 X33.6639 Y5.1200
G01 X33.5407 Y4.9886
G03 X33.5109 Y4.9344 I0.0913 J-0.0854
G01 X33.4705 Y4.7525
G01 X33.4676 Y4.7277
G01 X33.4680 Y4.7152
G01 X33.4851 Y4.5939
G01 X33.4875 Y4.5817
G01 X33.4959 Y4.5581
G01 X33.5472 Y4.4609
G01 X33.5610 Y4.4401
G01 X33.6532 Y4.3526
G01 Z-0.3000 F30
G01 X33.6770 Y4.3352 F508
G03 X34.3545 Y4.1031 I1.1501 J2.2521
G02 X35.0198 Y3.8574 I-0.2523 J-1.7068
G01 X35.0353 Y3.8468
G01 X35.1213 Y3.7762
G01 X35.1316 Y3.7659
G01 X35.1942 Y3.6888
G01 X35.2027 Y3.6759
G01 X35.2494 Y3.5875
G01 X35.2548 Y3.5743
G01 X35.2844 Y3.4721
G01 X35.2871 Y3.4571
G01 X35.2973 Y3.3379
G01 X35.2313 Y3.0262
G01 X35.2244 Y3.0123
G01 X35.0337 Y2.7911
G01 X34.7013 Y2.6418
G01 X34.2387 Y2.5898
G01 X34.2244 Y2.5896
G01 X33.7790 Y2.6310
G01 X33.4552 Y2.7518
G01 X33.2474 Y2.9475
G01 X33.1790 Y3.1083
G01 X33.3584 Y3.1488
G01 X33.4149 Y3.0332
G01 X33.4208 Y3.0221
G01 X33.4356 Y3.0021
G01 X33.6080 Y2.8505
G03 X33.6675 Y2.8202 I0.0991 J0.1208
G01 X33.8939 Y2.7409
G01 X33.9324 Y2.7360
G01 X34.2217 Y2.7104
G01 X34.2342 Y2.7099
G01 X34.2637 Y2.7122
G01 X34.5656 Y2.7389
G01 X34.5901 Y2.7436
G01 X34.6181 Y2.7539
G01 X34.8215 Y2.8321
G01 X34.8438 Y2.8434
G01 X34.8634 Y2.8588
G01 X34.9984 Y3.0072
G03 X35.0273 Y3.0619 I-0.0926 J0.0840
G01 X35.0711 Y3.2642
G01 X35.0731 Y3.2765
G01 X35.0734 Y3.3015
G01 X35.0419 Y3.4712
G01 X35.0348 Y3.4951
G01 X35.0231 Y3.5172
G01 X34.9311 Y3.6456
G03 X34.8796 Y3.6890 I-0.1233 J-0.0940
G01 X34.7405 Y3.7772
G01 X34.7182 Y3.7884
G02 X33.7780 Y4.0689 I190.3029 J639.6573
G01 X33.5652 Y4.1630
G01 X33.5539 Y4.1695
G01 X33.4279 Y4.2616
G01 X33.4193 Y4.2695
G01 X33.3258 Y4.3773
G01 X33.2651 Y4.5100
G01 X33.2445 Y4.6720
G01 X33.3040 Y4.9663
G01 X33.3111 Y4.9811
G01 X33.4816 Y5.1861
G01 X33.7886 Y5.3238
G01 X34.2318 Y5.3721
G01 X34.2459 Y5.3722
G01 X34.6418 Y5.3334
G01 X34.9419 Y5.2198
G01 X35.1374 Y5.0337
G01 X35.1964 Y4.8841
G01 X35.0165 Y4.8618
G01 X35.0074 Y4.8670
G01 X34.9723 Y4.9479
G03 X34.9256 Y5.0049 I-0.1328 J-0.0612
G01 X34.7874 Y5.1266
G01 X34.7658 Y5.1391
G01 X34.7396 Y5.1492
G01 X34.5505 Y5.2205
G01 X34.5263 Y5.2269
G01 X34.2378 Y5.2546
G01 X33.9398 Y5.2291
G01 X33.9153 Y5.2244
G01 X33.8881 Y5.2146
G01 X33.7060 Y5.1463
G01 X33.6836 Y5.1353
G01 X33.6639 Y5.1200
G01 X33.5407 Y4.9886
G03 X33.5109 Y4.9344 I0.0913 J-0.0854
G01 X33.4705 Y4.7525
G01 X33.4676 Y4.7277
G01 X33.4680 Y4.7152
G01 X33.4851 Y4.5939
G01 X33.4875 Y4.5817
G01 X33.4959 Y4.5581
G01 X33.5472 Y4.4609
G01 X33.5610 Y4.4401
G01 X33.6532 Y4.3526
G01 Z-0.4500 F30
G01 X33.6770 Y4.3352 F508
G03 X34.3545 Y4.1031 I1.1501 J2.2521
G02 X35.0198 Y3.8574 I-0.2523 J-1.7068
G01 X35.0353 Y3.8468
G01 X35.1213 Y3.7762
G01 X35.1316 Y3.7659
G01 X35.1942 Y3.6888
G01 X35.2027 Y3.6759
G01 X35.2494 Y3.5875
G01 X35.2548 Y3.5743
G01 X35.2844 Y3.4721
G01 X35.2871 Y3.4571
G01 X35.2973 Y3.3379
G01 X35.2313 Y3.0262
G01 X35.2244 Y3.0123
G01 X35.0337 Y2.7911
G01 X34.7013 Y2.6418
G01 X34.2387 Y2.5898
G01 X34.2244 Y2.5896
G01 X33.7790 Y2.6310
G01 X33.4552 Y2.7518
G01 X33.2474 Y2.9475
G01 X33.1790 Y3.1083
G01 X33.3584 Y3.1488
G01 X33.4149 Y3.0332
G01 X33.4208 Y3.0221
G01 X33.4356 Y3.0021
G01 X33.6080 Y2.8505
G03 X33.6675 Y2.8202 I0.0991 J0.1208
G01 X33.8939 Y2.7409
G01 X33.9324 Y2.7360
G01 X34.2217 Y2.7104
G01 X34.2342 Y2.7099
G01 X34.2637 Y2.7122
G01 X34.5656 Y2.7389
G01 X34.5901 Y2.7436
G01 X34.6181 Y2.7539
G01 X34.8215 Y2.8321
G01 X34.8438 Y2.8434
G01 X34.8634 Y2.8588
G01 X34.9984 Y3.0072
G03 X35.0273 Y3.0619 I-0.0926 J0.0840
G01 X35.0711 Y3.2642
G01 X35.0731 Y3.2765
G01 X35.0734 Y3.3015
G01 X35.0419 Y3.4712
G01 X35.0348 Y3.4951
G01 X35.0231 Y3.5172
G01 X34.9311 Y3.6456
G03 X34.8796 Y3.6890 I-0.1233 J-0.0940
G01 X34.7405 Y3.7772
G01 X34.7182 Y3.7884
G02 X33.7780 Y4.0689 I190.3029 J639.6573
G01 X33.5652 Y4.1630
G01 X33.5539 Y4.1695
G01 X33.4279 Y4.2616
G01 X33.4193 Y4.2695
G01 X33.3258 Y4.3773
G01 X33.2651 Y4.5100
G01 X33.2445 Y4.6720
G01 X33.3040 Y4.9663
G01 X33.3111 Y4.9811
G01 X33.4816 Y5.1861
G01 X33.7886 Y5.3238
G01 X34.2318 Y5.3721
G01 X34.2459 Y5.3722
G01 X34.6418 Y5.3334
G01 X34.9419 Y5.2198
G01 X35.1374 Y5.0337
G01 X35.1964 Y4.8841
G01 X35.0165 Y4.8618
G01 X35.0074 Y4.8670
G01 X34.9723 Y4.9479
G03 X34.9256 Y5.0049 I-0.1328 J-0.0612
G01 X34.7874 Y5.1266
G01 X34.7658 Y5.1391
G01 X34.7396 Y5.1492
G01 X34.5505 Y5.2205
G01 X34.5263 Y5.2269
G01 X34.2378 Y5.2546
G01 X33.9398 Y5.2291
G01 X33.9153 Y5.2244
G01 X33.8881 Y5.2146
G01 X33.7060 Y5.1463
G01 X33.6836 Y5.1353
G01 X33.6639 Y5.1200
G01 X33.5407 Y4.9886
G03 X33.5109 Y4.9344 I0.0913 J-0.0854
G01 X33.4705 Y4.7525
G01 X33.4676 Y4.7277
G01 X33.4680 Y4.7152
G01 X33.4851 Y4.5939
G01 X33.4875 Y4.5817
G01 X33.4959 Y4.5581
G01 X33.5472 Y4.4609
G01 X33.5610 Y4.4401
G01 X33.6532 Y4.3526
G01 Z-0.5000 F30
G01 X33.6770 Y4.3352 F508
G03 X34.3545 Y4.1031 I1.1501 J2.2521
G02 X35.0198 Y3.8574 I-0.2523 J-1.7068
G01 X35.0353 Y3.8468
G01 X35.1213 Y3.7762
G01 X35.1316 Y3.7659
G01 X35.1942 Y3.6888
G01 X35.2027 Y3.6759
G01 X35.2494 Y3.5875
G01 X35.2548 Y3.5743
G01 X35.2844 Y3.4721
G01 X35.2871 Y3.4571
G01 X35.2973 Y3.3379
G01 X35.2313 Y3.0262
G01 X35.2244 Y3.0123
G01 X35.0337 Y2.7911
G01 X34.7013 Y2.6418
G01 X34.2387 Y2.5898
G01 X34.2244 Y2.5896
G01 X33.7790 Y2.6310
G01 X33.4552 Y2.7518
G01 X33.2474 Y2.9475
G01 X33.1790 Y3.1083
G01 X33.3584 Y3.1488
G01 X33.4149 Y3.0332
G01 X33.4208 Y3.0221
G01 X33.4356 Y3.0021
G01 X33.6080 Y2.8505
G03 X33.6675 Y2.8202 I0.0991 J0.1208
G01 X33.8939 Y2.7409
G01 X33.9324 Y2.7360
G01 X34.2217 Y2.7104
G01 X34.2342 Y2.7099
G01 X34.2637 Y2.7122
G01 X34.5656 Y2.7389
G01 X34.5901 Y2.7436
G01 X34.6181 Y2.7539
G01 X34.8215 Y2.8321
G01 X34.8438 Y2.8434
G01 X34.8634 Y2.8588
G01 X34.9984 Y3.0072
G03 X35.0273 Y3.0619 I-0.0926 J0.0840
G01 X35.0711 Y3.2642
G01 X35.0731 Y3.2765
G01 X35.0734 Y3.3015
G01 X35.0419 Y3.4712
G01 X35.0348 Y3.4951
G01 X35.0231 Y3.5172
G01 X34.9311 Y3.6456
G03 X34.8796 Y3.6890 I-0.1233 J-0.0940
G01 X34.7405 Y3.7772
G01 X34.7182 Y3.7884
G02 X33.7780 Y4.0689 I190.3029 J639.6573
G01 X33.5652 Y4.1630
G01 X33.5539 Y4.1695
G01 X33.4279 Y4.2616
G01 X33.4193 Y4.2695
G01 X33.3258 Y4.3773
G01 X33.2651 Y4.5100
G01 X33.2445 Y4.6720
G01 X33.3040 Y4.9663
G01 X33.3111 Y4.9811
G01 X33.4816 Y5.1861
G01 X33.7886 Y5.3238
G01 X34.2318 Y5.3721
G01 X34.2459 Y5.3722
G01 X34.6418 Y5.3334
G01 X34.9419 Y5.2198
G01 X35.1374 Y5.0337
G01 X35.1964 Y4.8841
G01 X35.0165 Y4.8618
G01 X35.0074 Y4.8670
G01 X34.9723 Y4.9479
G03 X34.9256 Y5.0049 I-0.1328 J-0.0612
G01 X34.7874 Y5.1266
G01 X34.7658 Y5.1391
G01 X34.7396 Y5.1492
G01 X34.5505 Y5.2205
G01 X34.5263 Y5.2269
G01 X34.2378 Y5.2546
G01 X33.9398 Y5.2291
G01 X33.9153 Y5.2244
G01 X33.8881 Y5.2146
G01 X33.7060 Y5.1463
G01 X33.6836 Y5.1353
G01 X33.6639 Y5.1200
G01 X33.5407 Y4.9886
G03 X33.5109 Y4.9344 I0.0913 J-0.0854
G01 X33.4705 Y4.7525
G01 X33.4676 Y4.7277
G01 X33.4680 Y4.7152
G01 X33.4851 Y4.5939
G01 X33.4875 Y4.5817
G01 X33.4959 Y4.5581
G01 X33.5472 Y4.4609
G01 X33.5610 Y4.4401
G01 X33.6532 Y4.3526
G00 Z20.0000


(No. 14: Engraving 21)
G00 X36.3458 Y5.0971 Z20.0000
G00 Z0.5000
G01 Z-0.1500 F30
G01 Y3.2445 F508
G01 X36.3654 Y3.0401
G01 X36.3727 Y3.0162
G01 X36.4313 Y2.8856
G01 X36.4457 Y2.8652
G01 X36.4639 Y2.8481
G01 X36.5752 Y2.7734
G01 X36.5864 Y2.7680
G01 X36.6103 Y2.7608
G01 X36.7743 Y2.7371
G01 X36.9093 Y2.7469
G01 X36.9371 Y2.7512
G01 Y2.6417
G02 X36.2314 Y2.7352 I-0.2627 J0.7270
G01 X36.1081 Y3.1548
G01 X36.1075 Y5.0971
G03 X35.9914 Y5.2218 I-0.1250 J0.0000
G01 X35.7685 Y5.2221
G01 Y5.3274
G01 X36.0140 Y5.3281
G03 X36.1219 Y5.4190 I-0.0125 J0.1244
G01 X36.2459 Y5.9839
G01 X36.3458
G01 Y5.4524
G03 X36.3752 Y5.3719 I0.1250 J0.0000
G03 X36.4619 Y5.3278 I0.0956 J0.0805
G01 X36.8883 Y5.3274
G01 Y5.2221
G01 X36.4708
G00 Z20.0000
G00 X36.3458 Y5.0971
G00 Z0.3500
G01 Z-0.3000 F30
G01 Y3.2445 F508
G01 X36.3654 Y3.0401
G01 X36.3727 Y3.0162
G01 X36.4313 Y2.8856
G01 X36.4457 Y2.8652
G01 X36.4639 Y2.8481
G01 X36.5752 Y2.7734
G01 X36.5864 Y2.7680
G01 X36.6103 Y2.7608
G01 X36.7743 Y2.7371
G01 X36.9093 Y2.7469
G01 X36.9371 Y2.7512
G01 Y2.6417
G02 X36.2314 Y2.7352 I-0.2627 J0.7270
G01 X36.1081 Y3.1548
G01 X36.1075 Y5.0971
G03 X35.9914 Y5.2218 I-0.1250 J0.0000
G01 X35.7685 Y5.2221
G01 Y5.3274
G01 X36.0140 Y5.3281
G03 X36.1219 Y5.4190 I-0.0125 J0.1244
G01 X36.2459 Y5.9839
G01 X36.3458
G01 Y5.4524
G03 X36.3752 Y5.3719 I0.1250 J0.0000
G03 X36.4619 Y5.3278 I0.0956 J0.0805
G01 X36.8883 Y5.3274
G01 Y5.2221
G01 X36.4708
G00 Z20.0000
G00 X36.3458 Y5.0971
G00 Z0.2000
G01 Z-0.4500 F30
G01 Y3.2445 F508
G01 X36.3654 Y3.0401
G01 X36.3727 Y3.0162
G01 X36.4313 Y2.8856
G01 X36.4457 Y2.8652
G01 X36.4639 Y2.8481
G01 X36.5752 Y2.7734
G01 X36.5864 Y2.7680
G01 X36.6103 Y2.7608
G01 X36.7743 Y2.7371
G01 X36.9093 Y2.7469
G01 X36.9371 Y2.7512
G01 Y2.6417
G02 X36.2314 Y2.7352 I-0.2627 J0.7270
G01 X36.1081 Y3.1548
G01 X36.1075 Y5.0971
G03 X35.9914 Y5.2218 I-0.1250 J0.0000
G01 X35.7685 Y5.2221
G01 Y5.3274
G01 X36.0140 Y5.3281
G03 X36.1219 Y5.4190 I-0.0125 J0.1244
G01 X36.2459 Y5.9839
G01 X36.3458
G01 Y5.4524
G03 X36.3752 Y5.3719 I0.1250 J0.0000
G03 X36.4619 Y5.3278 I0.0956 J0.0805
G01 X36.8883 Y5.3274
G01 Y5.2221
G01 X36.4708
G00 Z20.0000
G00 X36.3458 Y5.0971
G00 Z0.0500
G01 Z-0.5000 F30
G01 Y3.2445 F508
G01 X36.3654 Y3.0401
G01 X36.3727 Y3.0162
G01 X36.4313 Y2.8856
G01 X36.4457 Y2.8652
G01 X36.4639 Y2.8481
G01 X36.5752 Y2.7734
G01 X36.5864 Y2.7680
G01 X36.6103 Y2.7608
G01 X36.7743 Y2.7371
G01 X36.9093 Y2.7469
G01 X36.9371 Y2.7512
G01 Y2.6417
G02 X36.2314 Y2.7352 I-0.2627 J0.7270
G01 X36.1081 Y3.1548
G01 X36.1075 Y5.0971
G03 X35.9914 Y5.2218 I-0.1250 J0.0000
G01 X35.7685 Y5.2221
G01 Y5.3274
G01 X36.0140 Y5.3281
G03 X36.1219 Y5.4190 I-0.0125 J0.1244
G01 X36.2459 Y5.9839
G01 X36.3458
G01 Y5.4524
G03 X36.3752 Y5.3719 I0.1250 J0.0000
G03 X36.4619 Y5.3278 I0.0956 J0.0805
G01 X36.8883 Y5.3274
G01 Y5.2221
G01 X36.4708
G00 Z20.0000


(No. 15: Engraving 23)
G00 X37.7041 Y3.5421 Z20.0000
G00 Z0.5000
G01 Z-0.1500 F30
G01 X37.6795 Y3.3310 F508
G01 X37.6839 Y3.2900
G01 X37.7131 Y3.0982
G01 X37.7193 Y3.0740
G01 X37.7242 Y3.0625
G01 X37.8339 Y2.8839
G01 X37.8419 Y2.8743
G01 X37.8607 Y2.8579
G01 X38.0235 Y2.7560
G01 X38.0458 Y2.7449
G01 X38.0700 Y2.7386
G01 X38.2943 Y2.7046
G01 X38.3358 Y2.7077
G01 X38.5818 Y2.7380
G01 X38.6203 Y2.7519
G01 X38.8256 Y2.8358
G01 X38.8476 Y2.8475
G01 X39.0417 Y2.9975
G01 X39.0598 Y3.0147
G01 X39.0771 Y3.0373
G01 X39.2148 Y3.2218
G01 X39.2309 Y3.2566
G01 X39.3179 Y3.4659
G01 X39.3250 Y3.5055
G01 X39.3535 Y3.7202
G01 X39.3530 Y3.9785
G03 X39.2374 Y4.0907 I-0.1244 J-0.0125
G01 X38.6917 Y4.0802
G01 X38.3830 Y4.0595
G01 X38.3440 Y4.0522
G01 X38.1321 Y4.0031
G01 X38.0961 Y3.9859
G01 X37.9568 Y3.9125
G01 X37.9460 Y3.9061
G01 X37.9267 Y3.8903
G01 X37.8101 Y3.7714
G01 X37.7945 Y3.7519
G01 X37.7883 Y3.7411
G01 X37.7145 Y3.5790
G01 Z-0.3000 F30
G01 X37.7041 Y3.5421 F508
G01 X37.6795 Y3.3310
G01 X37.6839 Y3.2900
G01 X37.7131 Y3.0982
G01 X37.7193 Y3.0740
G01 X37.7242 Y3.0625
G01 X37.8339 Y2.8839
G01 X37.8419 Y2.8743
G01 X37.8607 Y2.8579
G01 X38.0235 Y2.7560
G01 X38.0458 Y2.7449
G01 X38.0700 Y2.7386
G01 X38.2943 Y2.7046
G01 X38.3358 Y2.7077
G01 X38.5818 Y2.7380
G01 X38.6203 Y2.7519
G01 X38.8256 Y2.8358
G01 X38.8476 Y2.8475
G01 X39.0417 Y2.9975
G01 X39.0598 Y3.0147
G01 X39.0771 Y3.0373
G01 X39.2148 Y3.2218
G01 X39.2309 Y3.2566
G01 X39.3179 Y3.4659
G01 X39.3250 Y3.5055
G01 X39.3535 Y3.7202
G01 X39.3530 Y3.9785
G03 X39.2374 Y4.0907 I-0.1244 J-0.0125
G01 X38.6917 Y4.0802
G01 X38.3830 Y4.0595
G01 X38.3440 Y4.0522
G01 X38.1321 Y4.0031
G01 X38.0961 Y3.9859
G01 X37.9568 Y3.9125
G01 X37.9460 Y3.9061
G01 X37.9267 Y3.8903
G01 X37.8101 Y3.7714
G01 X37.7945 Y3.7519
G01 X37.7883 Y3.7411
G01 X37.7145 Y3.5790
G01 Z-0.4500 F30
G01 X37.7041 Y3.5421 F508
G01 X37.6795 Y3.3310
G01 X37.6839 Y3.2900
G01 X37.7131 Y3.0982
G01 X37.7193 Y3.0740
G01 X37.7242 Y3.0625
G01 X37.8339 Y2.8839
G01 X37.8419 Y2.8743
G01 X37.8607 Y2.8579
G01 X38.0235 Y2.7560
G01 X38.0458 Y2.7449
G01 X38.0700 Y2.7386
G01 X38.2943 Y2.7046
G01 X38.3358 Y2.7077
G01 X38.5818 Y2.7380
G01 X38.6203 Y2.7519
G01 X38.8256 Y2.8358
G01 X38.8476 Y2.8475
G01 X39.0417 Y2.9975
G01 X39.0598 Y3.0147
G01 X39.0771 Y3.0373
G01 X39.2148 Y3.2218
G01 X39.2309 Y3.2566
G01 X39.3179 Y3.4659
G01 X39.3250 Y3.5055
G01 X39.3535 Y3.7202
G01 X39.3530 Y3.9785
G03 X39.2374 Y4.0907 I-0.1244 J-0.0125
G01 X38.6917 Y4.0802
G01 X38.3830 Y4.0595
G01 X38.3440 Y4.0522
G01 X38.1321 Y4.0031
G01 X38.0961 Y3.9859
G01 X37.9568 Y3.9125
G01 X37.9460 Y3.9061
G01 X37.9267 Y3.8903
G01 X37.8101 Y3.7714
G01 X37.7945 Y3.7519
G01 X37.7883 Y3.7411
G01 X37.7145 Y3.5790
G01 Z-0.5000 F30
G01 X37.7041 Y3.5421 F508
G01 X37.6795 Y3.3310
G01 X37.6839 Y3.2900
G01 X37.7131 Y3.0982
G01 X37.7193 Y3.0740
G01 X37.7242 Y3.0625
G01 X37.8339 Y2.8839
G01 X37.8419 Y2.8743
G01 X37.8607 Y2.8579
G01 X38.0235 Y2.7560
G01 X38.0458 Y2.7449
G01 X38.0700 Y2.7386
G01 X38.2943 Y2.7046
G01 X38.3358 Y2.7077
G01 X38.5818 Y2.7380
G01 X38.6203 Y2.7519
G01 X38.8256 Y2.8358
G01 X38.8476 Y2.8475
G01 X39.0417 Y2.9975
G01 X39.0598 Y3.0147
G01 X39.0771 Y3.0373
G01 X39.2148 Y3.2218
G01 X39.2309 Y3.2566
G01 X39.3179 Y3.4659
G01 X39.3250 Y3.5055
G01 X39.3535 Y3.7202
G01 X39.3530 Y3.9785
G03 X39.2374 Y4.0907 I-0.1244 J-0.0125
G01 X38.6917 Y4.0802
G01 X38.3830 Y4.0595
G01 X38.3440 Y4.0522
G01 X38.1321 Y4.0031
G01 X38.0961 Y3.9859
G01 X37.9568 Y3.9125
G01 X37.9460 Y3.9061
G01 X37.9267 Y3.8903
G01 X37.8101 Y3.7714
G01 X37.7945 Y3.7519
G01 X37.7883 Y3.7411
G01 X37.7145 Y3.5790
G00 Z20.0000


(No. 16: Engraving 22)
G00 X39.2999 Y4.8356 Z20.0000
G00 Z0.5000
G01 Z-0.1500 F30
G01 X39.1794 Y5.0516 F508
G01 X39.1632 Y5.0706
G01 X39.1435 Y5.0860
G01 X38.9452 Y5.2039
G03 X38.8785 Y5.2230 I-0.0740 J-0.1324
G01 X38.6038 Y5.2600
G01 X38.5672 Y5.2575
G01 X38.2913 Y5.2298
G01 X38.2674 Y5.2225
G01 X38.0725 Y5.1387
G01 X38.0506 Y5.1266
G01 X38.0317 Y5.1104
G01 X37.8987 Y4.9490
G01 X37.8869 Y4.9270
G01 X37.8828 Y4.9152
G01 X37.8508 Y4.8023
G01 X37.6434 Y4.8211
G01 X37.8659 Y5.1929
G01 X37.8772 Y5.2012
G01 X38.6169 Y5.3797
G01 X39.0555 Y5.3224
G01 X39.3478 Y5.1626
G01 X39.3616 Y5.1499
G01 X39.5335 Y4.8955
G01 X39.5956 Y4.5188
G01 X39.5972 Y4.4994
G01 Y3.2553
G01 X39.6118 Y3.0558
G01 X39.6162 Y3.0312
G01 X39.6599 Y2.8911
G01 X39.6697 Y2.8682
G01 X39.6838 Y2.8476
G01 X39.7738 Y2.7575
G03 X39.8271 Y2.7261 I0.0881 J0.0886
G01 X39.9712 Y2.6961
G02 X40.0312 Y2.6389 I0.0258 J-0.0331
G01 X39.9554 Y2.6257
G01 X39.7921 Y2.6163
G01 X39.7782 Y2.6170
G01 X39.5911 Y2.6454
G01 X39.4871 Y2.7147
G01 X39.4763 Y2.7266
G01 X39.4080 Y2.8559
G01 X39.3682 Y3.0992
G03 X39.1307 Y3.1567 I-0.1325 J-0.0281
G02 X37.8470 Y2.6413 I-0.9316 J0.4640
G01 X37.6169 Y2.7865
G01 X37.4781 Y3.0166
G01 X37.4295 Y3.3347
G01 X37.4951 Y3.6876
G01 X37.6780 Y3.9292
G01 X37.6924 Y3.9410
G01 X38.0299 Y4.1023
G01 X38.5784 Y4.1720
G01 X39.2307 Y4.1828
G03 X39.3534 Y4.3010 I-0.0021 J0.1250
G01 X39.3530 Y4.4803
G01 X39.3147 Y4.7903
G01 Z-0.3000 F30
G01 X39.2999 Y4.8356 F508
G01 X39.1794 Y5.0516
G01 X39.1632 Y5.0706
G01 X39.1435 Y5.0860
G01 X38.9452 Y5.2039
G03 X38.8785 Y5.2230 I-0.0740 J-0.1324
G01 X38.6038 Y5.2600
G01 X38.5672 Y5.2575
G01 X38.2913 Y5.2298
G01 X38.2674 Y5.2225
G01 X38.0725 Y5.1387
G01 X38.0506 Y5.1266
G01 X38.0317 Y5.1104
G01 X37.8987 Y4.9490
G01 X37.8869 Y4.9270
G01 X37.8828 Y4.9152
G01 X37.8508 Y4.8023
G01 X37.6434 Y4.8211
G01 X37.8659 Y5.1929
G01 X37.8772 Y5.2012
G01 X38.6169 Y5.3797
G01 X39.0555 Y5.3224
G01 X39.3478 Y5.1626
G01 X39.3616 Y5.1499
G01 X39.5335 Y4.8955
G01 X39.5956 Y4.5188
G01 X39.5972 Y4.4994
G01 Y3.2553
G01 X39.6118 Y3.0558
G01 X39.6162 Y3.0312
G01 X39.6599 Y2.8911
G01 X39.6697 Y2.8682
G01 X39.6838 Y2.8476
G01 X39.7738 Y2.7575
G03 X39.8271 Y2.7261 I0.0881 J0.0886
G01 X39.9712 Y2.6961
G02 X40.0312 Y2.6389 I0.0258 J-0.0331
G01 X39.9554 Y2.6257
G01 X39.7921 Y2.6163
G01 X39.7782 Y2.6170
G01 X39.5911 Y2.6454
G01 X39.4871 Y2.7147
G01 X39.4763 Y2.7266
G01 X39.4080 Y2.8559
G01 X39.3682 Y3.0992
G03 X39.1307 Y3.1567 I-0.1325 J-0.0281
G02 X37.8470 Y2.6413 I-0.9316 J0.4640
G01 X37.6169 Y2.7865
G01 X37.4781 Y3.0166
G01 X37.4295 Y3.3347
G01 X37.4951 Y3.6876
G01 X37.6780 Y3.9292
G01 X37.6924 Y3.9410
G01 X38.0299 Y4.1023
G01 X38.5784 Y4.1720
G01 X39.2307 Y4.1828
G03 X39.3534 Y4.3010 I-0.0021 J0.1250
G01 X39.3530 Y4.4803
G01 X39.3147 Y4.7903
G01 Z-0.4500 F30
G01 X39.2999 Y4.8356 F508
G01 X39.1794 Y5.0516
G01 X39.1632 Y5.0706
G01 X39.1435 Y5.0860
G01 X38.9452 Y5.2039
G03 X38.8785 Y5.2230 I-0.0740 J-0.1324
G01 X38.6038 Y5.2600
G01 X38.5672 Y5.2575
G01 X38.2913 Y5.2298
G01 X38.2674 Y5.2225
G01 X38.0725 Y5.1387
G01 X38.0506 Y5.1266
G01 X38.0317 Y5.1104
G01 X37.8987 Y4.9490
G01 X37.8869 Y4.9270
G01 X37.8828 Y4.9152
G01 X37.8508 Y4.8023
G01 X37.6434 Y4.8211
G01 X37.8659 Y5.1929
G01 X37.8772 Y5.2012
G01 X38.6169 Y5.3797
G01 X39.0555 Y5.3224
G01 X39.3478 Y5.1626
G01 X39.3616 Y5.1499
G01 X39.5335 Y4.8955
G01 X39.5956 Y4.5188
G01 X39.5972 Y4.4994
G01 Y3.2553
G01 X39.6118 Y3.0558
G01 X39.6162 Y3.0312
G01 X39.6599 Y2.8911
G01 X39.6697 Y2.8682
G01 X39.6838 Y2.8476
G01 X39.7738 Y2.7575
G03 X39.8271 Y2.7261 I0.0881 J0.0886
G01 X39.9712 Y2.6961
G02 X40.0312 Y2.6389 I0.0258 J-0.0331
G01 X39.9554 Y2.6257
G01 X39.7921 Y2.6163
G01 X39.7782 Y2.6170
G01 X39.5911 Y2.6454
G01 X39.4871 Y2.7147
G01 X39.4763 Y2.7266
G01 X39.4080 Y2.8559
G01 X39.3682 Y3.0992
G03 X39.1307 Y3.1567 I-0.1325 J-0.0281
G02 X37.8470 Y2.6413 I-0.9316 J0.4640
G01 X37.6169 Y2.7865
G01 X37.4781 Y3.0166
G01 X37.4295 Y3.3347
G01 X37.4951 Y3.6876
G01 X37.6780 Y3.9292
G01 X37.6924 Y3.9410
G01 X38.0299 Y4.1023
G01 X38.5784 Y4.1720
G01 X39.2307 Y4.1828
G03 X39.3534 Y4.3010 I-0.0021 J0.1250
G01 X39.3530 Y4.4803
G01 X39.3147 Y4.7903
G01 Z-0.5000 F30
G01 X39.2999 Y4.8356 F508
G01 X39.1794 Y5.0516
G01 X39.1632 Y5.0706
G01 X39.1435 Y5.0860
G01 X38.9452 Y5.2039
G03 X38.8785 Y5.2230 I-0.0740 J-0.1324
G01 X38.6038 Y5.2600
G01 X38.5672 Y5.2575
G01 X38.2913 Y5.2298
G01 X38.2674 Y5.2225
G01 X38.0725 Y5.1387
G01 X38.0506 Y5.1266
G01 X38.0317 Y5.1104
G01 X37.8987 Y4.9490
G01 X37.8869 Y4.9270
G01 X37.8828 Y4.9152
G01 X37.8508 Y4.8023
G01 X37.6434 Y4.8211
G01 X37.8659 Y5.1929
G01 X37.8772 Y5.2012
G01 X38.6169 Y5.3797
G01 X39.0555 Y5.3224
G01 X39.3478 Y5.1626
G01 X39.3616 Y5.1499
G01 X39.5335 Y4.8955
G01 X39.5956 Y4.5188
G01 X39.5972 Y4.4994
G01 Y3.2553
G01 X39.6118 Y3.0558
G01 X39.6162 Y3.0312
G01 X39.6599 Y2.8911
G01 X39.6697 Y2.8682
G01 X39.6838 Y2.8476
G01 X39.7738 Y2.7575
G03 X39.8271 Y2.7261 I0.0881 J0.0886
G01 X39.9712 Y2.6961
G02 X40.0312 Y2.6389 I0.0258 J-0.0331
G01 X39.9554 Y2.6257
G01 X39.7921 Y2.6163
G01 X39.7782 Y2.6170
G01 X39.5911 Y2.6454
G01 X39.4871 Y2.7147
G01 X39.4763 Y2.7266
G01 X39.4080 Y2.8559
G01 X39.3682 Y3.0992
G03 X39.1307 Y3.1567 I-0.1325 J-0.0281
G02 X37.8470 Y2.6413 I-0.9316 J0.4640
G01 X37.6169 Y2.7865
G01 X37.4781 Y3.0166
G01 X37.4295 Y3.3347
G01 X37.4951 Y3.6876
G01 X37.6780 Y3.9292
G01 X37.6924 Y3.9410
G01 X38.0299 Y4.1023
G01 X38.5784 Y4.1720
G01 X39.2307 Y4.1828
G03 X39.3534 Y4.3010 I-0.0021 J0.1250
G01 X39.3530 Y4.4803
G01 X39.3147 Y4.7903
G00 Z20.0000


(No. 17: Engraving 24)
G00 X40.8216 Y6.5429 Z20.0000
G00 Z0.5000
G01 Z-0.1500 F30
G01 Y2.6425 F508
G01 X40.5833
G01 Y6.4179
G01 X40.9466
G00 Z20.0000
G00 X40.8216 Y6.5429
G00 Z0.3500
G01 Z-0.3000 F30
G01 Y2.6425 F508
G01 X40.5833
G01 Y6.4179
G01 X40.9466
G00 Z20.0000
G00 X40.8216 Y6.5429
G00 Z0.2000
G01 Z-0.4500 F30
G01 Y2.6425 F508
G01 X40.5833
G01 Y6.4179
G01 X40.9466
G00 Z20.0000
G00 X40.8216 Y6.5429
G00 Z0.0500
G01 Z-0.5000 F30
G01 Y2.6425 F508
G01 X40.5833
G01 Y6.4179
G01 X40.9466
G00 Z20.0000


(No. 18: Engraving 25)
G00 X42.0269 Y6.5429 Z20.0000
G00 Z0.5000
G01 Z-0.1500 F30
G01 Y2.6425 F508
G01 X41.7887
G01 Y6.4179
G01 X42.1519
G00 Z20.0000
G00 X42.0269 Y6.5429
G00 Z0.3500
G01 Z-0.3000 F30
G01 Y2.6425 F508
G01 X41.7887
G01 Y6.4179
G01 X42.1519
G00 Z20.0000
G00 X42.0269 Y6.5429
G00 Z0.2000
G01 Z-0.4500 F30
G01 Y2.6425 F508
G01 X41.7887
G01 Y6.4179
G01 X42.1519
G00 Z20.0000
G00 X42.0269 Y6.5429
G00 Z0.0500
G01 Z-0.5000 F30
G01 Y2.6425 F508
G01 X41.7887
G01 Y6.4179
G01 X42.1519
G00 Z20.0000


(No. 19: Engraving 26)
G00 X43.1270 Y2.5175 Z20.0000
G00 Z0.5000
G01 Z-0.1500 F30
G01 Y2.9866 F508
G01 X43.4059
G01 Y2.6425
G01 X43.0020
G00 Z20.0000
G00 X43.1270 Y2.5175
G00 Z0.3500
G01 Z-0.3000 F30
G01 Y2.9866 F508
G01 X43.4059
G01 Y2.6425
G01 X43.0020
G00 Z20.0000
G00 X43.1270 Y2.5175
G00 Z0.2000
G01 Z-0.4500 F30
G01 Y2.9866 F508
G01 X43.4059
G01 Y2.6425
G01 X43.0020
G00 Z20.0000
G00 X43.1270 Y2.5175
G00 Z0.0500
G01 Z-0.5000 F30
G01 Y2.9866 F508
G01 X43.4059
G01 Y2.6425
G01 X43.0020
G00 Z20.0000


(No. 20: Engraving 27)
G00 X44.5122 Y2.5175 Z20.0000
G00 Z0.5000
G01 Z-0.1500 F30
G01 Y4.8258 F508
G01 X44.5082 Y5.2400
G01 X44.5038 Y5.3198
G01 X44.5110 Y5.3274
G01 X44.7121
G01 X44.7157 Y5.3091
G01 X44.7194 Y5.2366
G01 X44.7289 Y4.9471
G03 X44.9090 Y4.8385 I0.1249 J0.0035
G01 X45.0845 Y5.0545
G02 X45.5249 Y5.3512 I0.5808 J-0.3868
G01 X45.7936 Y5.3803
G01 X46.1747 Y5.3267
G01 X46.4069 Y5.1818
G01 X46.4151 Y5.1730
G01 X46.5535 Y4.9106
G01 X46.6058 Y4.4659
G01 Y2.6425
G01 X46.3649
G01 Y4.3783
G01 X46.3491 Y4.6554
G01 X46.3016 Y4.8677
G01 X46.2836 Y4.9054
G01 X46.2191 Y5.0253
G01 X46.2052 Y5.0460
G01 X46.1967 Y5.0552
G01 X46.0827 Y5.1538
G03 X46.0228 Y5.1838 I-0.0981 J-0.1210
G01 X45.8758 Y5.2337
G01 X45.8376 Y5.2382
G01 X45.6329 Y5.2546
G01 X45.5919 Y5.2487
G01 X45.2962 Y5.1921
G01 X45.2723 Y5.1849
G01 X45.2502 Y5.1732
G03 X44.8159 Y4.6585 I0.6316 J-0.9735
G01 X44.8065 Y4.6353
G01 X44.8036 Y4.6232
G01 X44.7506 Y4.2223
G01 X44.7505 Y2.6425
G01 X44.3872
G00 Z20.0000
G00 X44.5122 Y2.5175
G00 Z0.3500
G01 Z-0.3000 F30
G01 Y4.8258 F508
G01 X44.5082 Y5.2400
G01 X44.5038 Y5.3198
G01 X44.5110 Y5.3274
G01 X44.7121
G01 X44.7157 Y5.3091
G01 X44.7194 Y5.2366
G01 X44.7289 Y4.9471
G03 X44.9090 Y4.8385 I0.1249 J0.0035
G01 X45.0845 Y5.0545
G02 X45.5249 Y5.3512 I0.5808 J-0.3868
G01 X45.7936 Y5.3803
G01 X46.1747 Y5.3267
G01 X46.4069 Y5.1818
G01 X46.4151 Y5.1730
G01 X46.5535 Y4.9106
G01 X46.6058 Y4.4659
G01 Y2.6425
G01 X46.3649
G01 Y4.3783
G01 X46.3491 Y4.6554
G01 X46.3016 Y4.8677
G01 X46.2836 Y4.9054
G01 X46.2191 Y5.0253
G01 X46.2052 Y5.0460
G01 X46.1967 Y5.0552
G01 X46.0827 Y5.1538
G03 X46.0228 Y5.1838 I-0.0981 J-0.1210
G01 X45.8758 Y5.2337
G01 X45.8376 Y5.2382
G01 X45.6329 Y5.2546
G01 X45.5919 Y5.2487
G01 X45.2962 Y5.1921
G01 X45.2723 Y5.1849
G01 X45.2502 Y5.1732
G03 X44.8159 Y4.6585 I0.6316 J-0.9735
G01 X44.8065 Y4.6353
G01 X44.8036 Y4.6232
G01 X44.7506 Y4.2223
G01 X44.7505 Y2.6425
G01 X44.3872
G00 Z20.0000
G00 X44.5122 Y2.5175
G00 Z0.2000
G01 Z-0.4500 F30
G01 Y4.8258 F508
G01 X44.5082 Y5.2400
G01 X44.5038 Y5.3198
G01 X44.5110 Y5.3274
G01 X44.7121
G01 X44.7157 Y5.3091
G01 X44.7194 Y5.2366
G01 X44.7289 Y4.9471
G03 X44.9090 Y4.8385 I0.1249 J0.0035
G01 X45.0845 Y5.0545
G02 X45.5249 Y5.3512 I0.5808 J-0.3868
G01 X45.7936 Y5.3803
G01 X46.1747 Y5.3267
G01 X46.4069 Y5.1818
G01 X46.4151 Y5.1730
G01 X46.5535 Y4.9106
G01 X46.6058 Y4.4659
G01 Y2.6425
G01 X46.3649
G01 Y4.3783
G01 X46.3491 Y4.6554
G01 X46.3016 Y4.8677
G01 X46.2836 Y4.9054
G01 X46.2191 Y5.0253
G01 X46.2052 Y5.0460
G01 X46.1967 Y5.0552
G01 X46.0827 Y5.1538
G03 X46.0228 Y5.1838 I-0.0981 J-0.1210
G01 X45.8758 Y5.2337
G01 X45.8376 Y5.2382
G01 X45.6329 Y5.2546
G01 X45.5919 Y5.2487
G01 X45.2962 Y5.1921
G01 X45.2723 Y5.1849
G01 X45.2502 Y5.1732
G03 X44.8159 Y4.6585 I0.6316 J-0.9735
G01 X44.8065 Y4.6353
G01 X44.8036 Y4.6232
G01 X44.7506 Y4.2223
G01 X44.7505 Y2.6425
G01 X44.3872
G00 Z20.0000
G00 X44.5122 Y2.5175
G00 Z0.0500
G01 Z-0.5000 F30
G01 Y4.8258 F508
G01 X44.5082 Y5.2400
G01 X44.5038 Y5.3198
G01 X44.5110 Y5.3274
G01 X44.7121
G01 X44.7157 Y5.3091
G01 X44.7194 Y5.2366
G01 X44.7289 Y4.9471
G03 X44.9090 Y4.8385 I0.1249 J0.0035
G01 X45.0845 Y5.0545
G02 X45.5249 Y5.3512 I0.5808 J-0.3868
G01 X45.7936 Y5.3803
G01 X46.1747 Y5.3267
G01 X46.4069 Y5.1818
G01 X46.4151 Y5.1730
G01 X46.5535 Y4.9106
G01 X46.6058 Y4.4659
G01 Y2.6425
G01 X46.3649
G01 Y4.3783
G01 X46.3491 Y4.6554
G01 X46.3016 Y4.8677
G01 X46.2836 Y4.9054
G01 X46.2191 Y5.0253
G01 X46.2052 Y5.0460
G01 X46.1967 Y5.0552
G01 X46.0827 Y5.1538
G03 X46.0228 Y5.1838 I-0.0981 J-0.1210
G01 X45.8758 Y5.2337
G01 X45.8376 Y5.2382
G01 X45.6329 Y5.2546
G01 X45.5919 Y5.2487
G01 X45.2962 Y5.1921
G01 X45.2723 Y5.1849
G01 X45.2502 Y5.1732
G03 X44.8159 Y4.6585 I0.6316 J-0.9735
G01 X44.8065 Y4.6353
G01 X44.8036 Y4.6232
G01 X44.7506 Y4.2223
G01 X44.7505 Y2.6425
G01 X44.3872
G00 Z20.0000


(No. 21: Engraving 28)
G00 X47.3793 Y3.9876 Z20.0000
G00 Z0.5000
G01 Z-0.1500 F30
G01 X47.4614 Y4.6069 F508
G02 X48.5501 Y5.3767 I1.0184 J-0.2855
G01 X49.4346 Y5.0238
G01 X49.7150 Y4.0101
G01 X49.7021 Y4.0069
G01 X47.7680
G03 X47.6448 Y3.9031 I0.0000 J-0.1250
G01 X47.6431 Y3.8783
G01 X47.6960 Y3.4205
G01 X47.7014 Y3.3961
G01 X47.7059 Y3.3845
G01 X47.8639 Y3.0500
G03 X47.9145 Y2.9933 I0.1373 J0.0716
G01 X48.1558 Y2.8003
G03 X48.2297 Y2.7714 I0.0894 J0.1197
G01 X48.5758 Y2.7049
G01 X48.6007 Y2.7051
G01 X48.8992 Y2.7391
G01 X48.9113 Y2.7423
G01 X48.9407 Y2.7543
G01 X49.1451 Y2.8420
G01 X49.1669 Y2.8541
G01 X49.3487 Y3.0173
G01 X49.3636 Y3.0374
G01 X49.4158 Y3.1317
G01 X49.5568 Y3.0922
G01 X49.2836 Y2.7494
G01 X48.5837 Y2.5907
G01 X48.0623 Y2.6789
G01 X47.7000 Y2.9310
G01 X47.6875 Y2.9450
G01 X47.4616 Y3.3717
G01 X47.3794 Y4.0197
G01 Z-0.3000 F30
G01 X47.3793 Y3.9876 F508
G01 X47.4614 Y4.6069
G02 X48.5501 Y5.3767 I1.0184 J-0.2855
G01 X49.4346 Y5.0238
G01 X49.7150 Y4.0101
G01 X49.7021 Y4.0069
G01 X47.7680
G03 X47.6448 Y3.9031 I0.0000 J-0.1250
G01 X47.6431 Y3.8783
G01 X47.6960 Y3.4205
G01 X47.7014 Y3.3961
G01 X47.7059 Y3.3845
G01 X47.8639 Y3.0500
G03 X47.9145 Y2.9933 I0.1373 J0.0716
G01 X48.1558 Y2.8003
G03 X48.2297 Y2.7714 I0.0894 J0.1197
G01 X48.5758 Y2.7049
G01 X48.6007 Y2.7051
G01 X48.8992 Y2.7391
G01 X48.9113 Y2.7423
G01 X48.9407 Y2.7543
G01 X49.1451 Y2.8420
G01 X49.1669 Y2.8541
G01 X49.3487 Y3.0173
G01 X49.3636 Y3.0374
G01 X49.4158 Y3.1317
G01 X49.5568 Y3.0922
G01 X49.2836 Y2.7494
G01 X48.5837 Y2.5907
G01 X48.0623 Y2.6789
G01 X47.7000 Y2.9310
G01 X47.6875 Y2.9450
G01 X47.4616 Y3.3717
G01 X47.3794 Y4.0197
G01 Z-0.4500 F30
G01 X47.3793 Y3.9876 F508
G01 X47.4614 Y4.6069
G02 X48.5501 Y5.3767 I1.0184 J-0.2855
G01 X49.4346 Y5.0238
G01 X49.7150 Y4.0101
G01 X49.7021 Y4.0069
G01 X47.7680
G03 X47.6448 Y3.9031 I0.0000 J-0.1250
G01 X47.6431 Y3.8783
G01 X47.6960 Y3.4205
G01 X47.7014 Y3.3961
G01 X47.7059 Y3.3845
G01 X47.8639 Y3.0500
G03 X47.9145 Y2.9933 I0.1373 J0.0716
G01 X48.1558 Y2.8003
G03 X48.2297 Y2.7714 I0.0894 J0.1197
G01 X48.5758 Y2.7049
G01 X48.6007 Y2.7051
G01 X48.8992 Y2.7391
G01 X48.9113 Y2.7423
G01 X48.9407 Y2.7543
G01 X49.1451 Y2.8420
G01 X49.1669 Y2.8541
G01 X49.3487 Y3.0173
G01 X49.3636 Y3.0374
G01 X49.4158 Y3.1317
G01 X49.5568 Y3.0922
G01 X49.2836 Y2.7494
G01 X48.5837 Y2.5907
G01 X48.0623 Y2.6789
G01 X47.7000 Y2.9310
G01 X47.6875 Y2.9450
G01 X47.4616 Y3.3717
G01 X47.3794 Y4.0197
G01 Z-0.5000 F30
G01 X47.3793 Y3.9876 F508
G01 X47.4614 Y4.6069
G02 X48.5501 Y5.3767 I1.0184 J-0.2855
G01 X49.4346 Y5.0238
G01 X49.7150 Y4.0101
G01 X49.7021 Y4.0069
G01 X47.7680
G03 X47.6448 Y3.9031 I0.0000 J-0.1250
G01 X47.6431 Y3.8783
G01 X47.6960 Y3.4205
G01 X47.7014 Y3.3961
G01 X47.7059 Y3.3845
G01 X47.8639 Y3.0500
G03 X47.9145 Y2.9933 I0.1373 J0.0716
G01 X48.1558 Y2.8003
G03 X48.2297 Y2.7714 I0.0894 J0.1197
G01 X48.5758 Y2.7049
G01 X48.6007 Y2.7051
G01 X48.8992 Y2.7391
G01 X48.9113 Y2.7423
G01 X48.9407 Y2.7543
G01 X49.1451 Y2.8420
G01 X49.1669 Y2.8541
G01 X49.3487 Y3.0173
G01 X49.3636 Y3.0374
G01 X49.4158 Y3.1317
G01 X49.5568 Y3.0922
G01 X49.2836 Y2.7494
G01 X48.5837 Y2.5907
G01 X48.0623 Y2.6789
G01 X47.7000 Y2.9310
G01 X47.6875 Y2.9450
G01 X47.4616 Y3.3717
G01 X47.3794 Y4.0197
G00 Z20.0000


(No. 22: Engraving 29)
G00 X47.7735 Y4.1312 Z20.0000
G00 Z0.5000
G01 Z-0.1500 F30
G01 X49.3575 F508
G03 X49.4762 Y4.3001 I-0.0011 J0.1269
G01 X49.4008 Y4.6815
G01 X49.3936 Y4.7054
G01 X49.3882 Y4.7167
G01 X49.2302 Y4.9948
G01 X49.2157 Y5.0151
G01 X49.1975 Y5.0322
G01 X48.9531 Y5.1965
G01 X48.9311 Y5.2083
G01 X48.9072 Y5.2154
G01 X48.5804 Y5.2693
G01 X48.5555 Y5.2708
G01 X48.5175 Y5.2651
G01 X48.2188 Y5.2095
G01 X48.1948 Y5.2025
G01 X48.1835 Y5.1972
G01 X48.1520 Y5.1759
G01 X47.9236 Y5.0097
G01 X47.9050 Y4.9930
G01 X47.8901 Y4.9730
G01 X47.7287 Y4.6884
G01 X47.7187 Y4.6656
G01 X47.7109 Y4.6284
G01 X47.6503 Y4.2775
G00 Z20.0000
G00 X47.7735 Y4.1312
G00 Z0.3500
G01 Z-0.3000 F30
G01 X49.3575 F508
G03 X49.4762 Y4.3001 I-0.0011 J0.1269
G01 X49.4008 Y4.6815
G01 X49.3936 Y4.7054
G01 X49.3882 Y4.7167
G01 X49.2302 Y4.9948
G01 X49.2157 Y5.0151
G01 X49.1975 Y5.0322
G01 X48.9531 Y5.1965
G01 X48.9311 Y5.2083
G01 X48.9072 Y5.2154
G01 X48.5804 Y5.2693
G01 X48.5555 Y5.2708
G01 X48.5175 Y5.2651
G01 X48.2188 Y5.2095
G01 X48.1948 Y5.2025
G01 X48.1835 Y5.1972
G01 X48.1520 Y5.1759
G01 X47.9236 Y5.0097
G01 X47.9050 Y4.9930
G01 X47.8901 Y4.9730
G01 X47.7287 Y4.6884
G01 X47.7187 Y4.6656
G01 X47.7109 Y4.6284
G01 X47.6503 Y4.2775
G00 Z20.0000
G00 X47.7735 Y4.1312
G00 Z0.2000
G01 Z-0.4500 F30
G01 X49.3575 F508
G03 X49.4762 Y4.3001 I-0.0011 J0.1269
G01 X49.4008 Y4.6815
G01 X49.3936 Y4.7054
G01 X49.3882 Y4.7167
G01 X49.2302 Y4.9948
G01 X49.2157 Y5.0151
G01 X49.1975 Y5.0322
G01 X48.9531 Y5.1965
G01 X48.9311 Y5.2083
G01 X48.9072 Y5.2154
G01 X48.5804 Y5.2693
G01 X48.5555 Y5.2708
G01 X48.5175 Y5.2651
G01 X48.2188 Y5.2095
G01 X48.1948 Y5.2025
G01 X48.1835 Y5.1972
G01 X48.1520 Y5.1759
G01 X47.9236 Y5.0097
G01 X47.9050 Y4.9930
G01 X47.8901 Y4.9730
G01 X47.7287 Y4.6884
G01 X47.7187 Y4.6656
G01 X47.7109 Y4.6284
G01 X47.6503 Y4.2775
G00 Z20.0000
G00 X47.7735 Y4.1312
G00 Z0.0500
G01 Z-0.5000 F30
G01 X49.3575 F508
G03 X49.4762 Y4.3001 I-0.0011 J0.1269
G01 X49.4008 Y4.6815
G01 X49.3936 Y4.7054
G01 X49.3882 Y4.7167
G01 X49.2302 Y4.9948
G01 X49.2157 Y5.0151
G01 X49.1975 Y5.0322
G01 X48.9531 Y5.1965
G01 X48.9311 Y5.2083
G01 X48.9072 Y5.2154
G01 X48.5804 Y5.2693
G01 X48.5555 Y5.2708
G01 X48.5175 Y5.2651
G01 X48.2188 Y5.2095
G01 X48.1948 Y5.2025
G01 X48.1835 Y5.1972
G01 X48.1520 Y5.1759
G01 X47.9236 Y5.0097
G01 X47.9050 Y4.9930
G01 X47.8901 Y4.9730
G01 X47.7287 Y4.6884
G01 X47.7187 Y4.6656
G01 X47.7109 Y4.6284
G01 X47.6503 Y4.2775
G00 Z20.0000


(No. 23: Engraving 30)
G00 X50.5848 Y3.1387 Z20.0000
G00 Z0.5000
G01 Z-0.1500 F30
G01 Y5.0971 F508
G03 X50.4686 Y5.2218 I-0.1250 J0.0000
G01 X50.2458 Y5.2221
G01 Y5.3274
G01 X50.4913 Y5.3281
G03 X50.5992 Y5.4190 I-0.0125 J0.1244
G01 X50.7232 Y5.9839
G01 X50.8231
G01 X50.8237 Y5.4400
G03 X50.9393 Y5.3278 I0.1244 J0.0125
G01 X51.3656 Y5.3274
G01 Y5.2221
G01 X50.9481
G03 X50.8234 Y5.1060 I0.0000 J-0.1250
G01 X50.8231 Y5.0771
G01 Y3.2445
G01 X50.8410 Y3.0524
G01 X50.8458 Y3.0280
G01 X50.9029 Y2.8968
G03 X50.9412 Y2.8482 I0.1143 J0.0506
G01 X51.0418 Y2.7799
G01 X51.0637 Y2.7680
G01 X51.0876 Y2.7608
G01 X51.2515 Y2.7371
G01 X51.3865 Y2.7469
G01 X51.4144 Y2.7512
G01 Y2.6417
G02 X50.7087 Y2.7352 I-0.2627 J0.7270
G01 X50.5797 Y3.1740
G01 Z-0.3000 F30
G01 X50.5848 Y3.1387 F508
G01 Y5.0971
G03 X50.4686 Y5.2218 I-0.1250 J0.0000
G01 X50.2458 Y5.2221
G01 Y5.3274
G01 X50.4913 Y5.3281
G03 X50.5992 Y5.4190 I-0.0125 J0.1244
G01 X50.7232 Y5.9839
G01 X50.8231
G01 X50.8237 Y5.4400
G03 X50.9393 Y5.3278 I0.1244 J0.0125
G01 X51.3656 Y5.3274
G01 Y5.2221
G01 X50.9481
G03 X50.8234 Y5.1060 I0.0000 J-0.1250
G01 X50.8231 Y5.0771
G01 Y3.2445
G01 X50.8410 Y3.0524
G01 X50.8458 Y3.0280
G01 X50.9029 Y2.8968
G03 X50.9412 Y2.8482 I0.1143 J0.0506
G01 X51.0418 Y2.7799
G01 X51.0637 Y2.7680
G01 X51.0876 Y2.7608
G01 X51.2515 Y2.7371
G01 X51.3865 Y2.7469
G01 X51.4144 Y2.7512
G01 Y2.6417
G02 X50.7087 Y2.7352 I-0.2627 J0.7270
G01 X50.5797 Y3.1740
G01 Z-0.4500 F30
G01 X50.5848 Y3.1387 F508
G01 Y5.0971
G03 X50.4686 Y5.2218 I-0.1250 J0.0000
G01 X50.2458 Y5.2221
G01 Y5.3274
G01 X50.4913 Y5.3281
G03 X50.5992 Y5.4190 I-0.0125 J0.1244
G01 X50.7232 Y5.9839
G01 X50.8231
G01 X50.8237 Y5.4400
G03 X50.9393 Y5.3278 I0.1244 J0.0125
G01 X51.3656 Y5.3274
G01 Y5.2221
G01 X50.9481
G03 X50.8234 Y5.1060 I0.0000 J-0.1250
G01 X50.8231 Y5.0771
G01 Y3.2445
G01 X50.8410 Y3.0524
G01 X50.8458 Y3.0280
G01 X50.9029 Y2.8968
G03 X50.9412 Y2.8482 I0.1143 J0.0506
G01 X51.0418 Y2.7799
G01 X51.0637 Y2.7680
G01 X51.0876 Y2.7608
G01 X51.2515 Y2.7371
G01 X51.3865 Y2.7469
G01 X51.4144 Y2.7512
G01 Y2.6417
G02 X50.7087 Y2.7352 I-0.2627 J0.7270
G01 X50.5797 Y3.1740
G01 Z-0.5000 F30
G01 X50.5848 Y3.1387 F508
G01 Y5.0971
G03 X50.4686 Y5.2218 I-0.1250 J0.0000
G01 X50.2458 Y5.2221
G01 Y5.3274
G01 X50.4913 Y5.3281
G03 X50.5992 Y5.4190 I-0.0125 J0.1244
G01 X50.7232 Y5.9839
G01 X50.8231
G01 X50.8237 Y5.4400
G03 X50.9393 Y5.3278 I0.1244 J0.0125
G01 X51.3656 Y5.3274
G01 Y5.2221
G01 X50.9481
G03 X50.8234 Y5.1060 I0.0000 J-0.1250
G01 X50.8231 Y5.0771
G01 Y3.2445
G01 X50.8410 Y3.0524
G01 X50.8458 Y3.0280
G01 X50.9029 Y2.8968
G03 X50.9412 Y2.8482 I0.1143 J0.0506
G01 X51.0418 Y2.7799
G01 X51.0637 Y2.7680
G01 X51.0876 Y2.7608
G01 X51.2515 Y2.7371
G01 X51.3865 Y2.7469
G01 X51.4144 Y2.7512
G01 Y2.6417
G02 X50.7087 Y2.7352 I-0.2627 J0.7270
G01 X50.5797 Y3.1740
G00 Z20.0000


(No. 24: Engraving 3)
G00 X33.4433 Y19.6050 Z20.0000
G00 Z0.5000
G01 Z-0.1500 F30
G01 Y23.3019 F508
G01 X33.7114
G01 Y19.7300
G01 X33.3183
G00 Z20.0000
G00 X33.4433 Y19.6050
G00 Z0.3500
G01 Z-0.3000 F30
G01 Y23.3019 F508
G01 X33.7114
G01 Y19.7300
G01 X33.3183
G00 Z20.0000
G00 X33.4433 Y19.6050
G00 Z0.2000
G01 Z-0.4500 F30
G01 Y23.3019 F508
G01 X33.7114
G01 Y19.7300
G01 X33.3183
G00 Z20.0000
G00 X33.4433 Y19.6050
G00 Z0.0500
G01 Z-0.5000 F30
G01 Y23.3019 F508
G01 X33.7114
G01 Y19.7300
G01 X33.3183
G00 Z20.0000


(No. 25: Engraving 4)
G00 X34.7568 Y20.9814 Z20.0000
G00 Z0.5000
G01 Z-0.1500 F30
G01 X34.7021 Y21.5302 F508
G01 X34.8213 Y22.3066
G01 X35.1697 Y22.8776
G01 X35.7239 Y23.2355
G01 X36.4751 Y23.3573
G02 X38.0282 Y22.5217 I0.1322 J-1.6154
G01 X38.1870 Y22.0731
G01 X38.2418 Y21.5410
G01 Y21.5264
G01 X38.1886 Y21.0040
G01 X38.1863 Y20.9941
G02 X36.4756 Y19.6772 I-1.6003 J0.3092
G01 X36.4631
G02 X34.9154 Y20.5344 I-0.1231 J1.6034
G01 X34.7506 Y21.0098
G01 Z-0.3000 F30
G01 X34.7568 Y20.9814 F508
G01 X34.7021 Y21.5302
G01 X34.8213 Y22.3066
G01 X35.1697 Y22.8776
G01 X35.7239 Y23.2355
G01 X36.4751 Y23.3573
G02 X38.0282 Y22.5217 I0.1322 J-1.6154
G01 X38.1870 Y22.0731
G01 X38.2418 Y21.5410
G01 Y21.5264
G01 X38.1886 Y21.0040
G01 X38.1863 Y20.9941
G02 X36.4756 Y19.6772 I-1.6003 J0.3092
G01 X36.4631
G02 X34.9154 Y20.5344 I-0.1231 J1.6034
G01 X34.7506 Y21.0098
G01 Z-0.4500 F30
G01 X34.7568 Y20.9814 F508
G01 X34.7021 Y21.5302
G01 X34.8213 Y22.3066
G01 X35.1697 Y22.8776
G01 X35.7239 Y23.2355
G01 X36.4751 Y23.3573
G02 X38.0282 Y22.5217 I0.1322 J-1.6154
G01 X38.1870 Y22.0731
G01 X38.2418 Y21.5410
G01 Y21.5264
G01 X38.1886 Y21.0040
G01 X38.1863 Y20.9941
G02 X36.4756 Y19.6772 I-1.6003 J0.3092
G01 X36.4631
G02 X34.9154 Y20.5344 I-0.1231 J1.6034
G01 X34.7506 Y21.0098
G01 Z-0.5000 F30
G01 X34.7568 Y20.9814 F508
G01 X34.7021 Y21.5302
G01 X34.8213 Y22.3066
G01 X35.1697 Y22.8776
G01 X35.7239 Y23.2355
G01 X36.4751 Y23.3573
G02 X38.0282 Y22.5217 I0.1322 J-1.6154
G01 X38.1870 Y22.0731
G01 X38.2418 Y21.5410
G01 Y21.5264
G01 X38.1886 Y21.0040
G01 X38.1863 Y20.9941
G02 X36.4756 Y19.6772 I-1.6003 J0.3092
G01 X36.4631
G02 X34.9154 Y20.5344 I-0.1231 J1.6034
G01 X34.7506 Y21.0098
G00 Z20.0000


(No. 26: Engraving 6)
G00 X35.0680 Y22.1943 Z20.0000
G00 Z0.5000
G01 Z-0.1500 F30
G01 X34.9774 Y21.5384 F508
G01 X34.9776 Y21.5259
G01 X34.9813 Y21.4964
G01 X35.0691 Y20.8716
G01 X35.0750 Y20.8474
G01 X35.0928 Y20.8114
G01 X35.3548 Y20.3329
G03 X35.4068 Y20.2803 I0.1362 J0.0824
G01 X35.8229 Y19.9757
G03 X35.8938 Y19.9501 I0.0870 J0.1296
G01 X36.4468 Y19.8482
G01 X36.4717 Y19.8462
G01 X36.5106 Y19.8515
G01 X37.0758 Y19.9501
G03 X37.1430 Y19.9829 I-0.0334 J0.1537
G01 X37.5576 Y20.2775
G03 X37.6048 Y20.3377 I-0.0939 J0.1220
G01 X37.8608 Y20.8128
G01 X37.8704 Y20.8358
G01 X37.8773 Y20.8753
G01 X37.9642 Y21.5295
G01 X37.9602 Y21.5707
G01 X37.8739 Y22.1877
G01 X37.8680 Y22.2119
G01 X37.8498 Y22.2483
G01 X37.5919 Y22.7143
G03 X37.5386 Y22.7673 I-0.1337 J-0.0812
G01 X37.1246 Y23.0609
G03 X37.0543 Y23.0856 I-0.0859 J-0.1326
G01 X36.4966 Y23.1838
G01 X36.4717 Y23.1857
G01 X36.4339 Y23.1805
G01 X35.8718 Y23.0835
G03 X35.8052 Y23.0515 I0.0340 J-0.1559
G01 X35.3890 Y22.7619
G03 X35.3414 Y22.7026 I0.0934 J-0.1236
G01 X35.0826 Y22.2379
G01 Z-0.3000 F30
G01 X35.0680 Y22.1943 F508
G01 X34.9774 Y21.5384
G01 X34.9776 Y21.5259
G01 X34.9813 Y21.4964
G01 X35.0691 Y20.8716
G01 X35.0750 Y20.8474
G01 X35.0928 Y20.8114
G01 X35.3548 Y20.3329
G03 X35.4068 Y20.2803 I0.1362 J0.0824
G01 X35.8229 Y19.9757
G03 X35.8938 Y19.9501 I0.0870 J0.1296
G01 X36.4468 Y19.8482
G01 X36.4717 Y19.8462
G01 X36.5106 Y19.8515
G01 X37.0758 Y19.9501
G03 X37.1430 Y19.9829 I-0.0334 J0.1537
G01 X37.5576 Y20.2775
G03 X37.6048 Y20.3377 I-0.0939 J0.1220
G01 X37.8608 Y20.8128
G01 X37.8704 Y20.8358
G01 X37.8773 Y20.8753
G01 X37.9642 Y21.5295
G01 X37.9602 Y21.5707
G01 X37.8739 Y22.1877
G01 X37.8680 Y22.2119
G01 X37.8498 Y22.2483
G01 X37.5919 Y22.7143
G03 X37.5386 Y22.7673 I-0.1337 J-0.0812
G01 X37.1246 Y23.0609
G03 X37.0543 Y23.0856 I-0.0859 J-0.1326
G01 X36.4966 Y23.1838
G01 X36.4717 Y23.1857
G01 X36.4339 Y23.1805
G01 X35.8718 Y23.0835
G03 X35.8052 Y23.0515 I0.0340 J-0.1559
G01 X35.3890 Y22.7619
G03 X35.3414 Y22.7026 I0.0934 J-0.1236
G01 X35.0826 Y22.2379
G01 Z-0.4500 F30
G01 X35.0680 Y22.1943 F508
G01 X34.9774 Y21.5384
G01 X34.9776 Y21.5259
G01 X34.9813 Y21.4964
G01 X35.0691 Y20.8716
G01 X35.0750 Y20.8474
G01 X35.0928 Y20.8114
G01 X35.3548 Y20.3329
G03 X35.4068 Y20.2803 I0.1362 J0.0824
G01 X35.8229 Y19.9757
G03 X35.8938 Y19.9501 I0.0870 J0.1296
G01 X36.4468 Y19.8482
G01 X36.4717 Y19.8462
G01 X36.5106 Y19.8515
G01 X37.0758 Y19.9501
G03 X37.1430 Y19.9829 I-0.0334 J0.1537
G01 X37.5576 Y20.2775
G03 X37.6048 Y20.3377 I-0.0939 J0.1220
G01 X37.8608 Y20.8128
G01 X37.8704 Y20.8358
G01 X37.8773 Y20.8753
G01 X37.9642 Y21.5295
G01 X37.9602 Y21.5707
G01 X37.8739 Y22.1877
G01 X37.8680 Y22.2119
G01 X37.8498 Y22.2483
G01 X37.5919 Y22.7143
G03 X37.5386 Y22.7673 I-0.1337 J-0.0812
G01 X37.1246 Y23.0609
G03 X37.0543 Y23.0856 I-0.0859 J-0.1326
G01 X36.4966 Y23.1838
G01 X36.4717 Y23.1857
G01 X36.4339 Y23.1805
G01 X35.8718 Y23.0835
G03 X35.8052 Y23.0515 I0.0340 J-0.1559
G01 X35.3890 Y22.7619
G03 X35.3414 Y22.7026 I0.0934 J-0.1236
G01 X35.0826 Y22.2379
G01 Z-0.5000 F30
G01 X35.0680 Y22.1943 F508
G01 X34.9774 Y21.5384
G01 X34.9776 Y21.5259
G01 X34.9813 Y21.4964
G01 X35.0691 Y20.8716
G01 X35.0750 Y20.8474
G01 X35.0928 Y20.8114
G01 X35.3548 Y20.3329
G03 X35.4068 Y20.2803 I0.1362 J0.0824
G01 X35.8229 Y19.9757
G03 X35.8938 Y19.9501 I0.0870 J0.1296
G01 X36.4468 Y19.8482
G01 X36.4717 Y19.8462
G01 X36.5106 Y19.8515
G01 X37.0758 Y19.9501
G03 X37.1430 Y19.9829 I-0.0334 J0.1537
G01 X37.5576 Y20.2775
G03 X37.6048 Y20.3377 I-0.0939 J0.1220
G01 X37.8608 Y20.8128
G01 X37.8704 Y20.8358
G01 X37.8773 Y20.8753
G01 X37.9642 Y21.5295
G01 X37.9602 Y21.5707
G01 X37.8739 Y22.1877
G01 X37.8680 Y22.2119
G01 X37.8498 Y22.2483
G01 X37.5919 Y22.7143
G03 X37.5386 Y22.7673 I-0.1337 J-0.0812
G01 X37.1246 Y23.0609
G03 X37.0543 Y23.0856 I-0.0859 J-0.1326
G01 X36.4966 Y23.1838
G01 X36.4717 Y23.1857
G01 X36.4339 Y23.1805
G01 X35.8718 Y23.0835
G03 X35.8052 Y23.0515 I0.0340 J-0.1559
G01 X35.3890 Y22.7619
G03 X35.3414 Y22.7026 I0.0934 J-0.1236
G01 X35.0826 Y22.2379
G00 Z20.0000


(No. 27: Engraving 5)
G00 X30.0358 Y23.0119 Z20.0000
G00 Z0.5000
G01 Z-0.1500 F30
G01 Y21.5037 F508
G01 X30.0364 Y21.4913
G03 X30.1520 Y21.3791 I0.1244 J0.0125
G01 X31.2230 Y21.3794
G01 X31.2354 Y21.3812
G01 X31.2651 Y21.3895
G01 X31.8969 Y21.5758
G03 X31.9774 Y21.6488 I-0.0353 J0.1199
G01 X32.1955 Y22.2273
G03 X32.1964 Y22.3130 I-0.1170 J0.0441
G01 X31.9721 Y22.8732
G03 X31.8918 Y22.9466 I-0.1160 J-0.0465
G01 X31.2223 Y23.1323
G01 X31.1977 Y23.1366
G01 X30.1608 Y23.1369
G00 Z20.0000
G00 X30.0358 Y23.0119
G00 Z0.3500
G01 Z-0.3000 F30
G01 Y21.5037 F508
G01 X30.0364 Y21.4913
G03 X30.1520 Y21.3791 I0.1244 J0.0125
G01 X31.2230 Y21.3794
G01 X31.2354 Y21.3812
G01 X31.2651 Y21.3895
G01 X31.8969 Y21.5758
G03 X31.9774 Y21.6488 I-0.0353 J0.1199
G01 X32.1955 Y22.2273
G03 X32.1964 Y22.3130 I-0.1170 J0.0441
G01 X31.9721 Y22.8732
G03 X31.8918 Y22.9466 I-0.1160 J-0.0465
G01 X31.2223 Y23.1323
G01 X31.1977 Y23.1366
G01 X30.1608 Y23.1369
G00 Z20.0000
G00 X30.0358 Y23.0119
G00 Z0.2000
G01 Z-0.4500 F30
G01 Y21.5037 F508
G01 X30.0364 Y21.4913
G03 X30.1520 Y21.3791 I0.1244 J0.0125
G01 X31.2230 Y21.3794
G01 X31.2354 Y21.3812
G01 X31.2651 Y21.3895
G01 X31.8969 Y21.5758
G03 X31.9774 Y21.6488 I-0.0353 J0.1199
G01 X32.1955 Y22.2273
G03 X32.1964 Y22.3130 I-0.1170 J0.0441
G01 X31.9721 Y22.8732
G03 X31.8918 Y22.9466 I-0.1160 J-0.0465
G01 X31.2223 Y23.1323
G01 X31.1977 Y23.1366
G01 X30.1608 Y23.1369
G00 Z20.0000
G00 X30.0358 Y23.0119
G00 Z0.0500
G01 Z-0.5000 F30
G01 Y21.5037 F508
G01 X30.0364 Y21.4913
G03 X30.1520 Y21.3791 I0.1244 J0.0125
G01 X31.2230 Y21.3794
G01 X31.2354 Y21.3812
G01 X31.2651 Y21.3895
G01 X31.8969 Y21.5758
G03 X31.9774 Y21.6488 I-0.0353 J0.1199
G01 X32.1955 Y22.2273
G03 X32.1964 Y22.3130 I-0.1170 J0.0441
G01 X31.9721 Y22.8732
G03 X31.8918 Y22.9466 I-0.1160 J-0.0465
G01 X31.2223 Y23.1323
G01 X31.1977 Y23.1366
G01 X30.1608 Y23.1369
G00 Z20.0000


(No. 28: Engraving 2)
G00 X29.7677 Y19.6050 Z20.0000
G00 Z0.5000
G01 Z-0.1500 F30
G01 Y23.3019 F508
G01 X31.2430
G01 X31.7828 Y23.2306
G02 X32.4723 Y22.2768 I-0.2359 J-0.8966
G02 X31.7862 Y21.2944 I-0.9738 J-0.0507
G01 X31.2746 Y21.2192
G01 X30.1608
G03 X30.0361 Y21.1030 I0.0000 J-0.1250
G01 X30.0358 Y19.7300
G01 X29.6427
G00 Z20.0000
G00 X29.7677 Y19.6050
G00 Z0.3500
G01 Z-0.3000 F30
G01 Y23.3019 F508
G01 X31.2430
G01 X31.7828 Y23.2306
G02 X32.4723 Y22.2768 I-0.2359 J-0.8966
G02 X31.7862 Y21.2944 I-0.9738 J-0.0507
G01 X31.2746 Y21.2192
G01 X30.1608
G03 X30.0361 Y21.1030 I0.0000 J-0.1250
G01 X30.0358 Y19.7300
G01 X29.6427
G00 Z20.0000
G00 X29.7677 Y19.6050
G00 Z0.2000
G01 Z-0.4500 F30
G01 Y23.3019 F508
G01 X31.2430
G01 X31.7828 Y23.2306
G02 X32.4723 Y22.2768 I-0.2359 J-0.8966
G02 X31.7862 Y21.2944 I-0.9738 J-0.0507
G01 X31.2746 Y21.2192
G01 X30.1608
G03 X30.0361 Y21.1030 I0.0000 J-0.1250
G01 X30.0358 Y19.7300
G01 X29.6427
G00 Z20.0000
G00 X29.7677 Y19.6050
G00 Z0.0500
G01 Z-0.5000 F30
G01 Y23.3019 F508
G01 X31.2430
G01 X31.7828 Y23.2306
G02 X32.4723 Y22.2768 I-0.2359 J-0.8966
G02 X31.7862 Y21.2944 I-0.9738 J-0.0507
G01 X31.2746 Y21.2192
G01 X30.1608
G03 X30.0361 Y21.1030 I0.0000 J-0.1250
G01 X30.0358 Y19.7300
G01 X29.6427
G00 Z20.0000


(No. 29: Engraving 1)
G00 X25.6489 Y21.5158 Z20.0000
G00 Z0.5000
G01 Z-0.1500 F30
G01 X25.7418 Y20.8679 F508
G01 X25.7477 Y20.8437
G01 X25.7664 Y20.8069
G01 X26.0353 Y20.3290
G03 X26.0882 Y20.2768 I0.1346 J0.0835
G01 X26.5147 Y19.9740
G01 X26.5364 Y19.9617
G01 X26.5601 Y19.9539
G01 X27.1627 Y19.8466
G01 X27.2020 Y19.8481
G03 X28.2160 Y20.1057 I0.0261 J2.0221
G01 X28.2376 Y20.1183
G01 X28.4805 Y20.3026
G03 X28.5196 Y20.3789 I-0.0849 J0.0917
G01 X28.5206 Y21.0833
G03 X28.4044 Y21.2080 I-0.1250 J0.0000
G01 X27.3787 Y21.2083
G01 Y21.3923
G01 X28.7480
G01 Y20.2590
G01 X28.4717 Y20.0344
G01 X28.4609 Y20.0274
G01 X28.0901 Y19.8409
G01 X28.0758 Y19.8354
G01 X27.6549 Y19.7189
G01 X27.6384 Y19.7160
G01 X27.1816 Y19.6770
G01 X27.1657 Y19.6772
G02 X25.5892 Y20.5329 I-0.1293 J1.6417
G01 X25.4283 Y20.9883
G01 X25.4261 Y20.9981
G01 X25.3728 Y21.5262
G01 X25.4910 Y22.3153
G01 X25.8372 Y22.8841
G01 X26.3909 Y23.2370
G01 X27.1477 Y23.3573
G01 X27.6914 Y23.3077
G02 X28.5944 Y22.6560 I-0.1334 J-1.1363
G01 X28.3556 Y22.5851
G01 X28.3415 Y22.5900
G01 X28.2046 Y22.7891
G01 X28.1885 Y22.8081
G01 X27.9218 Y23.0112
G01 X27.9114 Y23.0182
G01 X27.8889 Y23.0290
G01 X27.5544 Y23.1450
G01 X27.5172 Y23.1497
G01 X27.1461 Y23.1851
G01 X27.1212 Y23.1850
G01 X26.5293 Y23.0839
G01 X26.5053 Y23.0772
G01 X26.4830 Y23.0659
G01 X26.0507 Y22.7629
G01 X26.0318 Y22.7466
G01 X26.0166 Y22.7269
G01 X25.7503 Y22.2386
G01 X25.7406 Y22.2156
G01 X25.7335 Y22.1758
G01 X25.6487 Y21.5504
G01 Z-0.3000 F30
G01 X25.6489 Y21.5158 F508
G01 X25.7418 Y20.8679
G01 X25.7477 Y20.8437
G01 X25.7664 Y20.8069
G01 X26.0353 Y20.3290
G03 X26.0882 Y20.2768 I0.1346 J0.0835
G01 X26.5147 Y19.9740
G01 X26.5364 Y19.9617
G01 X26.5601 Y19.9539
G01 X27.1627 Y19.8466
G01 X27.2020 Y19.8481
G03 X28.2160 Y20.1057 I0.0261 J2.0221
G01 X28.2376 Y20.1183
G01 X28.4805 Y20.3026
G03 X28.5196 Y20.3789 I-0.0849 J0.0917
G01 X28.5206 Y21.0833
G03 X28.4044 Y21.2080 I-0.1250 J0.0000
G01 X27.3787 Y21.2083
G01 Y21.3923
G01 X28.7480
G01 Y20.2590
G01 X28.4717 Y20.0344
G01 X28.4609 Y20.0274
G01 X28.0901 Y19.8409
G01 X28.0758 Y19.8354
G01 X27.6549 Y19.7189
G01 X27.6384 Y19.7160
G01 X27.1816 Y19.6770
G01 X27.1657 Y19.6772
G02 X25.5892 Y20.5329 I-0.1293 J1.6417
G01 X25.4283 Y20.9883
G01 X25.4261 Y20.9981
G01 X25.3728 Y21.5262
G01 X25.4910 Y22.3153
G01 X25.8372 Y22.8841
G01 X26.3909 Y23.2370
G01 X27.1477 Y23.3573
G01 X27.6914 Y23.3077
G02 X28.5944 Y22.6560 I-0.1334 J-1.1363
G01 X28.3556 Y22.5851
G01 X28.3415 Y22.5900
G01 X28.2046 Y22.7891
G01 X28.1885 Y22.8081
G01 X27.9218 Y23.0112
G01 X27.9114 Y23.0182
G01 X27.8889 Y23.0290
G01 X27.5544 Y23.1450
G01 X27.5172 Y23.1497
G01 X27.1461 Y23.1851
G01 X27.1212 Y23.1850
G01 X26.5293 Y23.0839
G01 X26.5053 Y23.0772
G01 X26.4830 Y23.0659
G01 X26.0507 Y22.7629
G01 X26.0318 Y22.7466
G01 X26.0166 Y22.7269
G01 X25.7503 Y22.2386
G01 X25.7406 Y22.2156
G01 X25.7335 Y22.1758
G01 X25.6487 Y21.5504
G01 Z-0.4500 F30
G01 X25.6489 Y21.5158 F508
G01 X25.7418 Y20.8679
G01 X25.7477 Y20.8437
G01 X25.7664 Y20.8069
G01 X26.0353 Y20.3290
G03 X26.0882 Y20.2768 I0.1346 J0.0835
G01 X26.5147 Y19.9740
G01 X26.5364 Y19.9617
G01 X26.5601 Y19.9539
G01 X27.1627 Y19.8466
G01 X27.2020 Y19.8481
G03 X28.2160 Y20.1057 I0.0261 J2.0221
G01 X28.2376 Y20.1183
G01 X28.4805 Y20.3026
G03 X28.5196 Y20.3789 I-0.0849 J0.0917
G01 X28.5206 Y21.0833
G03 X28.4044 Y21.2080 I-0.1250 J0.0000
G01 X27.3787 Y21.2083
G01 Y21.3923
G01 X28.7480
G01 Y20.2590
G01 X28.4717 Y20.0344
G01 X28.4609 Y20.0274
G01 X28.0901 Y19.8409
G01 X28.0758 Y19.8354
G01 X27.6549 Y19.7189
G01 X27.6384 Y19.7160
G01 X27.1816 Y19.6770
G01 X27.1657 Y19.6772
G02 X25.5892 Y20.5329 I-0.1293 J1.6417
G01 X25.4283 Y20.9883
G01 X25.4261 Y20.9981
G01 X25.3728 Y21.5262
G01 X25.4910 Y22.3153
G01 X25.8372 Y22.8841
G01 X26.3909 Y23.2370
G01 X27.1477 Y23.3573
G01 X27.6914 Y23.3077
G02 X28.5944 Y22.6560 I-0.1334 J-1.1363
G01 X28.3556 Y22.5851
G01 X28.3415 Y22.5900
G01 X28.2046 Y22.7891
G01 X28.1885 Y22.8081
G01 X27.9218 Y23.0112
G01 X27.9114 Y23.0182
G01 X27.8889 Y23.0290
G01 X27.5544 Y23.1450
G01 X27.5172 Y23.1497
G01 X27.1461 Y23.1851
G01 X27.1212 Y23.1850
G01 X26.5293 Y23.0839
G01 X26.5053 Y23.0772
G01 X26.4830 Y23.0659
G01 X26.0507 Y22.7629
G01 X26.0318 Y22.7466
G01 X26.0166 Y22.7269
G01 X25.7503 Y22.2386
G01 X25.7406 Y22.2156
G01 X25.7335 Y22.1758
G01 X25.6487 Y21.5504
G01 Z-0.5000 F30
G01 X25.6489 Y21.5158 F508
G01 X25.7418 Y20.8679
G01 X25.7477 Y20.8437
G01 X25.7664 Y20.8069
G01 X26.0353 Y20.3290
G03 X26.0882 Y20.2768 I0.1346 J0.0835
G01 X26.5147 Y19.9740
G01 X26.5364 Y19.9617
G01 X26.5601 Y19.9539
G01 X27.1627 Y19.8466
G01 X27.2020 Y19.8481
G03 X28.2160 Y20.1057 I0.0261 J2.0221
G01 X28.2376 Y20.1183
G01 X28.4805 Y20.3026
G03 X28.5196 Y20.3789 I-0.0849 J0.0917
G01 X28.5206 Y21.0833
G03 X28.4044 Y21.2080 I-0.1250 J0.0000
G01 X27.3787 Y21.2083
G01 Y21.3923
G01 X28.7480
G01 Y20.2590
G01 X28.4717 Y20.0344
G01 X28.4609 Y20.0274
G01 X28.0901 Y19.8409
G01 X28.0758 Y19.8354
G01 X27.6549 Y19.7189
G01 X27.6384 Y19.7160
G01 X27.1816 Y19.6770
G01 X27.1657 Y19.6772
G02 X25.5892 Y20.5329 I-0.1293 J1.6417
G01 X25.4283 Y20.9883
G01 X25.4261 Y20.9981
G01 X25.3728 Y21.5262
G01 X25.4910 Y22.3153
G01 X25.8372 Y22.8841
G01 X26.3909 Y23.2370
G01 X27.1477 Y23.3573
G01 X27.6914 Y23.3077
G02 X28.5944 Y22.6560 I-0.1334 J-1.1363
G01 X28.3556 Y22.5851
G01 X28.3415 Y22.5900
G01 X28.2046 Y22.7891
G01 X28.1885 Y22.8081
G01 X27.9218 Y23.0112
G01 X27.9114 Y23.0182
G01 X27.8889 Y23.0290
G01 X27.5544 Y23.1450
G01 X27.5172 Y23.1497
G01 X27.1461 Y23.1851
G01 X27.1212 Y23.1850
G01 X26.5293 Y23.0839
G01 X26.5053 Y23.0772
G01 X26.4830 Y23.0659
G01 X26.0507 Y22.7629
G01 X26.0318 Y22.7466
G01 X26.0166 Y22.7269
G01 X25.7503 Y22.2386
G01 X25.7406 Y22.2156
G01 X25.7335 Y22.1758
G01 X25.6487 Y21.5504
G00 Z20.0000
G00 X0.0000 Y0.0000

M05
M30
