( Put the face-plate into the spoil-board cut-out )
( Secure the face-plate with clamps external to the hole profiles )
( Zero is the bottom-left vertex of the spoil-board cut-out, with Z on top of the plate )
( Aluminium stock is assumed to be 1050 grade, 1.6mm thick )
( Tool is an HSS 0.1mm 15-degree engraving bit running at 10000rpm )

(Project front-plate-engraving)
(Created by Estlcam version 11 build 11.107)
(Machining time about 00:23:36 hours)

(Required tools:)
(Al - HSS Engraving Tool, 30deg)

G90
M03 S10000
G00 Z20.0000


(No. 1: Hole 5)
G00 X12.4803 Y3.8844
G00 Z0.5000
G01 Z-0.1500 F30 S10000
G01 X12.6685 F508
G01 Y4.1094
G01 X12.4803
G01 Y4.3344
G01 X12.6685
G01 Y4.5594
G01 X12.4803
G01 Y4.7844
G01 X12.6683
G01 X12.6665 Y5.0094
G01 X12.4803
G01 Y5.2344
G01 X12.6586
G01 X12.7977 Y5.4594
G01 X12.4803
G01 Y5.6844
G01 X12.7161
G01 X12.6951 Y5.9094
G01 X12.4803
G01 Y6.1344
G01 X12.6741
G01 X12.6779 Y6.3594
G01 X12.4803
G01 Y6.5844
G01 X12.6904
G01 X12.7369 Y6.8093
G01 X12.4803
G01 Y7.0343
G01 X12.8144
G01 X12.6621 Y7.2593
G01 X12.4786
G01 X12.4758 Y7.4843
G01 X12.6526
G00 Z5.0000
G00 X14.2376 Y5.2344
G00 Z0.5000
G01 Z-0.1500 F30
G01 X14.4205 F508
G01 X14.4732 Y5.4594
G01 X14.3330
G00 Z5.0000
G00 X14.4244 Y5.9094
G00 Z0.5000
G01 Z-0.1500 F30
G01 X14.5787 F508
G01 X14.6315 Y6.1344
G01 X14.4414
G01 X14.4403 Y6.3594
G01 X14.6505
G01 X14.6281 Y6.5844
G01 X14.4227
G01 X14.4007 Y6.8093
G01 X14.6057
G01 X14.5339 Y7.0343
G01 X14.3208
G01 X14.4369 Y7.2593
G01 X14.1975
G00 Z5.0000
G00 X14.1888 Y7.4843
G00 Z0.5000
G01 Z-0.1500 F30
G01 X13.8255 F508
G00 Z5.0000
G00 Z0.5000
G01 Z-0.1500 F30
G01 X13.8204 Y7.4599 F508
G01 X13.6337 Y7.4993
G01 X13.6089 Y7.5019
G01 X13.3346 Y7.4706
G01 X13.3102 Y7.4652
G01 X13.1005 Y7.3681
G03 X13.0481 Y7.3250 I0.0693 J-0.1377
G01 X12.9173 Y7.1834
G01 X12.9023 Y7.1635
G01 X12.7860 Y6.9151
G01 X12.7157 Y6.5897
G01 X12.6936 Y6.1943
G01 X12.7420 Y5.6741
G01 X12.7450 Y5.6619
G01 X12.7558 Y5.6334
G01 X12.8868 Y5.3021
G03 X13.6480 Y4.9559 I0.6511 J0.4217
G01 X13.9428 Y5.0185
G03 X13.9982 Y5.0460 I-0.0260 J0.1223
G01 X14.2178 Y5.2496
G03 X14.2574 Y5.3188 I-0.1047 J0.1058
G01 X14.3759 Y5.6576
G01 X14.3817 Y5.6819
G01 X14.3841 Y5.7092
G01 X14.4246 Y6.2405
G01 X14.3828 Y6.7731
G01 X14.3784 Y6.7976
G01 X14.2472 Y7.1671
G03 X14.2041 Y7.2194 I-0.1377 J-0.0697
G01 X14.0045 Y7.4031
G03 X13.8204 Y7.4599 I-0.1887 J-0.2850
G01 X13.8255 Y7.4843
G00 Z5.0000
G00 X13.8486 Y7.4844
G00 Z0.5000
G01 Z-0.1500 F30
G01 Y7.6045 F508
G01 X14.1439 Y7.5479
G01 X14.1592 Y7.5408
G01 X14.4340 Y7.3185
G01 X14.4447 Y7.3043
G01 X14.6227 Y6.8910
G01 X14.6859 Y6.2569
G01 X14.4344 Y5.1843
G01 X13.7181 Y4.8447
G01 X13.2319 Y4.9542
G01 X12.9110 Y5.3103
G03 X12.6828 Y5.2277 I-0.0957 J-0.0921
G01 X12.6908 Y5.0926
G01 X12.6935 Y4.7616
G01 Y3.7397
G01 X12.4553
G01 Y7.1044
G01 X12.4510 Y7.4862
G01 X12.4465 Y7.5695
G01 X12.4540 Y7.5774
G01 X12.6721 Y7.5766
G01 X12.6815 Y7.4143
G01 X12.6884 Y7.2216
G03 X12.9291 Y7.1628 I0.1311 J0.0144
G02 X13.8486 Y7.6045 I0.7283 J-0.3383
G01 Y7.4844
G00 Z5.0000
G00 X12.6685 Y3.8844
G00 Z0.3500
G01 Z-0.2500 F30
G01 X12.4803 F508
G01 Y4.1094
G01 X12.6685
G01 Y4.3344
G01 X12.4803
G01 Y4.5594
G01 X12.6685
G01 X12.6683 Y4.7844
G01 X12.4803
G01 Y5.0094
G01 X12.6665
G01 X12.6586 Y5.2344
G01 X12.4803
G01 Y5.4594
G01 X12.7977
G01 X12.7161 Y5.6844
G01 X12.4803
G01 Y5.9094
G01 X12.6951
G01 X12.6741 Y6.1344
G01 X12.4803
G01 Y6.3594
G01 X12.6779
G01 X12.6904 Y6.5844
G01 X12.4803
G01 Y6.8093
G01 X12.7369
G01 X12.8144 Y7.0343
G01 X12.4803
G01 X12.4786 Y7.2593
G01 X12.6621
G01 X12.6526 Y7.4843
G01 X12.4758
G00 Z5.0000
G00 X14.2376 Y5.2344
G00 Z0.3500
G01 Z-0.2500 F30
G01 X14.4205 F508
G01 X14.4732 Y5.4594
G01 X14.3330
G00 Z5.0000
G00 X14.4244 Y5.9094
G00 Z0.3500
G01 Z-0.2500 F30
G01 X14.5787 F508
G01 X14.6315 Y6.1344
G01 X14.4414
G01 X14.4403 Y6.3594
G01 X14.6505
G01 X14.6281 Y6.5844
G01 X14.4227
G01 X14.4007 Y6.8093
G01 X14.6057
G01 X14.5339 Y7.0343
G01 X14.3208
G01 X14.4369 Y7.2593
G01 X14.1975
G00 Z5.0000
G00 X14.1888 Y7.4843
G00 Z0.3500
G01 Z-0.2500 F30
G01 X13.8255 F508
G00 Z5.0000
G00 Z0.3500
G01 Z-0.2500 F30
G01 X13.8204 Y7.4599 F508
G01 X13.6337 Y7.4993
G01 X13.6089 Y7.5019
G01 X13.3346 Y7.4706
G01 X13.3102 Y7.4652
G01 X13.1005 Y7.3681
G03 X13.0481 Y7.3250 I0.0693 J-0.1377
G01 X12.9173 Y7.1834
G01 X12.9023 Y7.1635
G01 X12.7860 Y6.9151
G01 X12.7157 Y6.5897
G01 X12.6936 Y6.1943
G01 X12.7420 Y5.6741
G01 X12.7450 Y5.6619
G01 X12.7558 Y5.6334
G01 X12.8868 Y5.3021
G03 X13.6480 Y4.9559 I0.6511 J0.4217
G01 X13.9428 Y5.0185
G03 X13.9982 Y5.0460 I-0.0260 J0.1223
G01 X14.2178 Y5.2496
G03 X14.2574 Y5.3188 I-0.1047 J0.1058
G01 X14.3759 Y5.6576
G01 X14.3817 Y5.6819
G01 X14.3841 Y5.7092
G01 X14.4246 Y6.2405
G01 X14.3828 Y6.7731
G01 X14.3784 Y6.7976
G01 X14.2472 Y7.1671
G03 X14.2041 Y7.2194 I-0.1377 J-0.0697
G01 X14.0045 Y7.4031
G03 X13.8204 Y7.4599 I-0.1887 J-0.2850
G01 X13.8255 Y7.4843
G00 Z5.0000
G00 X13.8486 Y7.4844
G00 Z0.3500
G01 Z-0.2500 F30
G01 Y7.6045 F508
G01 X14.1439 Y7.5479
G01 X14.1592 Y7.5408
G01 X14.4340 Y7.3185
G01 X14.4447 Y7.3043
G01 X14.6227 Y6.8910
G01 X14.6859 Y6.2569
G01 X14.4344 Y5.1843
G01 X13.7181 Y4.8447
G01 X13.2319 Y4.9542
G01 X12.9110 Y5.3103
G03 X12.6828 Y5.2277 I-0.0957 J-0.0921
G01 X12.6908 Y5.0926
G01 X12.6935 Y4.7616
G01 Y3.7397
G01 X12.4553
G01 Y7.1044
G01 X12.4510 Y7.4862
G01 X12.4465 Y7.5695
G01 X12.4540 Y7.5774
G01 X12.6721 Y7.5766
G01 X12.6815 Y7.4143
G01 X12.6884 Y7.2216
G03 X12.9291 Y7.1628 I0.1311 J0.0144
G02 X13.8486 Y7.6045 I0.7283 J-0.3383
G01 Y7.4844
G00 Z5.0000


(No. 2: Hole 6)
G00 X16.4255 Y4.8850 Z20.0000
G00 Z0.5000
G01 Z-0.1500 F30
G01 X16.6200 F508
G00 Z5.0000
G00 X15.9950 Y5.1100
G00 Z0.5000
G01 Z-0.1500 F30
G01 X15.8015 F508
G00 Z5.0000
G00 X17.1653
G00 Z0.5000
G01 Z-0.1500 F30
G01 X17.2965 F508
G00 Z5.0000
G00 X15.7738 Y5.3350
G00 Z0.5000
G01 Z-0.1500 F30
G01 X15.5956 F508
G01 X15.6673 Y5.5600
G01 X15.4765
G01 X15.4200 Y5.7850
G01 X15.6114
G01 X15.5851 Y6.0100
G01 X15.3915
G01 X15.3630 Y6.2350
G01 X15.6131
G01 X15.5855 Y6.4600
G01 X15.3879
G01 X15.4177 Y6.6850
G01 X15.6061
G01 X15.6460 Y6.9100
G01 X15.4727
G01 X15.5955 Y7.1350
G01 X15.7654
G00 Z5.0000
G00 X17.4535 Y6.4600
G00 Z0.5000
G01 Z-0.1500 F30
G01 X17.5869 F508
G00 Z5.0000
G00 X17.4009 Y7.1350
G00 Z0.5000
G01 Z-0.1500 F30
G01 X17.2753 F508
G00 Z5.0000
G00 X15.9729 Y7.3600
G00 Z0.5000
G01 Z-0.1500 F30
G01 X15.7978 F508
G00 Z5.0000
G00 X16.4100 Y7.5850
G00 Z0.5000
G01 Z-0.1500 F30
G01 X16.5471 F508
G00 Z5.0000
G00 X16.5362
G00 Z0.5000
G01 Z-0.1500 F30
G01 Y7.5189 F508
G01 X16.5094 Y7.5208
G01 X16.4714 Y7.5151
G01 X16.1727 Y7.4595
G03 X16.1059 Y7.4259 I0.0352 J-0.1533
G01 X15.8775 Y7.2596
G01 X15.8589 Y7.2430
G01 X15.8440 Y7.2230
G01 X15.6827 Y6.9385
G01 X15.6726 Y6.9156
G01 X15.6648 Y6.8784
G01 X15.6042 Y6.5275
G01 X15.6025 Y6.5026
G03 X15.7222 Y6.3813 I0.1249 J0.0036
G01 X17.3114 Y6.3812
G03 X17.4354 Y6.5223 I0.0000 J0.1250
G01 X17.3517 Y6.9437
G01 X17.3421 Y6.9667
G01 X17.1842 Y7.2447
G03 X17.1285 Y7.2980 I-0.1302 J-0.0804
G01 X16.9070 Y7.4465
G03 X16.8380 Y7.4693 I-0.0841 J-0.1390
G01 X16.5362 Y7.5189
G01 Y7.5850
G00 Z5.0000
G00 X16.5470
G00 Z0.5000
G01 Z-0.1500 F30
G01 Y7.6119 F508
G01 X17.3885 Y7.2738
G01 X17.6689 Y6.2601
G01 X17.6560 Y6.2569
G01 X15.7419
G03 X15.5973 Y6.1424 I-0.0180 J-0.1258
G01 X15.5977 Y6.1174
G01 X15.6503 Y5.6674
G01 X15.6527 Y5.6551
G01 X15.6611 Y5.6316
G01 X15.8209 Y5.2939
G01 X15.8349 Y5.2732
G01 X15.8527 Y5.2558
G01 X16.0941 Y5.0628
G03 X16.1519 Y5.0282 I0.1014 J0.1038
G01 X16.5176 Y4.9567
G01 X16.5425 Y4.9544
G01 X16.5549 Y4.9552
G01 X16.8525 Y4.9889
G01 X16.8763 Y4.9964
G01 X17.1022 Y5.0935
G01 X17.1132 Y5.0993
G01 X17.1334 Y5.1140
G01 X17.3053 Y5.2703
G01 X17.3195 Y5.2909
G01 X17.3707 Y5.3821
G01 X17.5135 Y5.3332
G01 X17.2375 Y4.9994
G01 X16.5376 Y4.8407
G01 X16.0162 Y4.9289
G01 X15.6414 Y5.1950
G01 X15.4155 Y5.6216
G01 X15.3358 Y6.2574
G01 X15.4153 Y6.8570
G01 X15.6457 Y7.2835
G01 X16.0120 Y7.5413
G01 X16.5126 Y7.6258
G01 X16.5470 Y7.6119
G01 Y7.5850
G00 Z5.0000
G00 X16.6200 Y4.8850
G00 Z0.3500
G01 Z-0.2500 F30
G01 X16.4255 F508
G00 Z5.0000
G00 X15.9950 Y5.1100
G00 Z0.3500
G01 Z-0.2500 F30
G01 X15.8015 F508
G00 Z5.0000
G00 X17.1653
G00 Z0.3500
G01 Z-0.2500 F30
G01 X17.2965 F508
G00 Z5.0000
G00 X15.7738 Y5.3350
G00 Z0.3500
G01 Z-0.2500 F30
G01 X15.5956 F508
G01 X15.6673 Y5.5600
G01 X15.4765
G01 X15.4200 Y5.7850
G01 X15.6114
G01 X15.5851 Y6.0100
G01 X15.3915
G01 X15.3630 Y6.2350
G01 X15.6131
G01 X15.5855 Y6.4600
G01 X15.3879
G01 X15.4177 Y6.6850
G01 X15.6061
G01 X15.6460 Y6.9100
G01 X15.4727
G01 X15.5955 Y7.1350
G01 X15.7654
G00 Z5.0000
G00 X17.4535 Y6.4600
G00 Z0.3500
G01 Z-0.2500 F30
G01 X17.5869 F508
G00 Z5.0000
G00 X17.4009 Y7.1350
G00 Z0.3500
G01 Z-0.2500 F30
G01 X17.2753 F508
G00 Z5.0000
G00 X15.9729 Y7.3600
G00 Z0.3500
G01 Z-0.2500 F30
G01 X15.7978 F508
G00 Z5.0000
G00 X16.4100 Y7.5850
G00 Z0.3500
G01 Z-0.2500 F30
G01 X16.5471 F508
G00 Z5.0000
G00 X16.5362
G00 Z0.3500
G01 Z-0.2500 F30
G01 Y7.5189 F508
G01 X16.5094 Y7.5208
G01 X16.4714 Y7.5151
G01 X16.1727 Y7.4595
G03 X16.1059 Y7.4259 I0.0352 J-0.1533
G01 X15.8775 Y7.2596
G01 X15.8589 Y7.2430
G01 X15.8440 Y7.2230
G01 X15.6827 Y6.9385
G01 X15.6726 Y6.9156
G01 X15.6648 Y6.8784
G01 X15.6042 Y6.5275
G01 X15.6025 Y6.5026
G03 X15.7222 Y6.3813 I0.1249 J0.0036
G01 X17.3114 Y6.3812
G03 X17.4354 Y6.5223 I0.0000 J0.1250
G01 X17.3517 Y6.9437
G01 X17.3421 Y6.9667
G01 X17.1842 Y7.2447
G03 X17.1285 Y7.2980 I-0.1302 J-0.0804
G01 X16.9070 Y7.4465
G03 X16.8380 Y7.4693 I-0.0841 J-0.1390
G01 X16.5362 Y7.5189
G01 Y7.5850
G00 Z5.0000
G00 X16.5470
G00 Z0.3500
G01 Z-0.2500 F30
G01 Y7.6119 F508
G01 X17.3885 Y7.2738
G01 X17.6689 Y6.2601
G01 X17.6560 Y6.2569
G01 X15.7419
G03 X15.5973 Y6.1424 I-0.0180 J-0.1258
G01 X15.5977 Y6.1174
G01 X15.6503 Y5.6674
G01 X15.6527 Y5.6551
G01 X15.6611 Y5.6316
G01 X15.8209 Y5.2939
G01 X15.8349 Y5.2732
G01 X15.8527 Y5.2558
G01 X16.0941 Y5.0628
G03 X16.1519 Y5.0282 I0.1014 J0.1038
G01 X16.5176 Y4.9567
G01 X16.5425 Y4.9544
G01 X16.5549 Y4.9552
G01 X16.8525 Y4.9889
G01 X16.8763 Y4.9964
G01 X17.1022 Y5.0935
G01 X17.1132 Y5.0993
G01 X17.1334 Y5.1140
G01 X17.3053 Y5.2703
G01 X17.3195 Y5.2909
G01 X17.3707 Y5.3821
G01 X17.5135 Y5.3332
G01 X17.2375 Y4.9994
G01 X16.5376 Y4.8407
G01 X16.0162 Y4.9289
G01 X15.6414 Y5.1950
G01 X15.4155 Y5.6216
G01 X15.3358 Y6.2574
G01 X15.4153 Y6.8570
G01 X15.6457 Y7.2835
G01 X16.0120 Y7.5413
G01 X16.5126 Y7.6258
G01 X16.5470 Y7.6119
G01 Y7.5850
G00 Z5.0000


(No. 3: Hole 7)
G00 X18.7909 Y4.9665 Z20.0000
G00 Z0.5000
G01 Z-0.1500 F30
G01 X19.1706 F508
G01 X18.8099
G01 Y5.1915
G01 X18.6281
G01 X18.5638 Y5.4165
G01 X18.7592
G01 X18.7520 Y5.6415
G01 X18.5638
G01 Y5.8665
G01 X18.7520
G01 Y6.0915
G01 X18.5638
G01 Y6.3165
G01 X18.7520
G01 Y6.5415
G01 X18.5638
G01 Y6.7665
G01 X18.7520
G01 Y6.9915
G01 X18.5638
G01 Y7.2165
G01 X18.7520
G01 X18.7857 Y7.4415
G01 X18.5302
G01 X18.5780 Y7.6665
G01 X18.7567
G00 Z5.0000
G00 Z0.5000
G01 Z-0.1500 F30
G01 X18.7810 Y7.6732 F508
G03 X18.8895 Y7.5781 I0.1204 J0.0278
G01 X19.3195 Y7.5774
G01 Y7.4721
G01 X18.9220
G01 X18.8808 Y7.4703
G03 X18.7770 Y7.3471 I0.0212 J-0.1232
G01 Y5.5145
G01 X18.7776 Y5.4825
G01 X18.7972 Y5.2874
G01 X18.8050 Y5.2637
G01 X18.8601 Y5.1402
G03 X18.9011 Y5.0939 I0.1111 J0.0572
G01 X19.0009 Y5.0265
G01 X19.0119 Y5.0206
G01 X19.0354 Y5.0121
G01 X19.2086 Y4.9870
G01 X19.3206 Y4.9953
G01 X19.3683 Y5.0012
G01 Y4.8917
G02 X18.6626 Y4.9852 I-0.2627 J0.7270
G01 X18.5388 Y5.4087
G01 Y7.3271
G01 X18.5370 Y7.3684
G03 X18.4138 Y7.4721 I-0.1232 J-0.0212
G01 X18.1997
G01 Y7.5774
G01 X18.4127
G03 X18.5548 Y7.6757 I0.0177 J0.1263
G01 X18.6771 Y8.2339
G01 X18.7770
G01 X18.7773 Y7.6936
G01 X18.7788 Y7.6812
G01 X18.7567 Y7.6665
G00 Z5.0000
G00 X18.7909 Y4.9665
G00 Z0.3500
G01 Z-0.2500 F30
G01 X19.1706 F508
G01 X18.8099
G01 Y5.1915
G01 X18.6281
G01 X18.5638 Y5.4165
G01 X18.7592
G01 X18.7520 Y5.6415
G01 X18.5638
G01 Y5.8665
G01 X18.7520
G01 Y6.0915
G01 X18.5638
G01 Y6.3165
G01 X18.7520
G01 Y6.5415
G01 X18.5638
G01 Y6.7665
G01 X18.7520
G01 Y6.9915
G01 X18.5638
G01 Y7.2165
G01 X18.7520
G01 X18.7857 Y7.4415
G01 X18.5302
G01 X18.5780 Y7.6665
G01 X18.7567
G00 Z5.0000
G00 Z0.3500
G01 Z-0.2500 F30
G01 X18.7810 Y7.6732 F508
G03 X18.8895 Y7.5781 I0.1204 J0.0278
G01 X19.3195 Y7.5774
G01 Y7.4721
G01 X18.9220
G01 X18.8808 Y7.4703
G03 X18.7770 Y7.3471 I0.0212 J-0.1232
G01 Y5.5145
G01 X18.7776 Y5.4825
G01 X18.7972 Y5.2874
G01 X18.8050 Y5.2637
G01 X18.8601 Y5.1402
G03 X18.9011 Y5.0939 I0.1111 J0.0572
G01 X19.0009 Y5.0265
G01 X19.0119 Y5.0206
G01 X19.0354 Y5.0121
G01 X19.2086 Y4.9870
G01 X19.3206 Y4.9953
G01 X19.3683 Y5.0012
G01 Y4.8917
G02 X18.6626 Y4.9852 I-0.2627 J0.7270
G01 X18.5388 Y5.4087
G01 Y7.3271
G01 X18.5370 Y7.3684
G03 X18.4138 Y7.4721 I-0.1232 J-0.0212
G01 X18.1997
G01 Y7.5774
G01 X18.4127
G03 X18.5548 Y7.6757 I0.0177 J0.1263
G01 X18.6771 Y8.2339
G01 X18.7770
G01 X18.7773 Y7.6936
G01 X18.7788 Y7.6812
G01 X18.7567 Y7.6665
G00 Z5.0000


(No. 4: Hole 8)
G00 X20.9502 Y4.8850 Z20.0000
G00 Z0.5000
G01 Z-0.1500 F30
G01 X21.1447 F508
G00 Z5.0000
G00 X20.5196 Y5.1100
G00 Z0.5000
G01 Z-0.1500 F30
G01 X20.3261 F508
G00 Z5.0000
G00 X21.6899
G00 Z0.5000
G01 Z-0.1500 F30
G01 X21.8212 F508
G00 Z5.0000
G00 X20.2984 Y5.3350
G00 Z0.5000
G01 Z-0.1500 F30
G01 X20.1202 F508
G01 X20.1920 Y5.5600
G01 X20.0011
G01 X19.9446 Y5.7850
G01 X20.1361
G01 X20.1098 Y6.0100
G01 X19.9161
G01 X19.8876 Y6.2350
G01 X20.1378
G01 X20.1095 Y6.4600
G01 X19.9125
G01 X19.9423 Y6.6850
G01 X20.1307
G01 X20.1707 Y6.9100
G01 X19.9973
G01 X20.1201 Y7.1350
G01 X20.2901
G00 Z5.0000
G00 X21.9781 Y6.4600
G00 Z0.5000
G01 Z-0.1500 F30
G01 X22.1116 F508
G00 Z5.0000
G00 X21.9255 Y7.1350
G00 Z0.5000
G01 Z-0.1500 F30
G01 X21.7999 F508
G00 Z5.0000
G00 X20.4976 Y7.3600
G00 Z0.5000
G01 Z-0.1500 F30
G01 X20.3224 F508
G00 Z5.0000
G00 X20.9347 Y7.5850
G00 Z0.5000
G01 Z-0.1500 F30
G01 X21.0718 F508
G00 Z5.0000
G00 X21.0609
G00 Z0.5000
G01 Z-0.1500 F30
G01 Y7.5189 F508
G01 X21.0341 Y7.5208
G01 X20.9961 Y7.5151
G01 X20.6974 Y7.4595
G03 X20.6306 Y7.4259 I0.0352 J-0.1533
G01 X20.4022 Y7.2596
G01 X20.3836 Y7.2430
G01 X20.3687 Y7.2230
G01 X20.2074 Y6.9385
G01 X20.1973 Y6.9156
G01 X20.1895 Y6.8784
G01 X20.1288 Y6.5275
G01 X20.1271 Y6.5027
G03 X20.2467 Y6.3814 I0.1249 J0.0036
G01 X21.8361 Y6.3812
G03 X21.9600 Y6.5223 I0.0000 J0.1250
G01 X21.8764 Y6.9437
G01 X21.8667 Y6.9668
G01 X21.7088 Y7.2448
G03 X21.6531 Y7.2979 I-0.1302 J-0.0805
G01 X21.4317 Y7.4465
G03 X21.3627 Y7.4693 I-0.0841 J-0.1390
G01 X21.0609 Y7.5189
G01 Y7.5850
G00 Z5.0000
G00 X21.0717
G00 Z0.5000
G01 Z-0.1500 F30
G01 Y7.6119 F508
G01 X21.9132 Y7.2738
G01 X22.1935 Y6.2601
G01 X22.1807 Y6.2569
G01 X20.2666
G03 X20.1220 Y6.1424 I-0.0180 J-0.1258
G01 X20.1224 Y6.1174
G01 X20.1750 Y5.6674
G01 X20.1774 Y5.6552
G01 X20.1858 Y5.6317
G01 X20.3455 Y5.2939
G01 X20.3595 Y5.2732
G01 X20.3773 Y5.2558
G01 X20.6187 Y5.0628
G03 X20.6765 Y5.0282 I0.1014 J0.1038
G01 X21.0423 Y4.9567
G01 X21.0672 Y4.9544
G01 X21.0797 Y4.9552
G01 X21.3771 Y4.9889
G01 X21.4009 Y4.9964
G01 X21.6268 Y5.0935
G01 X21.6378 Y5.0993
G01 X21.6580 Y5.1140
G01 X21.8299 Y5.2703
G01 X21.8441 Y5.2908
G01 X21.8954 Y5.3821
G01 X22.0382 Y5.3332
G01 X21.7622 Y4.9994
G01 X21.0623 Y4.8407
G01 X20.5408 Y4.9289
G01 X20.1660 Y5.1950
G01 X19.9401 Y5.6216
G01 X19.8604 Y6.2574
G01 X19.9399 Y6.8570
G01 X20.1703 Y7.2835
G01 X20.5367 Y7.5413
G01 X21.0373 Y7.6258
G01 X21.0717 Y7.6119
G01 Y7.5850
G00 Z5.0000
G00 X21.1447 Y4.8850
G00 Z0.3500
G01 Z-0.2500 F30
G01 X20.9502 F508
G00 Z5.0000
G00 X20.5196 Y5.1100
G00 Z0.3500
G01 Z-0.2500 F30
G01 X20.3261 F508
G00 Z5.0000
G00 X21.6899
G00 Z0.3500
G01 Z-0.2500 F30
G01 X21.8212 F508
G00 Z5.0000
G00 X20.2984 Y5.3350
G00 Z0.3500
G01 Z-0.2500 F30
G01 X20.1202 F508
G01 X20.1920 Y5.5600
G01 X20.0011
G01 X19.9446 Y5.7850
G01 X20.1361
G01 X20.1098 Y6.0100
G01 X19.9161
G01 X19.8876 Y6.2350
G01 X20.1378
G01 X20.1095 Y6.4600
G01 X19.9125
G01 X19.9423 Y6.6850
G01 X20.1307
G01 X20.1707 Y6.9100
G01 X19.9973
G01 X20.1201 Y7.1350
G01 X20.2901
G00 Z5.0000
G00 X21.9781 Y6.4600
G00 Z0.3500
G01 Z-0.2500 F30
G01 X22.1116 F508
G00 Z5.0000
G00 X21.9255 Y7.1350
G00 Z0.3500
G01 Z-0.2500 F30
G01 X21.7999 F508
G00 Z5.0000
G00 X20.4976 Y7.3600
G00 Z0.3500
G01 Z-0.2500 F30
G01 X20.3224 F508
G00 Z5.0000
G00 X20.9347 Y7.5850
G00 Z0.3500
G01 Z-0.2500 F30
G01 X21.0718 F508
G00 Z5.0000
G00 X21.0609
G00 Z0.3500
G01 Z-0.2500 F30
G01 Y7.5189 F508
G01 X21.0341 Y7.5208
G01 X20.9961 Y7.5151
G01 X20.6974 Y7.4595
G03 X20.6306 Y7.4259 I0.0352 J-0.1533
G01 X20.4022 Y7.2596
G01 X20.3836 Y7.2430
G01 X20.3687 Y7.2230
G01 X20.2074 Y6.9385
G01 X20.1973 Y6.9156
G01 X20.1895 Y6.8784
G01 X20.1288 Y6.5275
G01 X20.1271 Y6.5027
G03 X20.2467 Y6.3814 I0.1249 J0.0036
G01 X21.8361 Y6.3812
G03 X21.9600 Y6.5223 I0.0000 J0.1250
G01 X21.8764 Y6.9437
G01 X21.8667 Y6.9668
G01 X21.7088 Y7.2448
G03 X21.6531 Y7.2979 I-0.1302 J-0.0805
G01 X21.4317 Y7.4465
G03 X21.3627 Y7.4693 I-0.0841 J-0.1390
G01 X21.0609 Y7.5189
G01 Y7.5850
G00 Z5.0000
G00 X21.0717
G00 Z0.3500
G01 Z-0.2500 F30
G01 Y7.6119 F508
G01 X21.9132 Y7.2738
G01 X22.1935 Y6.2601
G01 X22.1807 Y6.2569
G01 X20.2666
G03 X20.1220 Y6.1424 I-0.0180 J-0.1258
G01 X20.1224 Y6.1174
G01 X20.1750 Y5.6674
G01 X20.1774 Y5.6552
G01 X20.1858 Y5.6317
G01 X20.3455 Y5.2939
G01 X20.3595 Y5.2732
G01 X20.3773 Y5.2558
G01 X20.6187 Y5.0628
G03 X20.6765 Y5.0282 I0.1014 J0.1038
G01 X21.0423 Y4.9567
G01 X21.0672 Y4.9544
G01 X21.0797 Y4.9552
G01 X21.3771 Y4.9889
G01 X21.4009 Y4.9964
G01 X21.6268 Y5.0935
G01 X21.6378 Y5.0993
G01 X21.6580 Y5.1140
G01 X21.8299 Y5.2703
G01 X21.8441 Y5.2908
G01 X21.8954 Y5.3821
G01 X22.0382 Y5.3332
G01 X21.7622 Y4.9994
G01 X21.0623 Y4.8407
G01 X20.5408 Y4.9289
G01 X20.1660 Y5.1950
G01 X19.9401 Y5.6216
G01 X19.8604 Y6.2574
G01 X19.9399 Y6.8570
G01 X20.1703 Y7.2835
G01 X20.5367 Y7.5413
G01 X21.0373 Y7.6258
G01 X21.0717 Y7.6119
G01 Y7.5850
G00 Z5.0000


(No. 5: Hole 9)
G00 X24.3959 Y4.2589 Z20.0000
G00 Z0.5000
G01 Z-0.1500 F30
G01 X24.5510 F508
G00 Z5.0000
G00 X25.7024
G00 Z0.5000
G01 Z-0.1500 F30
G01 X25.9478 F508
G00 Z5.0000
G00 X24.5701 Y5.3839
G00 Z0.5000
G01 Z-0.1500 F30
G01 X24.3923 F508
G00 Z5.0000
G00 X26.0778
G00 Z0.5000
G01 Z-0.1500 F30
G01 X26.2089 F508
G00 Z5.0000
G00 X24.3867 Y5.6089
G00 Z0.5000
G01 Z-0.1500 F30
G01 X24.2367 F508
G01 X24.1691 Y5.8339
G01 X24.3089
G01 X24.2845 Y6.0589
G01 X24.1393
G01 X24.1532 Y6.2839
G01 X24.2968
G01 X24.3247 Y6.5089
G01 X24.1797
G01 X24.2542 Y6.7339
G01 X24.3896
G01 X24.3565 Y6.9589
G01 X24.4889
G00 Z5.0000
G00 X26.0022 Y5.8339
G00 Z0.5000
G01 Z-0.1500 F30
G01 X26.1576 F508
G01 X26.1890 Y6.0589
G01 X25.9962
G01 X26.0832 Y6.2839
G01 X26.2316
G01 X26.2805 Y6.5089
G01 X26.1437
G01 X26.1758 Y6.7339
G01 X26.3320
G01 X26.3836 Y6.9589
G01 X26.1533
G01 X26.3062 Y7.1839
G01 X26.4352
G00 Z5.0000
G00 X24.6338
G00 Z0.5000
G01 Z-0.1500 F30
G01 X24.5007 F508
G00 Z5.0000
G00 X24.7422 Y7.4089
G00 Z0.5000
G01 Z-0.1500 F30
G01 X24.8860 F508
G00 Z5.0000
G00 X24.8364 Y8.5339
G00 Z0.5000
G01 Z-0.1500 F30
G01 X24.9938 F508
G00 Z5.0000
G00 X26.1407
G00 Z0.5000
G01 Z-0.1500 F30
G01 X26.2870 F508
G00 Z5.0000
G00 X26.3062 Y7.1839
G00 Z0.5000
G01 Z-0.1500 F30
G01 X25.7077 Y7.4739 F508
G01 X25.6852 Y7.4847
G01 X25.6733 Y7.4883
G01 X25.3937 Y7.5330
G01 X25.3688 Y7.5344
G01 X25.0950 Y7.4897
G01 X25.0709 Y7.4832
G01 X25.0365 Y7.4653
G01 X24.8257 Y7.3460
G01 X24.8054 Y7.3316
G01 X24.6054 Y7.1167
G01 X24.5903 Y7.0968
G01 X24.4367 Y6.8073
G01 X24.3378 Y6.4646
G01 X24.3053 Y6.0980
G01 X24.3383 Y5.7953
G01 X24.3402 Y5.7830
G01 X24.3479 Y5.7592
G01 X24.4447 Y5.5391
G01 X24.4570 Y5.5173
G01 X24.4733 Y5.4985
G01 X24.6422 Y5.3556
G03 X24.6979 Y5.3286 I0.0807 J0.0955
G01 X24.9323 Y5.2823
G01 X24.9571 Y5.2800
G01 X24.9696 Y5.2806
G01 X25.3081 Y5.3541
G01 X25.3318 Y5.3618
G01 X25.3535 Y5.3741
G01 X25.6507 Y5.5884
G01 X25.6694 Y5.6049
G01 X25.9235 Y5.9455
G01 X25.9401 Y5.9832
G03 X26.1551 Y6.7824 I-1.7115 J0.8890
G01 X26.1549 Y6.8073
G01 X26.1089 Y7.0657
G01 X26.1021 Y7.0897
G01 X26.0906 Y7.1119
G01 X25.9548 Y7.3105
G01 X25.9387 Y7.3296
G01 X25.9192 Y7.3451
G01 X25.7077 Y7.4739
G01 X26.3062 Y7.1839
G00 Z5.0000
G00 Z0.5000
G01 Z-0.1500 F30
G01 X26.2842 Y7.1970 F508
G01 X26.2903 Y7.2072
G01 X26.2986 Y7.2307
G01 X26.3829 Y7.5693
G01 X26.5484 Y7.5663
G01 X26.2686 Y6.3452
G01 X26.1916 Y5.9385
G01 X26.1661 Y5.6380
G01 X26.1681 Y5.6132
G01 X26.2309 Y5.3954
G03 X26.7932 Y5.3265 I0.3213 J0.2933
G01 X26.9851 Y5.4672
G01 X27.0036 Y5.4839
G01 X27.1634 Y5.6999
G01 X27.1775 Y5.7192
G01 X27.1896 Y5.7411
G03 X27.4288 Y6.7814 I-2.0264 J1.0137
G01 X27.4305 Y6.8117
G01 X27.4297 Y6.8242
G01 X27.3798 Y7.2624
G01 X27.3738 Y7.3015
G01 X27.2204 Y7.6979
G01 X27.2090 Y7.7261
G01 X27.2029 Y7.7370
G01 X26.9408 Y8.0797
G01 X26.9237 Y8.0979
G01 X26.5830 Y8.3395
G01 X26.5479 Y8.3620
G01 X26.1287 Y8.5116
G01 X26.0930 Y8.5230
G01 X25.5729 Y8.5761
G01 X24.9618 Y8.5050
G01 X24.9218 Y8.4986
G01 X24.3860 Y8.2843
G01 X24.3578 Y8.2725
G01 X24.3367 Y8.2591
G01 X23.9021 Y7.9171
G01 X23.8781 Y7.8976
G01 X23.8617 Y7.8788
G01 X23.5315 Y7.4126
G01 X23.5097 Y7.3791
G01 X23.2961 Y6.8069
G01 X23.2841 Y6.7708
G01 X23.2094 Y6.0984
G01 X23.2612 Y5.6131
G01 X23.2667 Y5.5752
G01 X23.4232 Y5.1510
G01 X23.4339 Y5.1231
G01 X23.4398 Y5.1120
G01 X23.7153 Y4.7380
G01 X23.7338 Y4.7213
G01 X24.0730 Y4.4724
G01 X24.0975 Y4.4550
G01 X24.1084 Y4.4490
G01 X24.5618 Y4.2815
G01 X24.5862 Y4.2764
G03 X25.9041 Y4.3223 I0.5550 J3.0115
G01 X25.9395 Y4.3301
G01 X26.3541 Y4.4664
G01 X26.6808 Y4.6207
G01 X26.7212 Y4.5384
G02 X24.5145 Y4.1889 I-1.5737 J2.7949
G02 X23.1388 Y5.5453 I0.3282 J1.7086
G01 X23.0784 Y6.0932
G01 Y6.1048
G01 X23.1602 Y6.7979
G02 X25.5769 Y8.6665 I2.3640 J-0.5604
G02 X27.0300 Y8.1591 I0.1283 J-1.9672
G02 X27.5480 Y6.8213 I-1.3348 J-1.2860
G01 X27.5482 Y6.8056
G01 X27.5124 Y6.3650
G01 X27.5095 Y6.3483
G01 X27.4030 Y5.9546
G01 X27.3982 Y5.9422
G02 X26.4576 Y5.1762 I-0.9991 J0.2663
G02 X26.0551 Y5.3686 I-0.0786 J0.3526
G01 X26.0270 Y5.5289
G01 X26.0262 Y5.5417
G01 X26.0335 Y5.7132
G03 X25.7893 Y5.7876 I-0.1344 J-0.0031
G02 X24.5506 Y5.2366 I-0.9070 J0.3711
G01 X24.3143 Y5.4102
G01 X24.1623 Y5.6954
G01 X24.1093 Y6.0907
G01 X24.1091 Y6.1011
G01 X24.1488 Y6.4906
G01 X24.1514 Y6.5031
G01 X24.2701 Y6.8631
G01 X24.2747 Y6.8731
G02 X25.3387 Y7.6267 I1.1101 J-0.4394
G01 X25.7765 Y7.5188
G01 X26.0712 Y7.1732
G03 X26.2842 Y7.1970 I0.0969 J0.0979
G01 X26.3062 Y7.1839
G00 Z5.0000
G00 X24.5510 Y4.2589
G00 Z0.3500
G01 Z-0.2500 F30
G01 X24.3959 F508
G00 Z5.0000
G00 X25.7024
G00 Z0.3500
G01 Z-0.2500 F30
G01 X25.9478 F508
G00 Z5.0000
G00 X24.5701 Y5.3839
G00 Z0.3500
G01 Z-0.2500 F30
G01 X24.3923 F508
G00 Z5.0000
G00 X26.0778
G00 Z0.3500
G01 Z-0.2500 F30
G01 X26.2089 F508
G00 Z5.0000
G00 X24.3867 Y5.6089
G00 Z0.3500
G01 Z-0.2500 F30
G01 X24.2367 F508
G01 X24.1691 Y5.8339
G01 X24.3089
G01 X24.2845 Y6.0589
G01 X24.1393
G01 X24.1532 Y6.2839
G01 X24.2968
G01 X24.3247 Y6.5089
G01 X24.1797
G01 X24.2542 Y6.7339
G01 X24.3896
G01 X24.3565 Y6.9589
G01 X24.4889
G00 Z5.0000
G00 X26.0022 Y5.8339
G00 Z0.3500
G01 Z-0.2500 F30
G01 X26.1576 F508
G01 X26.1890 Y6.0589
G01 X25.9962
G01 X26.0832 Y6.2839
G01 X26.2316
G01 X26.2805 Y6.5089
G01 X26.1437
G01 X26.1758 Y6.7339
G01 X26.3320
G01 X26.3836 Y6.9589
G01 X26.1533
G01 X26.3062 Y7.1839
G01 X26.4352
G00 Z5.0000
G00 X24.6338
G00 Z0.3500
G01 Z-0.2500 F30
G01 X24.5007 F508
G00 Z5.0000
G00 X24.7422 Y7.4089
G00 Z0.3500
G01 Z-0.2500 F30
G01 X24.8860 F508
G00 Z5.0000
G00 X24.8364 Y8.5339
G00 Z0.3500
G01 Z-0.2500 F30
G01 X24.9938 F508
G00 Z5.0000
G00 X26.1407
G00 Z0.3500
G01 Z-0.2500 F30
G01 X26.2870 F508
G00 Z5.0000
G00 X26.3062 Y7.1839
G00 Z0.3500
G01 Z-0.2500 F30
G01 X25.7077 Y7.4739 F508
G01 X25.6852 Y7.4847
G01 X25.6733 Y7.4883
G01 X25.3937 Y7.5330
G01 X25.3688 Y7.5344
G01 X25.0950 Y7.4897
G01 X25.0709 Y7.4832
G01 X25.0365 Y7.4653
G01 X24.8257 Y7.3460
G01 X24.8054 Y7.3316
G01 X24.6054 Y7.1167
G01 X24.5903 Y7.0968
G01 X24.4367 Y6.8073
G01 X24.3378 Y6.4646
G01 X24.3053 Y6.0980
G01 X24.3383 Y5.7953
G01 X24.3402 Y5.7830
G01 X24.3479 Y5.7592
G01 X24.4447 Y5.5391
G01 X24.4570 Y5.5173
G01 X24.4733 Y5.4985
G01 X24.6422 Y5.3556
G03 X24.6979 Y5.3286 I0.0807 J0.0955
G01 X24.9323 Y5.2823
G01 X24.9571 Y5.2800
G01 X24.9696 Y5.2806
G01 X25.3081 Y5.3541
G01 X25.3318 Y5.3618
G01 X25.3535 Y5.3741
G01 X25.6507 Y5.5884
G01 X25.6694 Y5.6049
G01 X25.9235 Y5.9455
G01 X25.9401 Y5.9832
G03 X26.1551 Y6.7824 I-1.7115 J0.8890
G01 X26.1549 Y6.8073
G01 X26.1089 Y7.0657
G01 X26.1021 Y7.0897
G01 X26.0906 Y7.1119
G01 X25.9548 Y7.3105
G01 X25.9387 Y7.3296
G01 X25.9192 Y7.3451
G01 X25.7077 Y7.4739
G01 X26.3062 Y7.1839
G00 Z5.0000
G00 Z0.3500
G01 Z-0.2500 F30
G01 X26.2842 Y7.1970 F508
G01 X26.2903 Y7.2072
G01 X26.2986 Y7.2307
G01 X26.3829 Y7.5693
G01 X26.5484 Y7.5663
G01 X26.2686 Y6.3452
G01 X26.1916 Y5.9385
G01 X26.1661 Y5.6380
G01 X26.1681 Y5.6132
G01 X26.2309 Y5.3954
G03 X26.7932 Y5.3265 I0.3213 J0.2933
G01 X26.9851 Y5.4672
G01 X27.0036 Y5.4839
G01 X27.1634 Y5.6999
G01 X27.1775 Y5.7192
G01 X27.1896 Y5.7411
G03 X27.4288 Y6.7814 I-2.0264 J1.0137
G01 X27.4305 Y6.8117
G01 X27.4297 Y6.8242
G01 X27.3798 Y7.2624
G01 X27.3738 Y7.3015
G01 X27.2204 Y7.6979
G01 X27.2090 Y7.7261
G01 X27.2029 Y7.7370
G01 X26.9408 Y8.0797
G01 X26.9237 Y8.0979
G01 X26.5830 Y8.3395
G01 X26.5479 Y8.3620
G01 X26.1287 Y8.5116
G01 X26.0930 Y8.5230
G01 X25.5729 Y8.5761
G01 X24.9618 Y8.5050
G01 X24.9218 Y8.4986
G01 X24.3860 Y8.2843
G01 X24.3578 Y8.2725
G01 X24.3367 Y8.2591
G01 X23.9021 Y7.9171
G01 X23.8781 Y7.8976
G01 X23.8617 Y7.8788
G01 X23.5315 Y7.4126
G01 X23.5097 Y7.3791
G01 X23.2961 Y6.8069
G01 X23.2841 Y6.7708
G01 X23.2094 Y6.0984
G01 X23.2612 Y5.6131
G01 X23.2667 Y5.5752
G01 X23.4232 Y5.1510
G01 X23.4339 Y5.1231
G01 X23.4398 Y5.1120
G01 X23.7153 Y4.7380
G01 X23.7338 Y4.7213
G01 X24.0730 Y4.4724
G01 X24.0975 Y4.4550
G01 X24.1084 Y4.4490
G01 X24.5618 Y4.2815
G01 X24.5862 Y4.2764
G03 X25.9041 Y4.3223 I0.5550 J3.0115
G01 X25.9395 Y4.3301
G01 X26.3541 Y4.4664
G01 X26.6808 Y4.6207
G01 X26.7212 Y4.5384
G02 X24.5145 Y4.1889 I-1.5737 J2.7949
G02 X23.1388 Y5.5453 I0.3282 J1.7086
G01 X23.0784 Y6.0932
G01 Y6.1048
G01 X23.1602 Y6.7979
G02 X25.5769 Y8.6665 I2.3640 J-0.5604
G02 X27.0300 Y8.1591 I0.1283 J-1.9672
G02 X27.5480 Y6.8213 I-1.3348 J-1.2860
G01 X27.5482 Y6.8056
G01 X27.5124 Y6.3650
G01 X27.5095 Y6.3483
G01 X27.4030 Y5.9546
G01 X27.3982 Y5.9422
G02 X26.4576 Y5.1762 I-0.9991 J0.2663
G02 X26.0551 Y5.3686 I-0.0786 J0.3526
G01 X26.0270 Y5.5289
G01 X26.0262 Y5.5417
G01 X26.0335 Y5.7132
G03 X25.7893 Y5.7876 I-0.1344 J-0.0031
G02 X24.5506 Y5.2366 I-0.9070 J0.3711
G01 X24.3143 Y5.4102
G01 X24.1623 Y5.6954
G01 X24.1093 Y6.0907
G01 X24.1091 Y6.1011
G01 X24.1488 Y6.4906
G01 X24.1514 Y6.5031
G01 X24.2701 Y6.8631
G01 X24.2747 Y6.8731
G02 X25.3387 Y7.6267 I1.1101 J-0.4394
G01 X25.7765 Y7.5188
G01 X26.0712 Y7.1732
G03 X26.2842 Y7.1970 I0.0969 J0.0979
G01 X26.3062 Y7.1839
G00 Z5.0000


(No. 6: Hole 10)
G00 X28.5579 Y5.0246 Z20.0000
G00 Z0.5000
G01 Z-0.1500 F30
G01 X28.7462 F508
G01 Y5.2496
G01 X28.5579
G01 Y5.4746
G01 X28.7462
G01 Y5.6996
G01 X28.5579
G01 Y5.9246
G01 X28.7462
G01 Y6.1496
G01 X28.5579
G01 Y6.3746
G01 X28.7532
G01 X28.7737 Y6.5996
G01 X28.5579
G01 Y6.8246
G01 X28.8122
G01 X28.7351 Y7.0496
G01 X28.5575
G01 X28.5549 Y7.2746
G01 X28.7197
G01 X28.7109 Y7.4996
G01 X28.5522
G00 Z5.0000
G00 X29.2536
G00 Z0.5000
G01 Z-0.1500 F30
G01 X29.6304 F508
G00 Z5.0000
G00 Z0.5000
G01 Z-0.1500 F30
G01 X29.6554 F508
G01 Y7.4420
G01 X29.6523 Y7.4281
G01 X29.5458 Y7.4331
G01 X29.5151 Y7.4340
G01 X29.5026 Y7.4329
G01 X29.2169 Y7.3636
G01 X29.1938 Y7.3542
G01 X29.1730 Y7.3404
G03 X28.8165 Y6.7650 I0.8172 J-0.9045
G01 X28.8117 Y6.7405
G01 X28.7712 Y6.2974
G01 Y4.8925
G01 X28.5329
G01 Y7.0204
G01 X28.5287 Y7.3486
G01 X28.5209 Y7.5774
G01 X28.7327 Y7.5775
G01 X28.7441 Y7.2988
G01 X28.7497 Y7.0942
G03 X28.8744 Y6.9780 I0.1247 J0.0088
G01 X29.0750 Y7.2430
G02 X29.5937 Y7.6306 I0.4732 J-0.0924
G01 X29.6521 Y7.6266
G01 X29.6554 Y7.6096
G01 Y7.4996
G01 X29.6304
G00 Z5.0000
G00 X28.7462 Y5.0246
G00 Z0.3500
G01 Z-0.2500 F30
G01 X28.5579 F508
G01 Y5.2496
G01 X28.7462
G01 Y5.4746
G01 X28.5579
G01 Y5.6996
G01 X28.7462
G01 Y5.9246
G01 X28.5579
G01 Y6.1496
G01 X28.7462
G01 X28.7532 Y6.3746
G01 X28.5579
G01 Y6.5996
G01 X28.7737
G01 X28.8122 Y6.8246
G01 X28.5579
G01 X28.5575 Y7.0496
G01 X28.7351
G01 X28.7197 Y7.2746
G01 X28.5549
G01 X28.5522 Y7.4996
G01 X28.7109
G00 Z5.0000
G00 X29.2536
G00 Z0.3500
G01 Z-0.2500 F30
G01 X29.6304 F508
G00 Z5.0000
G00 Z0.3500
G01 Z-0.2500 F30
G01 X29.6554 F508
G01 Y7.4420
G01 X29.6523 Y7.4281
G01 X29.5458 Y7.4331
G01 X29.5151 Y7.4340
G01 X29.5026 Y7.4329
G01 X29.2169 Y7.3636
G01 X29.1938 Y7.3542
G01 X29.1730 Y7.3404
G03 X28.8165 Y6.7650 I0.8172 J-0.9045
G01 X28.8117 Y6.7405
G01 X28.7712 Y6.2974
G01 Y4.8925
G01 X28.5329
G01 Y7.0204
G01 X28.5287 Y7.3486
G01 X28.5209 Y7.5774
G01 X28.7327 Y7.5775
G01 X28.7441 Y7.2988
G01 X28.7497 Y7.0942
G03 X28.8744 Y6.9780 I0.1247 J0.0088
G01 X29.0750 Y7.2430
G02 X29.5937 Y7.6306 I0.4732 J-0.0924
G01 X29.6521 Y7.6266
G01 X29.6554 Y7.6096
G01 Y7.4996
G01 X29.6304
G00 Z5.0000


(No. 7: Hole 11)
G00 X31.2816 Y4.8850 Z20.0000
G00 Z0.5000
G01 Z-0.1500 F30
G01 X31.4761 F508
G00 Z5.0000
G00 X30.8511 Y5.1100
G00 Z0.5000
G01 Z-0.1500 F30
G01 X30.6575 F508
G00 Z5.0000
G00 X32.0213
G00 Z0.5000
G01 Z-0.1500 F30
G01 X32.1526 F508
G00 Z5.0000
G00 X30.6299 Y5.3350
G00 Z0.5000
G01 Z-0.1500 F30
G01 X30.4517 F508
G01 X30.5234 Y5.5600
G01 X30.3326
G01 X30.2761 Y5.7850
G01 X30.4676
G01 X30.4413 Y6.0100
G01 X30.2476
G01 X30.2191 Y6.2350
G01 X30.4700
G01 X30.4416 Y6.4600
G01 X30.2440
G01 X30.2738 Y6.6850
G01 X30.4621
G01 X30.5021 Y6.9100
G01 X30.3288
G01 X30.4516 Y7.1350
G01 X30.6215
G00 Z5.0000
G00 X32.3096 Y6.4600
G00 Z0.5000
G01 Z-0.1500 F30
G01 X32.4430 F508
G00 Z5.0000
G00 X32.2570 Y7.1350
G00 Z0.5000
G01 Z-0.1500 F30
G01 X32.1313 F508
G00 Z5.0000
G00 X30.8290 Y7.3600
G00 Z0.5000
G01 Z-0.1500 F30
G01 X30.6539 F508
G00 Z5.0000
G00 X31.2661 Y7.5850
G00 Z0.5000
G01 Z-0.1500 F30
G01 X31.4032 F508
G00 Z5.0000
G00 X31.3923
G00 Z0.5000
G01 Z-0.1500 F30
G01 Y7.5189 F508
G01 X31.3655 Y7.5208
G01 X31.3275 Y7.5151
G01 X31.0288 Y7.4595
G03 X30.9619 Y7.4259 I0.0352 J-0.1533
G01 X30.7336 Y7.2596
G01 X30.7150 Y7.2430
G01 X30.7001 Y7.2230
G01 X30.5388 Y6.9385
G01 X30.5287 Y6.9156
G01 X30.5210 Y6.8784
G01 X30.4603 Y6.5275
G01 X30.4585 Y6.5026
G03 X30.5782 Y6.3814 I0.1249 J0.0036
G01 X32.1675 Y6.3812
G03 X32.2915 Y6.5223 I0.0000 J0.1250
G01 X32.2078 Y6.9437
G01 X32.1982 Y6.9668
G01 X32.0402 Y7.2448
G03 X31.9846 Y7.2979 I-0.1302 J-0.0805
G01 X31.7632 Y7.4465
G03 X31.6941 Y7.4693 I-0.0841 J-0.1389
G01 X31.3923 Y7.5189
G01 Y7.5850
G00 Z5.0000
G00 X31.4032
G00 Z0.5000
G01 Z-0.1500 F30
G01 Y7.6119 F508
G01 X32.2446 Y7.2738
G01 X32.5250 Y6.2601
G01 X32.5121 Y6.2569
G01 X30.5980
G03 X30.4535 Y6.1424 I-0.0180 J-0.1258
G01 X30.4539 Y6.1174
G01 X30.5065 Y5.6674
G01 X30.5124 Y5.6432
G01 X30.5172 Y5.6316
G01 X30.6770 Y5.2939
G01 X30.6910 Y5.2732
G01 X30.7088 Y5.2558
G01 X30.9502 Y5.0628
G03 X31.0080 Y5.0282 I0.1014 J0.1038
G01 X31.3737 Y4.9567
G01 X31.3986 Y4.9544
G01 X31.4111 Y4.9552
G01 X31.7086 Y4.9889
G01 X31.7324 Y4.9964
G01 X31.9582 Y5.0935
G01 X31.9693 Y5.0993
G01 X31.9894 Y5.1140
G01 X32.1613 Y5.2703
G01 X32.1755 Y5.2909
G01 X32.2268 Y5.3821
G01 X32.3696 Y5.3332
G01 X32.0936 Y4.9994
G01 X31.3937 Y4.8407
G01 X30.8723 Y4.9289
G01 X30.4975 Y5.1950
G01 X30.2716 Y5.6216
G01 X30.1919 Y6.2574
G01 X30.2714 Y6.8570
G01 X30.5018 Y7.2835
G01 X30.8681 Y7.5413
G01 X31.3687 Y7.6258
G01 X31.4032 Y7.6119
G01 Y7.5850
G00 Z5.0000
G00 X31.4761 Y4.8850
G00 Z0.3500
G01 Z-0.2500 F30
G01 X31.2816 F508
G00 Z5.0000
G00 X30.8511 Y5.1100
G00 Z0.3500
G01 Z-0.2500 F30
G01 X30.6575 F508
G00 Z5.0000
G00 X32.0213
G00 Z0.3500
G01 Z-0.2500 F30
G01 X32.1526 F508
G00 Z5.0000
G00 X30.6299 Y5.3350
G00 Z0.3500
G01 Z-0.2500 F30
G01 X30.4517 F508
G01 X30.5234 Y5.5600
G01 X30.3326
G01 X30.2761 Y5.7850
G01 X30.4676
G01 X30.4413 Y6.0100
G01 X30.2476
G01 X30.2191 Y6.2350
G01 X30.4700
G01 X30.4416 Y6.4600
G01 X30.2440
G01 X30.2738 Y6.6850
G01 X30.4621
G01 X30.5021 Y6.9100
G01 X30.3288
G01 X30.4516 Y7.1350
G01 X30.6215
G00 Z5.0000
G00 X32.3096 Y6.4600
G00 Z0.3500
G01 Z-0.2500 F30
G01 X32.4430 F508
G00 Z5.0000
G00 X32.2570 Y7.1350
G00 Z0.3500
G01 Z-0.2500 F30
G01 X32.1313 F508
G00 Z5.0000
G00 X30.8290 Y7.3600
G00 Z0.3500
G01 Z-0.2500 F30
G01 X30.6539 F508
G00 Z5.0000
G00 X31.2661 Y7.5850
G00 Z0.3500
G01 Z-0.2500 F30
G01 X31.4032 F508
G00 Z5.0000
G00 X31.3923
G00 Z0.3500
G01 Z-0.2500 F30
G01 Y7.5189 F508
G01 X31.3655 Y7.5208
G01 X31.3275 Y7.5151
G01 X31.0288 Y7.4595
G03 X30.9619 Y7.4259 I0.0352 J-0.1533
G01 X30.7336 Y7.2596
G01 X30.7150 Y7.2430
G01 X30.7001 Y7.2230
G01 X30.5388 Y6.9385
G01 X30.5287 Y6.9156
G01 X30.5210 Y6.8784
G01 X30.4603 Y6.5275
G01 X30.4585 Y6.5026
G03 X30.5782 Y6.3814 I0.1249 J0.0036
G01 X32.1675 Y6.3812
G03 X32.2915 Y6.5223 I0.0000 J0.1250
G01 X32.2078 Y6.9437
G01 X32.1982 Y6.9668
G01 X32.0402 Y7.2448
G03 X31.9846 Y7.2979 I-0.1302 J-0.0805
G01 X31.7632 Y7.4465
G03 X31.6941 Y7.4693 I-0.0841 J-0.1389
G01 X31.3923 Y7.5189
G01 Y7.5850
G00 Z5.0000
G00 X31.4032
G00 Z0.3500
G01 Z-0.2500 F30
G01 Y7.6119 F508
G01 X32.2446 Y7.2738
G01 X32.5250 Y6.2601
G01 X32.5121 Y6.2569
G01 X30.5980
G03 X30.4535 Y6.1424 I-0.0180 J-0.1258
G01 X30.4539 Y6.1174
G01 X30.5065 Y5.6674
G01 X30.5124 Y5.6432
G01 X30.5172 Y5.6316
G01 X30.6770 Y5.2939
G01 X30.6910 Y5.2732
G01 X30.7088 Y5.2558
G01 X30.9502 Y5.0628
G03 X31.0080 Y5.0282 I0.1014 J0.1038
G01 X31.3737 Y4.9567
G01 X31.3986 Y4.9544
G01 X31.4111 Y4.9552
G01 X31.7086 Y4.9889
G01 X31.7324 Y4.9964
G01 X31.9582 Y5.0935
G01 X31.9693 Y5.0993
G01 X31.9894 Y5.1140
G01 X32.1613 Y5.2703
G01 X32.1755 Y5.2909
G01 X32.2268 Y5.3821
G01 X32.3696 Y5.3332
G01 X32.0936 Y4.9994
G01 X31.3937 Y4.8407
G01 X30.8723 Y4.9289
G01 X30.4975 Y5.1950
G01 X30.2716 Y5.6216
G01 X30.1919 Y6.2574
G01 X30.2714 Y6.8570
G01 X30.5018 Y7.2835
G01 X30.8681 Y7.5413
G01 X31.3687 Y7.6258
G01 X31.4032 Y7.6119
G01 Y7.5850
G00 Z5.0000


(No. 8: Hole 12)
G00 X33.5485 Y4.9934 Z20.0000
G00 Z0.5000
G01 Z-0.1500 F30
G01 X33.8102 F508
G00 Z5.0000
G00 X34.6604
G00 Z0.5000
G01 Z-0.1500 F30
G01 X34.8666 F508
G00 Z5.0000
G00 X33.4360 Y5.2184
G00 Z0.5000
G01 Z-0.1500 F30
G01 X33.2667 F508
G00 Z5.0000
G00 X34.9969
G00 Z0.5000
G01 Z-0.1500 F30
G01 X35.1536 F508
G01 X35.0813 Y5.4434
G01 X35.2410
G01 X35.2653 Y5.6684
G01 X35.0772
G01 X34.9634 Y5.8934
G01 X35.1914
G00 Z5.0000
G00 X34.9500 Y6.1184
G00 Z0.5000
G01 Z-0.1500 F30
G01 X34.5642 F508
G00 Z5.0000
G00 X34.2931 Y6.3434
G00 Z0.5000
G01 Z-0.1500 F30
G01 X33.7844 F508
G00 Z5.0000
G00 X33.6573 Y6.5684
G00 Z0.5000
G01 Z-0.1500 F30
G01 X33.4099 F508
G01 X33.4760 Y6.7934
G01 X33.2858
G01 X33.2899 Y7.0184
G01 X33.4487
G01 X33.5123 Y7.2434
G01 X33.3539
G00 Z5.0000
G00 X34.9727
G00 Z0.5000
G01 Z-0.1500 F30
G01 X35.1252 F508
G00 Z5.0000
G00 X33.8271 Y7.4684
G00 Z0.5000
G01 Z-0.1500 F30
G01 X33.6148 F508
G00 Z5.0000
G00 X34.6263
G00 Z0.5000
G01 Z-0.1500 F30
G01 X34.8754 F508
G00 Z5.0000
G00 Z0.5000
G01 Z-0.1500 F30
G01 X34.8843 Y7.4918 F508
G01 X34.9419 Y7.4698
G01 X35.1373 Y7.2837
G01 X35.1964 Y7.1340
G01 X35.0165 Y7.1118
G01 X35.0074 Y7.1170
G01 X34.9705 Y7.2019
G01 X34.9645 Y7.2129
G01 X34.9495 Y7.2329
G01 X34.7909 Y7.3739
G01 X34.7698 Y7.3872
G01 X34.7583 Y7.3922
G01 X34.5430 Y7.4731
G01 X34.5185 Y7.4779
G01 X34.2398 Y7.5046
G01 X33.9309 Y7.4780
G01 X33.9068 Y7.4716
G01 X33.7248 Y7.4033
G01 X33.6879 Y7.3878
G01 X33.6676 Y7.3734
G01 X33.6586 Y7.3647
G01 X33.5300 Y7.2256
G01 X33.5177 Y7.2039
G01 X33.5099 Y7.1802
G01 X33.4749 Y7.0220
G01 X33.4678 Y6.9827
G01 X33.4688 Y6.9578
G01 X33.4860 Y6.8384
G01 X33.4931 Y6.8144
G01 X33.5492 Y6.7072
G01 X33.5560 Y6.6967
G01 X33.5724 Y6.6779
G03 X34.0164 Y6.4423 I0.6212 J0.6346
G02 X34.8925 Y6.1800 I-0.8607 J-4.4682
G01 X35.0198 Y6.1074
G01 X35.0352 Y6.0968
G01 X35.1213 Y6.0262
G01 X35.1316 Y6.0159
G01 X35.1942 Y5.9388
G01 X35.2027 Y5.9259
G01 X35.2494 Y5.8375
G01 X35.2548 Y5.8243
G01 X35.2844 Y5.7220
G01 X35.2871 Y5.7070
G01 X35.2971 Y5.5850
G01 X35.2313 Y5.2762
G01 X35.2244 Y5.2623
G01 X35.0337 Y5.0411
G01 X34.7004 Y4.8916
G01 X34.2387 Y4.8398
G01 X34.2244 Y4.8396
G01 X33.7728 Y4.8824
G01 X33.4552 Y5.0018
G01 X33.2474 Y5.1976
G01 X33.1822 Y5.3644
G01 X33.3617 Y5.3971
G01 X33.4158 Y5.2814
G01 X33.4218 Y5.2705
G01 X33.4370 Y5.2506
G01 X33.6156 Y5.0944
G01 X33.6370 Y5.0816
G01 X33.8630 Y5.0011
G01 X33.9001 Y4.9896
G01 X34.2018 Y4.9621
G01 X34.2313 Y4.9599
G01 X34.2438 Y4.9604
G01 X34.5753 Y4.9901
G01 X34.5994 Y4.9967
G01 X34.8292 Y5.0854
G01 X34.8507 Y5.0981
G01 X34.8692 Y5.1148
G01 X35.0004 Y5.2595
G03 X35.0280 Y5.3148 I-0.0946 J0.0817
G01 X35.0711 Y5.5142
G01 X35.0739 Y5.5390
G01 X35.0717 Y5.5639
G01 X35.0410 Y5.7255
G01 X35.0331 Y5.7492
G01 X35.0206 Y5.7708
G01 X34.9427 Y5.8793
G01 X34.9247 Y5.9037
G01 X34.9067 Y5.9210
G01 X34.7374 Y6.0292
G01 X34.7147 Y6.0397
G02 X33.7780 Y6.3189 I127.6272 J429.8934
G01 X33.5652 Y6.4131
G01 X33.5539 Y6.4196
G01 X33.4278 Y6.5116
G01 X33.4193 Y6.5195
G01 X33.3239 Y6.6303
G01 X33.2645 Y6.7620
G01 X33.2445 Y6.9219
G01 X33.3040 Y7.2163
G01 X33.3111 Y7.2311
G01 X33.4816 Y7.4361
G01 X33.7891 Y7.5739
G01 X34.2318 Y7.6221
G01 X34.2459 Y7.6222
G01 X34.6480 Y7.5819
G01 X34.8843 Y7.4918
G01 X34.8754 Y7.4684
G00 Z5.0000
G00 X33.8102 Y4.9934
G00 Z0.3500
G01 Z-0.2500 F30
G01 X33.5485 F508
G00 Z5.0000
G00 X34.6604
G00 Z0.3500
G01 Z-0.2500 F30
G01 X34.8666 F508
G00 Z5.0000
G00 X33.4360 Y5.2184
G00 Z0.3500
G01 Z-0.2500 F30
G01 X33.2667 F508
G00 Z5.0000
G00 X34.9969
G00 Z0.3500
G01 Z-0.2500 F30
G01 X35.1536 F508
G01 X35.0813 Y5.4434
G01 X35.2410
G01 X35.2653 Y5.6684
G01 X35.0772
G01 X34.9634 Y5.8934
G01 X35.1914
G00 Z5.0000
G00 X34.9500 Y6.1184
G00 Z0.3500
G01 Z-0.2500 F30
G01 X34.5642 F508
G00 Z5.0000
G00 X34.2931 Y6.3434
G00 Z0.3500
G01 Z-0.2500 F30
G01 X33.7844 F508
G00 Z5.0000
G00 X33.6573 Y6.5684
G00 Z0.3500
G01 Z-0.2500 F30
G01 X33.4099 F508
G01 X33.4760 Y6.7934
G01 X33.2858
G01 X33.2899 Y7.0184
G01 X33.4487
G01 X33.5123 Y7.2434
G01 X33.3539
G00 Z5.0000
G00 X34.9727
G00 Z0.3500
G01 Z-0.2500 F30
G01 X35.1252 F508
G00 Z5.0000
G00 X33.8271 Y7.4684
G00 Z0.3500
G01 Z-0.2500 F30
G01 X33.6148 F508
G00 Z5.0000
G00 X34.6263
G00 Z0.3500
G01 Z-0.2500 F30
G01 X34.8754 F508
G00 Z5.0000
G00 Z0.3500
G01 Z-0.2500 F30
G01 X34.8843 Y7.4918 F508
G01 X34.9419 Y7.4698
G01 X35.1373 Y7.2837
G01 X35.1964 Y7.1340
G01 X35.0165 Y7.1118
G01 X35.0074 Y7.1170
G01 X34.9705 Y7.2019
G01 X34.9645 Y7.2129
G01 X34.9495 Y7.2329
G01 X34.7909 Y7.3739
G01 X34.7698 Y7.3872
G01 X34.7583 Y7.3922
G01 X34.5430 Y7.4731
G01 X34.5185 Y7.4779
G01 X34.2398 Y7.5046
G01 X33.9309 Y7.4780
G01 X33.9068 Y7.4716
G01 X33.7248 Y7.4033
G01 X33.6879 Y7.3878
G01 X33.6676 Y7.3734
G01 X33.6586 Y7.3647
G01 X33.5300 Y7.2256
G01 X33.5177 Y7.2039
G01 X33.5099 Y7.1802
G01 X33.4749 Y7.0220
G01 X33.4678 Y6.9827
G01 X33.4688 Y6.9578
G01 X33.4860 Y6.8384
G01 X33.4931 Y6.8144
G01 X33.5492 Y6.7072
G01 X33.5560 Y6.6967
G01 X33.5724 Y6.6779
G03 X34.0164 Y6.4423 I0.6212 J0.6346
G02 X34.8925 Y6.1800 I-0.8607 J-4.4682
G01 X35.0198 Y6.1074
G01 X35.0352 Y6.0968
G01 X35.1213 Y6.0262
G01 X35.1316 Y6.0159
G01 X35.1942 Y5.9388
G01 X35.2027 Y5.9259
G01 X35.2494 Y5.8375
G01 X35.2548 Y5.8243
G01 X35.2844 Y5.7220
G01 X35.2871 Y5.7070
G01 X35.2971 Y5.5850
G01 X35.2313 Y5.2762
G01 X35.2244 Y5.2623
G01 X35.0337 Y5.0411
G01 X34.7004 Y4.8916
G01 X34.2387 Y4.8398
G01 X34.2244 Y4.8396
G01 X33.7728 Y4.8824
G01 X33.4552 Y5.0018
G01 X33.2474 Y5.1976
G01 X33.1822 Y5.3644
G01 X33.3617 Y5.3971
G01 X33.4158 Y5.2814
G01 X33.4218 Y5.2705
G01 X33.4370 Y5.2506
G01 X33.6156 Y5.0944
G01 X33.6370 Y5.0816
G01 X33.8630 Y5.0011
G01 X33.9001 Y4.9896
G01 X34.2018 Y4.9621
G01 X34.2313 Y4.9599
G01 X34.2438 Y4.9604
G01 X34.5753 Y4.9901
G01 X34.5994 Y4.9967
G01 X34.8292 Y5.0854
G01 X34.8507 Y5.0981
G01 X34.8692 Y5.1148
G01 X35.0004 Y5.2595
G03 X35.0280 Y5.3148 I-0.0946 J0.0817
G01 X35.0711 Y5.5142
G01 X35.0739 Y5.5390
G01 X35.0717 Y5.5639
G01 X35.0410 Y5.7255
G01 X35.0331 Y5.7492
G01 X35.0206 Y5.7708
G01 X34.9427 Y5.8793
G01 X34.9247 Y5.9037
G01 X34.9067 Y5.9210
G01 X34.7374 Y6.0292
G01 X34.7147 Y6.0397
G02 X33.7780 Y6.3189 I127.6272 J429.8934
G01 X33.5652 Y6.4131
G01 X33.5539 Y6.4196
G01 X33.4278 Y6.5116
G01 X33.4193 Y6.5195
G01 X33.3239 Y6.6303
G01 X33.2645 Y6.7620
G01 X33.2445 Y6.9219
G01 X33.3040 Y7.2163
G01 X33.3111 Y7.2311
G01 X33.4816 Y7.4361
G01 X33.7891 Y7.5739
G01 X34.2318 Y7.6221
G01 X34.2459 Y7.6222
G01 X34.6480 Y7.5819
G01 X34.8843 Y7.4918
G01 X34.8754 Y7.4684
G00 Z5.0000


(No. 9: Hole 13)
G00 X36.3597 Y4.9665 Z20.0000
G00 Z0.5000
G01 Z-0.1500 F30
G01 X36.7394 F508
G01 X36.3786
G01 Y5.1915
G01 X36.1968
G01 X36.1325 Y5.4165
G01 X36.3279
G01 X36.3208 Y5.6415
G01 X36.1325
G01 Y5.8665
G01 X36.3208
G01 Y6.0915
G01 X36.1325
G01 Y6.3165
G01 X36.3208
G01 Y6.5415
G01 X36.1325
G01 Y6.7665
G01 X36.3208
G01 Y6.9915
G01 X36.1325
G01 Y7.2165
G01 X36.3208
G01 X36.3545 Y7.4415
G01 X36.0989
G01 X36.1470 Y7.6665
G01 X36.3255
G00 Z5.0000
G00 Z0.5000
G01 Z-0.1500 F30
G01 X36.3498 Y7.6732 F508
G03 X36.4583 Y7.5781 I0.1204 J0.0278
G01 X36.8883 Y7.5774
G01 Y7.4721
G01 X36.4908
G01 X36.4495 Y7.4703
G03 X36.3483 Y7.3720 I0.0212 J-0.1232
G01 X36.3458 Y7.3471
G01 Y5.5145
G01 X36.3463 Y5.4825
G01 X36.3660 Y5.2875
G01 X36.3738 Y5.2637
G01 X36.4288 Y5.1402
G03 X36.4698 Y5.0939 I0.1111 J0.0572
G01 X36.5696 Y5.0265
G01 X36.5922 Y5.0158
G01 X36.6041 Y5.0121
G01 X36.7775 Y4.9870
G01 X36.8893 Y4.9953
G01 X36.9371 Y5.0012
G01 Y4.8917
G02 X36.2314 Y4.9852 I-0.2627 J0.7270
G01 X36.1075 Y5.4087
G01 Y7.3271
G01 X36.1057 Y7.3684
G03 X35.9825 Y7.4721 I-0.1232 J-0.0212
G01 X35.7685
G01 Y7.5774
G01 X35.9815
G03 X36.1236 Y7.6757 I0.0177 J0.1263
G01 X36.2459 Y8.2339
G01 X36.3458
G01 X36.3461 Y7.6936
G01 X36.3476 Y7.6812
G01 X36.3255 Y7.6665
G00 Z5.0000
G00 X36.3597 Y4.9665
G00 Z0.3500
G01 Z-0.2500 F30
G01 X36.7394 F508
G01 X36.3786
G01 Y5.1915
G01 X36.1968
G01 X36.1325 Y5.4165
G01 X36.3279
G01 X36.3208 Y5.6415
G01 X36.1325
G01 Y5.8665
G01 X36.3208
G01 Y6.0915
G01 X36.1325
G01 Y6.3165
G01 X36.3208
G01 Y6.5415
G01 X36.1325
G01 Y6.7665
G01 X36.3208
G01 Y6.9915
G01 X36.1325
G01 Y7.2165
G01 X36.3208
G01 X36.3545 Y7.4415
G01 X36.0989
G01 X36.1470 Y7.6665
G01 X36.3255
G00 Z5.0000
G00 Z0.3500
G01 Z-0.2500 F30
G01 X36.3498 Y7.6732 F508
G03 X36.4583 Y7.5781 I0.1204 J0.0278
G01 X36.8883 Y7.5774
G01 Y7.4721
G01 X36.4908
G01 X36.4495 Y7.4703
G03 X36.3483 Y7.3720 I0.0212 J-0.1232
G01 X36.3458 Y7.3471
G01 Y5.5145
G01 X36.3463 Y5.4825
G01 X36.3660 Y5.2875
G01 X36.3738 Y5.2637
G01 X36.4288 Y5.1402
G03 X36.4698 Y5.0939 I0.1111 J0.0572
G01 X36.5696 Y5.0265
G01 X36.5922 Y5.0158
G01 X36.6041 Y5.0121
G01 X36.7775 Y4.9870
G01 X36.8893 Y4.9953
G01 X36.9371 Y5.0012
G01 Y4.8917
G02 X36.2314 Y4.9852 I-0.2627 J0.7270
G01 X36.1075 Y5.4087
G01 Y7.3271
G01 X36.1057 Y7.3684
G03 X35.9825 Y7.4721 I-0.1232 J-0.0212
G01 X35.7685
G01 Y7.5774
G01 X35.9815
G03 X36.1236 Y7.6757 I0.0177 J0.1263
G01 X36.2459 Y8.2339
G01 X36.3458
G01 X36.3461 Y7.6936
G01 X36.3476 Y7.6812
G01 X36.3255 Y7.6665
G00 Z5.0000


(No. 10: Hole 14)
G00 X37.7277 Y4.9975 Z20.0000
G00 Z0.5000
G01 Z-0.1500 F30
G01 X37.9909 F508
G01 X37.7494 Y5.2225
G01 X37.5339
G01 X37.4757 Y5.4475
G01 X37.6729
G01 X37.6650 Y5.6725
G01 X37.4718
G01 X37.5150 Y5.8975
G01 X37.7182
G01 X37.6680 Y6.1225
G01 X37.8751
G00 Z5.0000
G00 X39.4935 Y4.9975
G00 Z0.5000
G01 Z-0.1500 F30
G01 X39.7489 F508
G01 X39.6087 Y5.2225
G01 X39.4142
G01 X39.3365 Y5.4475
G01 X39.5762
G01 X39.5722 Y5.6725
G01 X39.3268
G01 X39.3690 Y5.8975
G01 X39.5722
G01 Y6.1225
G01 X39.3786
G01 X39.2993 Y6.3475
G01 X39.5722
G01 Y6.5725
G01 X39.3780
G01 X39.3693 Y6.7975
G01 X39.5656
G01 X39.5284 Y7.0225
G01 X39.3421
G01 X39.4344 Y7.2475
G01 X39.2385
G00 Z5.0000
G00 X38.5768 Y6.3475
G00 Z0.5000
G01 Z-0.1500 F30
G01 X38.1906 F508
G00 Z5.0000
G00 X37.9067 Y7.2475
G00 Z0.5000
G01 Z-0.1500 F30
G01 X37.7777 F508
G00 Z5.0000
G00 X38.0719 Y7.4725
G00 Z0.5000
G01 Z-0.1500 F30
G01 X38.2057 F508
G00 Z5.0000
G00 X38.9622
G00 Z0.5000
G01 Z-0.1500 F30
G01 X39.1845 F508
G00 Z5.0000
G00 X39.2993 Y6.3475
G00 Z0.5000
G01 Z-0.1500 F30
G01 X39.2064 Y6.3401 F508
G01 X38.6917 Y6.3301
G01 X38.3830 Y6.3095
G01 X38.3440 Y6.3022
G01 X38.1441 Y6.2565
G01 X38.1205 Y6.2485
G01 X37.9568 Y6.1625
G01 X37.9360 Y6.1487
G01 X37.8101 Y6.0214
G01 X37.7945 Y6.0019
G01 X37.7883 Y5.9911
G01 X37.7144 Y5.8290
G01 X37.7064 Y5.8053
G01 X37.6804 Y5.5934
G01 X37.6799 Y5.5684
G01 X37.7131 Y5.3482
G03 X37.7407 Y5.2845 I0.1493 J0.0268
G01 X37.8268 Y5.1442
G01 X37.8339 Y5.1339
G01 X37.8509 Y5.1157
G01 X37.8841 Y5.0930
G01 X38.0343 Y4.9999
G01 X38.0577 Y4.9911
G01 X38.0699 Y4.9885
G01 X38.2819 Y4.9559
G01 X38.3068 Y4.9546
G01 X38.3357 Y4.9577
G01 X38.5817 Y4.9880
G01 X38.6204 Y5.0018
G01 X38.8369 Y5.0911
G01 X38.8706 Y5.1150
G01 X39.0417 Y5.2475
G01 X39.0598 Y5.2647
G01 X39.2148 Y5.4718
G01 X39.2309 Y5.5066
G01 X39.3179 Y5.7159
G01 X39.3250 Y5.7555
G01 X39.3535 Y5.9702
G01 X39.3530 Y6.2285
G03 X39.2064 Y6.3401 I-0.1261 J-0.0135
G01 X39.2993 Y6.3475
G00 Z5.0000
G00 Z0.5000
G01 Z-0.1500 F30
G01 X39.2687 Y6.4395 F508
G03 X39.3536 Y6.5578 I-0.0397 J0.1181
G01 Y6.7207
G01 X39.3171 Y7.0205
G01 X39.3130 Y7.0506
G01 X39.3054 Y7.0744
G01 X39.1842 Y7.2942
G03 X39.1405 Y7.3379 I-0.1075 J-0.0637
G01 X38.9624 Y7.4437
G03 X38.8984 Y7.4703 I-0.0853 J-0.1152
G01 X38.6120 Y7.5094
G01 X38.5995 Y7.5101
G01 X38.3026 Y7.4816
G01 X38.2781 Y7.4765
G01 X38.0641 Y7.3847
G01 X38.0534 Y7.3784
G01 X38.0339 Y7.3627
G01 X37.8977 Y7.1975
G01 X37.8914 Y7.1867
G01 X37.8822 Y7.1635
G01 X37.8508 Y7.0524
G01 X37.6430 Y7.0718
G01 X37.8659 Y7.4429
G01 X37.8772 Y7.4512
G01 X38.6169 Y7.6297
G01 X39.0555 Y7.5724
G01 X39.3478 Y7.4126
G01 X39.3616 Y7.3999
G01 X39.5335 Y7.1455
G01 X39.5956 Y6.7687
G01 X39.5972 Y6.7494
G01 Y5.5253
G01 X39.5976 Y5.4960
G01 X39.6140 Y5.2899
G01 X39.6539 Y5.1602
G03 X40.0312 Y4.9398 I0.3291 J0.1302
G01 Y4.8889
G01 X39.9554 Y4.8757
G01 X39.7921 Y4.8663
G01 X39.7782 Y4.8670
G01 X39.5911 Y4.8954
G01 X39.4871 Y4.9647
G01 X39.4763 Y4.9766
G01 X39.4080 Y5.1059
G01 X39.3680 Y5.3502
G03 X39.1264 Y5.4010 I-0.1328 J-0.0315
G02 X37.8470 Y4.8913 I-0.9279 J0.4686
G01 X37.6169 Y5.0365
G01 X37.4781 Y5.2666
G01 X37.4295 Y5.5847
G01 X37.4951 Y5.9376
G01 X37.6780 Y6.1792
G01 X37.6924 Y6.1910
G01 X38.0297 Y6.3522
G01 X38.5784 Y6.4221
G01 X39.2374 Y6.4331
G01 X39.2620 Y6.4373
G01 X39.2993 Y6.3475
G00 Z5.0000
G00 X37.9909 Y4.9975
G00 Z0.3500
G01 Z-0.2500 F30
G01 X37.7277 F508
G01 X37.7494 Y5.2225
G01 X37.5339
G01 X37.4757 Y5.4475
G01 X37.6729
G01 X37.6650 Y5.6725
G01 X37.4718
G01 X37.5150 Y5.8975
G01 X37.7182
G01 X37.6680 Y6.1225
G01 X37.8751
G00 Z5.0000
G00 X39.4935 Y4.9975
G00 Z0.3500
G01 Z-0.2500 F30
G01 X39.7489 F508
G01 X39.6087 Y5.2225
G01 X39.4142
G01 X39.3365 Y5.4475
G01 X39.5762
G01 X39.5722 Y5.6725
G01 X39.3268
G01 X39.3690 Y5.8975
G01 X39.5722
G01 Y6.1225
G01 X39.3786
G01 X39.2993 Y6.3475
G01 X39.5722
G01 Y6.5725
G01 X39.3780
G01 X39.3693 Y6.7975
G01 X39.5656
G01 X39.5284 Y7.0225
G01 X39.3421
G01 X39.4344 Y7.2475
G01 X39.2385
G00 Z5.0000
G00 X38.5768 Y6.3475
G00 Z0.3500
G01 Z-0.2500 F30
G01 X38.1906 F508
G00 Z5.0000
G00 X37.9067 Y7.2475
G00 Z0.3500
G01 Z-0.2500 F30
G01 X37.7777 F508
G00 Z5.0000
G00 X38.0719 Y7.4725
G00 Z0.3500
G01 Z-0.2500 F30
G01 X38.2057 F508
G00 Z5.0000
G00 X38.9622
G00 Z0.3500
G01 Z-0.2500 F30
G01 X39.1845 F508
G00 Z5.0000
G00 X39.2993 Y6.3475
G00 Z0.3500
G01 Z-0.2500 F30
G01 X39.2064 Y6.3401 F508
G01 X38.6917 Y6.3301
G01 X38.3830 Y6.3095
G01 X38.3440 Y6.3022
G01 X38.1441 Y6.2565
G01 X38.1205 Y6.2485
G01 X37.9568 Y6.1625
G01 X37.9360 Y6.1487
G01 X37.8101 Y6.0214
G01 X37.7945 Y6.0019
G01 X37.7883 Y5.9911
G01 X37.7144 Y5.8290
G01 X37.7064 Y5.8053
G01 X37.6804 Y5.5934
G01 X37.6799 Y5.5684
G01 X37.7131 Y5.3482
G03 X37.7407 Y5.2845 I0.1493 J0.0268
G01 X37.8268 Y5.1442
G01 X37.8339 Y5.1339
G01 X37.8509 Y5.1157
G01 X37.8841 Y5.0930
G01 X38.0343 Y4.9999
G01 X38.0577 Y4.9911
G01 X38.0699 Y4.9885
G01 X38.2819 Y4.9559
G01 X38.3068 Y4.9546
G01 X38.3357 Y4.9577
G01 X38.5817 Y4.9880
G01 X38.6204 Y5.0018
G01 X38.8369 Y5.0911
G01 X38.8706 Y5.1150
G01 X39.0417 Y5.2475
G01 X39.0598 Y5.2647
G01 X39.2148 Y5.4718
G01 X39.2309 Y5.5066
G01 X39.3179 Y5.7159
G01 X39.3250 Y5.7555
G01 X39.3535 Y5.9702
G01 X39.3530 Y6.2285
G03 X39.2064 Y6.3401 I-0.1261 J-0.0135
G01 X39.2993 Y6.3475
G00 Z5.0000
G00 Z0.3500
G01 Z-0.2500 F30
G01 X39.2687 Y6.4395 F508
G03 X39.3536 Y6.5578 I-0.0397 J0.1181
G01 Y6.7207
G01 X39.3171 Y7.0205
G01 X39.3130 Y7.0506
G01 X39.3054 Y7.0744
G01 X39.1842 Y7.2942
G03 X39.1405 Y7.3379 I-0.1075 J-0.0637
G01 X38.9624 Y7.4437
G03 X38.8984 Y7.4703 I-0.0853 J-0.1152
G01 X38.6120 Y7.5094
G01 X38.5995 Y7.5101
G01 X38.3026 Y7.4816
G01 X38.2781 Y7.4765
G01 X38.0641 Y7.3847
G01 X38.0534 Y7.3784
G01 X38.0339 Y7.3627
G01 X37.8977 Y7.1975
G01 X37.8914 Y7.1867
G01 X37.8822 Y7.1635
G01 X37.8508 Y7.0524
G01 X37.6430 Y7.0718
G01 X37.8659 Y7.4429
G01 X37.8772 Y7.4512
G01 X38.6169 Y7.6297
G01 X39.0555 Y7.5724
G01 X39.3478 Y7.4126
G01 X39.3616 Y7.3999
G01 X39.5335 Y7.1455
G01 X39.5956 Y6.7687
G01 X39.5972 Y6.7494
G01 Y5.5253
G01 X39.5976 Y5.4960
G01 X39.6140 Y5.2899
G01 X39.6539 Y5.1602
G03 X40.0312 Y4.9398 I0.3291 J0.1302
G01 Y4.8889
G01 X39.9554 Y4.8757
G01 X39.7921 Y4.8663
G01 X39.7782 Y4.8670
G01 X39.5911 Y4.8954
G01 X39.4871 Y4.9647
G01 X39.4763 Y4.9766
G01 X39.4080 Y5.1059
G01 X39.3680 Y5.3502
G03 X39.1264 Y5.4010 I-0.1328 J-0.0315
G02 X37.8470 Y4.8913 I-0.9279 J0.4686
G01 X37.6169 Y5.0365
G01 X37.4781 Y5.2666
G01 X37.4295 Y5.5847
G01 X37.4951 Y5.9376
G01 X37.6780 Y6.1792
G01 X37.6924 Y6.1910
G01 X38.0297 Y6.3522
G01 X38.5784 Y6.4221
G01 X39.2374 Y6.4331
G01 X39.2620 Y6.4373
G01 X39.2993 Y6.3475
G00 Z5.0000


(No. 11: Hole 15)
G00 X40.6083 Y4.9802 Z20.0000
G00 Z0.5000
G01 Z-0.1500 F30
G01 X40.7966 F508
G01 Y5.2052
G01 X40.6083
G01 Y5.4302
G01 X40.7966
G01 Y5.6552
G01 X40.6083
G01 Y5.8802
G01 X40.7966
G01 Y6.1052
G01 X40.6083
G01 Y6.3302
G01 X40.7966
G01 Y6.5552
G01 X40.6083
G01 Y6.7802
G01 X40.7966
G01 Y7.0052
G01 X40.6083
G01 Y7.2302
G01 X40.7966
G01 Y7.4552
G01 X40.6083
G01 Y7.6802
G01 X40.7966
G01 Y7.9052
G01 X40.6083
G01 Y8.1302
G01 X40.7966
G01 Y8.3552
G01 X40.6083
G01 Y8.5802
G01 X40.7966
G00 Z5.0000
G00 Z0.5000
G01 Z-0.1500 F30
G01 X40.8216 F508
G01 Y4.8925
G01 X40.5833
G01 Y8.6679
G01 X40.8216
G01 Y8.5802
G01 X40.7966
G00 Z5.0000
G00 Y4.9802
G00 Z0.3500
G01 Z-0.2500 F30
G01 X40.6083 F508
G01 Y5.2052
G01 X40.7966
G01 Y5.4302
G01 X40.6083
G01 Y5.6552
G01 X40.7966
G01 Y5.8802
G01 X40.6083
G01 Y6.1052
G01 X40.7966
G01 Y6.3302
G01 X40.6083
G01 Y6.5552
G01 X40.7966
G01 Y6.7802
G01 X40.6083
G01 Y7.0052
G01 X40.7966
G01 Y7.2302
G01 X40.6083
G01 Y7.4552
G01 X40.7966
G01 Y7.6802
G01 X40.6083
G01 Y7.9052
G01 X40.7966
G01 Y8.1302
G01 X40.6083
G01 Y8.3552
G01 X40.7966
G01 Y8.5802
G01 X40.6083
G00 Z5.0000
G00 Z0.3500
G01 Z-0.2500 F30
G01 X40.5833 F508
G01 Y8.6679
G01 X40.8216
G01 Y4.8925
G01 X40.5833
G01 Y8.5802
G01 X40.6083
G00 Z5.0000


(No. 12: Hole 16)
G00 X41.8137 Y4.9802 Z20.0000
G00 Z0.5000
G01 Z-0.1500 F30
G01 X42.0019 F508
G01 Y5.2052
G01 X41.8137
G01 Y5.4302
G01 X42.0019
G01 Y5.6552
G01 X41.8137
G01 Y5.8802
G01 X42.0019
G01 Y6.1052
G01 X41.8137
G01 Y6.3302
G01 X42.0019
G01 Y6.5552
G01 X41.8137
G01 Y6.7802
G01 X42.0019
G01 Y7.0052
G01 X41.8137
G01 Y7.2302
G01 X42.0019
G01 Y7.4552
G01 X41.8137
G01 Y7.6802
G01 X42.0019
G01 Y7.9052
G01 X41.8137
G01 Y8.1302
G01 X42.0019
G01 Y8.3552
G01 X41.8137
G01 Y8.5802
G01 X42.0019
G00 Z5.0000
G00 Z0.5000
G01 Z-0.1500 F30
G01 X42.0269 F508
G01 Y4.8925
G01 X41.7887
G01 Y8.6679
G01 X42.0269
G01 Y8.5802
G01 X42.0019
G00 Z5.0000
G00 Y4.9802
G00 Z0.3500
G01 Z-0.2500 F30
G01 X41.8137 F508
G01 Y5.2052
G01 X42.0019
G01 Y5.4302
G01 X41.8137
G01 Y5.6552
G01 X42.0019
G01 Y5.8802
G01 X41.8137
G01 Y6.1052
G01 X42.0019
G01 Y6.3302
G01 X41.8137
G01 Y6.5552
G01 X42.0019
G01 Y6.7802
G01 X41.8137
G01 Y7.0052
G01 X42.0019
G01 Y7.2302
G01 X41.8137
G01 Y7.4552
G01 X42.0019
G01 Y7.6802
G01 X41.8137
G01 Y7.9052
G01 X42.0019
G01 Y8.1302
G01 X41.8137
G01 Y8.3552
G01 X42.0019
G01 Y8.5802
G01 X41.8137
G00 Z5.0000
G00 Z0.3500
G01 Z-0.2500 F30
G01 X41.7887 F508
G01 Y8.6679
G01 X42.0269
G01 Y4.8925
G01 X41.7887
G01 Y8.5802
G01 X41.8137
G00 Z5.0000


(No. 13: Hole 17)
G00 X43.1520 Y5.0645 Z20.0000
G00 Z0.5000
G01 Z-0.1500 F30
G01 X43.3809 F508
G00 Z5.0000
G00 Z0.5000
G01 Z-0.1500 F30
G01 X43.4059 F508
G01 Y4.8925
G01 X43.1270
G01 Y5.2366
G01 X43.4059
G01 Y5.0645
G01 X43.3809
G00 Z5.0000
G00 Z0.3500
G01 Z-0.2500 F30
G01 X43.1520 F508
G00 Z5.0000
G00 Z0.3500
G01 Z-0.2500 F30
G01 X43.1270 F508
G01 Y5.2366
G01 X43.4059
G01 Y4.8925
G01 X43.1270
G01 Y5.0645
G01 X43.1520
G00 Z5.0000


(No. 14: Hole 18)
G00 X44.5372 Y5.0246 Z20.0000
G00 Z0.5000
G01 Z-0.1500 F30
G01 X44.7255 F508
G01 Y5.2496
G01 X44.5372
G01 Y5.4746
G01 X44.7255
G01 Y5.6996
G01 X44.5372
G01 Y5.9246
G01 X44.7255
G01 Y6.1496
G01 X44.5372
G01 Y6.3746
G01 X44.7255
G01 X44.7417 Y6.5996
G01 X44.5372
G01 Y6.8246
G01 X44.7717
G01 X44.8624 Y7.0496
G01 X44.5372
G01 X44.5353 Y7.2746
G01 X44.7019
G01 X44.6934 Y7.4996
G01 X44.5325
G00 Z5.0000
G00 X46.3899 Y5.0246
G00 Z0.5000
G01 Z-0.1500 F30
G01 X46.5808 F508
G01 Y5.2496
G01 X46.3899
G01 X46.3898 Y5.4746
G01 X46.5808
G01 Y5.6996
G01 X46.3898
G01 Y5.9246
G01 X46.5808
G01 Y6.1496
G01 X46.3897
G01 Y6.3746
G01 X46.5808
G01 Y6.5996
G01 X46.3897
G01 X46.3790 Y6.8246
G01 X46.5678
G01 X46.5414 Y7.0496
G01 X46.3428
G01 X46.2478 Y7.2746
G01 X46.4651
G01 X46.2510 Y7.4996
G01 X45.9079
G00 Z5.0000
G00 X45.4638
G00 Z0.5000
G01 Z-0.1500 F30
G01 X45.3286 F508
G00 Z5.0000
G00 Z0.5000
G01 Z-0.1500 F30
G01 X45.3198 Y7.5230 F508
G02 X46.1747 Y7.5767 I0.4986 J-1.1052
G01 X46.4069 Y7.4318
G01 X46.4151 Y7.4230
G01 X46.5535 Y7.1605
G01 X46.6058 Y6.7159
G01 Y4.8925
G01 X46.3649
G01 X46.3647 Y6.6352
G01 X46.3497 Y6.9007
G01 X46.3093 Y7.0861
G01 X46.2984 Y7.1264
G01 X46.2286 Y7.2577
G01 X46.2077 Y7.2929
G01 X46.1906 Y7.3110
G01 X46.0978 Y7.3908
G03 X46.0417 Y7.4273 I-0.1053 J-0.1003
G01 X45.8821 Y7.4820
G01 X45.8699 Y7.4849
G01 X45.6364 Y7.5046
G01 X45.6115 Y7.5024
G01 X45.2894 Y7.4406
G01 X45.2659 Y7.4321
G01 X45.2446 Y7.4192
G03 X44.8129 Y6.9024 I0.6407 J-0.9739
G01 X44.8082 Y6.8908
G01 X44.8025 Y6.8666
G01 X44.7505 Y6.4683
G01 Y4.8925
G01 X44.5122
G01 Y7.0771
G01 X44.5080 Y7.4960
G01 X44.5038 Y7.5698
G01 X44.5110 Y7.5774
G01 X44.7121
G01 X44.7158 Y7.5588
G01 X44.7194 Y7.4866
G01 X44.7296 Y7.1868
G03 X44.9070 Y7.0875 I0.1242 J0.0138
G01 X45.0845 Y7.3045
G01 X45.1381 Y7.3761
G01 X45.3147 Y7.5210
G01 X45.3286 Y7.4996
G00 Z5.0000
G00 X44.7255 Y5.0246
G00 Z0.3500
G01 Z-0.2500 F30
G01 X44.5372 F508
G01 Y5.2496
G01 X44.7255
G01 Y5.4746
G01 X44.5372
G01 Y5.6996
G01 X44.7255
G01 Y5.9246
G01 X44.5372
G01 Y6.1496
G01 X44.7255
G01 Y6.3746
G01 X44.5372
G01 Y6.5996
G01 X44.7417
G01 X44.7717 Y6.8246
G01 X44.5372
G01 Y7.0496
G01 X44.8624
G01 X44.7019 Y7.2746
G01 X44.5353
G01 X44.5325 Y7.4996
G01 X44.6934
G00 Z5.0000
G00 X46.3899 Y5.0246
G00 Z0.3500
G01 Z-0.2500 F30
G01 X46.5808 F508
G01 Y5.2496
G01 X46.3899
G01 X46.3898 Y5.4746
G01 X46.5808
G01 Y5.6996
G01 X46.3898
G01 Y5.9246
G01 X46.5808
G01 Y6.1496
G01 X46.3897
G01 Y6.3746
G01 X46.5808
G01 Y6.5996
G01 X46.3897
G01 X46.3790 Y6.8246
G01 X46.5678
G01 X46.5414 Y7.0496
G01 X46.3428
G01 X46.2478 Y7.2746
G01 X46.4651
G01 X46.2510 Y7.4996
G01 X45.9079
G00 Z5.0000
G00 X45.4638
G00 Z0.3500
G01 Z-0.2500 F30
G01 X45.3286 F508
G00 Z5.0000
G00 Z0.3500
G01 Z-0.2500 F30
G01 X45.3198 Y7.5230 F508
G02 X46.1747 Y7.5767 I0.4986 J-1.1052
G01 X46.4069 Y7.4318
G01 X46.4151 Y7.4230
G01 X46.5535 Y7.1605
G01 X46.6058 Y6.7159
G01 Y4.8925
G01 X46.3649
G01 X46.3647 Y6.6352
G01 X46.3497 Y6.9007
G01 X46.3093 Y7.0861
G01 X46.2984 Y7.1264
G01 X46.2286 Y7.2577
G01 X46.2077 Y7.2929
G01 X46.1906 Y7.3110
G01 X46.0978 Y7.3908
G03 X46.0417 Y7.4273 I-0.1053 J-0.1003
G01 X45.8821 Y7.4820
G01 X45.8699 Y7.4849
G01 X45.6364 Y7.5046
G01 X45.6115 Y7.5024
G01 X45.2894 Y7.4406
G01 X45.2659 Y7.4321
G01 X45.2446 Y7.4192
G03 X44.8129 Y6.9024 I0.6407 J-0.9739
G01 X44.8082 Y6.8908
G01 X44.8025 Y6.8666
G01 X44.7505 Y6.4683
G01 Y4.8925
G01 X44.5122
G01 Y7.0771
G01 X44.5080 Y7.4960
G01 X44.5038 Y7.5698
G01 X44.5110 Y7.5774
G01 X44.7121
G01 X44.7158 Y7.5588
G01 X44.7194 Y7.4866
G01 X44.7296 Y7.1868
G03 X44.9070 Y7.0875 I0.1242 J0.0138
G01 X45.0845 Y7.3045
G01 X45.1381 Y7.3761
G01 X45.3147 Y7.5210
G01 X45.3286 Y7.4996
G00 Z5.0000


(No. 15: Hole 19)
G00 X48.4716 Y4.8850 Z20.0000
G00 Z0.5000
G01 Z-0.1500 F30
G01 X48.6661 F508
G00 Z5.0000
G00 X48.0411 Y5.1100
G00 Z0.5000
G01 Z-0.1500 F30
G01 X47.8476 F508
G00 Z5.0000
G00 X49.2114
G00 Z0.5000
G01 Z-0.1500 F30
G01 X49.3426 F508
G00 Z5.0000
G00 X47.8199 Y5.3350
G00 Z0.5000
G01 Z-0.1500 F30
G01 X47.6417 F508
G01 X47.7134 Y5.5600
G01 X47.5226
G01 X47.4661 Y5.7850
G01 X47.6575
G01 X47.6312 Y6.0100
G01 X47.4376
G01 X47.4091 Y6.2350
G01 X47.6592
G01 X47.6316 Y6.4600
G01 X47.4340
G01 X47.4638 Y6.6850
G01 X47.6522
G01 X47.6921 Y6.9100
G01 X47.5187
G01 X47.6416 Y7.1350
G01 X47.8115
G00 Z5.0000
G00 X49.4996 Y6.4600
G00 Z0.5000
G01 Z-0.1500 F30
G01 X49.6330 F508
G00 Z5.0000
G00 X49.4470 Y7.1350
G00 Z0.5000
G01 Z-0.1500 F30
G01 X49.3213 F508
G00 Z5.0000
G00 X48.0190 Y7.3600
G00 Z0.5000
G01 Z-0.1500 F30
G01 X47.8439 F508
G00 Z5.0000
G00 X48.4561 Y7.5850
G00 Z0.5000
G01 Z-0.1500 F30
G01 X48.5932 F508
G00 Z5.0000
G00 X48.5823
G00 Z0.5000
G01 Z-0.1500 F30
G01 Y7.5189 F508
G01 X48.5555 Y7.5208
G01 X48.5175 Y7.5151
G01 X48.2188 Y7.4595
G03 X48.1520 Y7.4259 I0.0352 J-0.1533
G01 X47.9236 Y7.2596
G01 X47.9050 Y7.2430
G01 X47.8901 Y7.2230
G01 X47.7288 Y6.9385
G01 X47.7187 Y6.9156
G01 X47.7109 Y6.8784
G01 X47.6503 Y6.5275
G01 X47.6486 Y6.5026
G03 X47.7683 Y6.3813 I0.1249 J0.0036
G01 X49.3575 Y6.3812
G03 X49.4815 Y6.5223 I0.0000 J0.1250
G01 X49.3978 Y6.9437
G01 X49.3882 Y6.9667
G01 X49.2302 Y7.2448
G03 X49.1745 Y7.2979 I-0.1302 J-0.0805
G01 X48.9531 Y7.4465
G03 X48.8841 Y7.4693 I-0.0841 J-0.1390
G01 X48.5823 Y7.5189
G01 Y7.5850
G00 Z5.0000
G00 X48.5931
G00 Z0.5000
G01 Z-0.1500 F30
G01 Y7.6119 F508
G01 X49.4346 Y7.2738
G01 X49.7150 Y6.2601
G01 X49.7021 Y6.2569
G01 X47.7880
G03 X47.6434 Y6.1424 I-0.0180 J-0.1258
G01 X47.6438 Y6.1174
G01 X47.6964 Y5.6674
G01 X47.7024 Y5.6432
G01 X47.7072 Y5.6316
G01 X47.8670 Y5.2939
G01 X47.8810 Y5.2732
G01 X47.8988 Y5.2558
G01 X48.1402 Y5.0628
G03 X48.1980 Y5.0282 I0.1014 J0.1038
G01 X48.5637 Y4.9567
G01 X48.5886 Y4.9544
G01 X48.6011 Y4.9552
G01 X48.8985 Y4.9889
G01 X48.9223 Y4.9964
G01 X49.1483 Y5.0935
G01 X49.1698 Y5.1061
G01 X49.1795 Y5.1140
G01 X49.3514 Y5.2704
G01 X49.3656 Y5.2909
G01 X49.4167 Y5.3821
G01 X49.5596 Y5.3332
G01 X49.2836 Y4.9994
G01 X48.5837 Y4.8407
G01 X48.0623 Y4.9289
G01 X47.7000 Y5.1809
G01 X47.6875 Y5.1950
G01 X47.4616 Y5.6216
G01 X47.3819 Y6.2574
G01 X47.4614 Y6.8570
G01 X47.6918 Y7.2835
G01 X48.0581 Y7.5413
G01 X48.5587 Y7.6258
G01 X48.5931 Y7.6119
G01 Y7.5850
G00 Z5.0000
G00 X48.6661 Y4.8850
G00 Z0.3500
G01 Z-0.2500 F30
G01 X48.4716 F508
G00 Z5.0000
G00 X48.0411 Y5.1100
G00 Z0.3500
G01 Z-0.2500 F30
G01 X47.8476 F508
G00 Z5.0000
G00 X49.2114
G00 Z0.3500
G01 Z-0.2500 F30
G01 X49.3426 F508
G00 Z5.0000
G00 X47.8199 Y5.3350
G00 Z0.3500
G01 Z-0.2500 F30
G01 X47.6417 F508
G01 X47.7134 Y5.5600
G01 X47.5226
G01 X47.4661 Y5.7850
G01 X47.6575
G01 X47.6312 Y6.0100
G01 X47.4376
G01 X47.4091 Y6.2350
G01 X47.6592
G01 X47.6316 Y6.4600
G01 X47.4340
G01 X47.4638 Y6.6850
G01 X47.6522
G01 X47.6921 Y6.9100
G01 X47.5187
G01 X47.6416 Y7.1350
G01 X47.8115
G00 Z5.0000
G00 X49.4996 Y6.4600
G00 Z0.3500
G01 Z-0.2500 F30
G01 X49.6330 F508
G00 Z5.0000
G00 X49.4470 Y7.1350
G00 Z0.3500
G01 Z-0.2500 F30
G01 X49.3213 F508
G00 Z5.0000
G00 X48.0190 Y7.3600
G00 Z0.3500
G01 Z-0.2500 F30
G01 X47.8439 F508
G00 Z5.0000
G00 X48.4561 Y7.5850
G00 Z0.3500
G01 Z-0.2500 F30
G01 X48.5932 F508
G00 Z5.0000
G00 X48.5823
G00 Z0.3500
G01 Z-0.2500 F30
G01 Y7.5189 F508
G01 X48.5555 Y7.5208
G01 X48.5175 Y7.5151
G01 X48.2188 Y7.4595
G03 X48.1520 Y7.4259 I0.0352 J-0.1533
G01 X47.9236 Y7.2596
G01 X47.9050 Y7.2430
G01 X47.8901 Y7.2230
G01 X47.7288 Y6.9385
G01 X47.7187 Y6.9156
G01 X47.7109 Y6.8784
G01 X47.6503 Y6.5275
G01 X47.6486 Y6.5026
G03 X47.7683 Y6.3813 I0.1249 J0.0036
G01 X49.3575 Y6.3812
G03 X49.4815 Y6.5223 I0.0000 J0.1250
G01 X49.3978 Y6.9437
G01 X49.3882 Y6.9667
G01 X49.2302 Y7.2448
G03 X49.1745 Y7.2979 I-0.1302 J-0.0805
G01 X48.9531 Y7.4465
G03 X48.8841 Y7.4693 I-0.0841 J-0.1390
G01 X48.5823 Y7.5189
G01 Y7.5850
G00 Z5.0000
G00 X48.5931
G00 Z0.3500
G01 Z-0.2500 F30
G01 Y7.6119 F508
G01 X49.4346 Y7.2738
G01 X49.7150 Y6.2601
G01 X49.7021 Y6.2569
G01 X47.7880
G03 X47.6434 Y6.1424 I-0.0180 J-0.1258
G01 X47.6438 Y6.1174
G01 X47.6964 Y5.6674
G01 X47.7024 Y5.6432
G01 X47.7072 Y5.6316
G01 X47.8670 Y5.2939
G01 X47.8810 Y5.2732
G01 X47.8988 Y5.2558
G01 X48.1402 Y5.0628
G03 X48.1980 Y5.0282 I0.1014 J0.1038
G01 X48.5637 Y4.9567
G01 X48.5886 Y4.9544
G01 X48.6011 Y4.9552
G01 X48.8985 Y4.9889
G01 X48.9223 Y4.9964
G01 X49.1483 Y5.0935
G01 X49.1698 Y5.1061
G01 X49.1795 Y5.1140
G01 X49.3514 Y5.2704
G01 X49.3656 Y5.2909
G01 X49.4167 Y5.3821
G01 X49.5596 Y5.3332
G01 X49.2836 Y4.9994
G01 X48.5837 Y4.8407
G01 X48.0623 Y4.9289
G01 X47.7000 Y5.1809
G01 X47.6875 Y5.1950
G01 X47.4616 Y5.6216
G01 X47.3819 Y6.2574
G01 X47.4614 Y6.8570
G01 X47.6918 Y7.2835
G01 X48.0581 Y7.5413
G01 X48.5587 Y7.6258
G01 X48.5931 Y7.6119
G01 Y7.5850
G00 Z5.0000


(No. 16: Hole 20)
G00 X50.8370 Y4.9665 Z20.0000
G00 Z0.5000
G01 Z-0.1500 F30
G01 X51.2167 F508
G01 X50.8559
G01 Y5.1915
G01 X50.6741
G01 X50.6098 Y5.4165
G01 X50.8053
G01 X50.7982 Y5.6415
G01 X50.6098
G01 X50.6097 Y5.8665
G01 X50.7982
G01 X50.7983 Y6.0915
G01 X50.6097
G01 X50.6096 Y6.3165
G01 X50.7984
G01 X50.7985 Y6.5415
G01 X50.6096
G01 X50.6095 Y6.7665
G01 X50.7986
G01 X50.7987 Y6.9915
G01 X50.6095
G01 Y7.2165
G01 X50.7988
G01 X50.8318 Y7.4415
G01 X50.5762
G01 X50.6241 Y7.6665
G01 X50.8028
G00 Z5.0000
G00 Z0.5000
G01 Z-0.1500 F30
G01 X50.8274 Y7.6707 F508
G03 X50.9356 Y7.5781 I0.1206 J0.0313
G01 X51.3656 Y7.5774
G01 Y7.4721
G01 X50.9681
G01 X50.9269 Y7.4703
G03 X50.8237 Y7.3596 I0.0212 J-0.1232
G01 X50.8231 Y5.5145
G01 X50.8237 Y5.4825
G01 X50.8433 Y5.2875
G01 X50.8511 Y5.2638
G01 X50.9061 Y5.1402
G03 X50.9471 Y5.0939 I0.1111 J0.0572
G01 X51.0469 Y5.0265
G03 X51.0936 Y5.0097 I0.0649 J0.1068
G01 X51.2547 Y4.9870
G01 X51.3666 Y4.9953
G01 X51.4144 Y5.0012
G01 Y4.8917
G02 X50.7087 Y4.9852 I-0.2627 J0.7270
G01 X50.5848 Y5.4087
G01 X50.5845 Y7.3560
G03 X50.4598 Y7.4721 I-0.1247 J-0.0088
G01 X50.2458
G01 Y7.5774
G01 X50.4588
G03 X50.6009 Y7.6757 I0.0177 J0.1263
G01 X50.7232 Y8.2339
G01 X50.8231
G01 X50.8234 Y7.6936
G01 X50.8274 Y7.6707
G01 X50.8028 Y7.6665
G00 Z5.0000
G00 X50.8370 Y4.9665
G00 Z0.3500
G01 Z-0.2500 F30
G01 X51.2167 F508
G01 X50.8559
G01 Y5.1915
G01 X50.6741
G01 X50.6098 Y5.4165
G01 X50.8053
G01 X50.7982 Y5.6415
G01 X50.6098
G01 X50.6097 Y5.8665
G01 X50.7982
G01 X50.7983 Y6.0915
G01 X50.6097
G01 X50.6096 Y6.3165
G01 X50.7984
G01 X50.7985 Y6.5415
G01 X50.6096
G01 X50.6095 Y6.7665
G01 X50.7986
G01 X50.7987 Y6.9915
G01 X50.6095
G01 Y7.2165
G01 X50.7988
G01 X50.8318 Y7.4415
G01 X50.5762
G01 X50.6241 Y7.6665
G01 X50.8028
G00 Z5.0000
G00 Z0.3500
G01 Z-0.2500 F30
G01 X50.8274 Y7.6707 F508
G03 X50.9356 Y7.5781 I0.1206 J0.0313
G01 X51.3656 Y7.5774
G01 Y7.4721
G01 X50.9681
G01 X50.9269 Y7.4703
G03 X50.8237 Y7.3596 I0.0212 J-0.1232
G01 X50.8231 Y5.5145
G01 X50.8237 Y5.4825
G01 X50.8433 Y5.2875
G01 X50.8511 Y5.2638
G01 X50.9061 Y5.1402
G03 X50.9471 Y5.0939 I0.1111 J0.0572
G01 X51.0469 Y5.0265
G03 X51.0936 Y5.0097 I0.0649 J0.1068
G01 X51.2547 Y4.9870
G01 X51.3666 Y4.9953
G01 X51.4144 Y5.0012
G01 Y4.8917
G02 X50.7087 Y4.9852 I-0.2627 J0.7270
G01 X50.5848 Y5.4087
G01 X50.5845 Y7.3560
G03 X50.4598 Y7.4721 I-0.1247 J-0.0088
G01 X50.2458
G01 Y7.5774
G01 X50.4588
G03 X50.6009 Y7.6757 I0.0177 J0.1263
G01 X50.7232 Y8.2339
G01 X50.8231
G01 X50.8234 Y7.6936
G01 X50.8274 Y7.6707
G01 X50.8028 Y7.6665
G00 Z5.0000


(No. 17: Hole 4)
G00 X36.4090 Y20.8298 Z20.0000
G00 Z0.5000
G01 Z-0.1500 F30
G01 X35.7676 F508
G00 Z5.0000
G00 X36.5318
G00 Z0.5000
G01 Z-0.1500 F30
G01 X37.1631 F508
G00 Z5.0000
G00 X35.6725 Y21.0548
G00 Z0.5000
G01 Z-0.1500 F30
G01 X35.3560 F508
G01 X35.3670 Y21.2798
G01 X35.1220
G01 X35.2323 Y21.5048
G01 X34.9663
G01 X34.8739 Y21.7298
G01 X35.1093
G01 X35.0321 Y21.9548
G01 X34.7965
G01 X34.7622 Y22.1798
G01 X35.0005
G01 X34.9689 Y22.4048
G01 X34.7399
G01 X34.7427 Y22.6298
G01 X34.9649
G01 X34.9959 Y22.8548
G01 X34.7772
G01 X34.8118 Y23.0798
G01 X35.0270
G01 X35.0920 Y23.3048
G01 X34.8499
G01 X34.9868 Y23.5298
G01 X35.2169
G01 X35.1241 Y23.7548
G01 X35.3456
G00 Z5.0000
G00 X37.2872 Y21.0548
G00 Z0.5000
G01 Z-0.1500 F30
G01 X37.5752 F508
G00 Z5.0000
G00 X37.5970 Y21.2798
G00 Z0.5000
G01 Z-0.1500 F30
G01 X37.8128 F508
G01 X37.7229 Y21.5048
G01 X37.9705
G01 X38.0666 Y21.7298
G01 X37.8438
G01 X37.9131 Y21.9548
G01 X38.1460
G01 X38.1810 Y22.1798
G01 X37.9429
G01 X37.9727 Y22.4048
G01 X38.2042
G01 X38.2070 Y22.6298
G01 X37.9772
G01 X37.9457 Y22.8548
G01 X38.1847
G01 X38.1577 Y23.0798
G01 X37.9142
G01 X37.8468 Y23.3048
G01 X38.0786
G01 X37.9918 Y23.5298
G01 X37.7225
G01 X37.8318 Y23.7548
G01 X37.5929
G01 X37.5988 Y23.9798
G01 X37.2821
G00 Z5.0000
G00 X35.6585
G00 Z0.5000
G01 Z-0.1500 F30
G01 X35.3741 F508
G00 Z5.0000
G00 X35.7225 Y24.2048
G00 Z0.5000
G01 Z-0.1500 F30
G01 X36.4278 F508
G00 Z5.0000
G00 X36.5215
G00 Z0.5000
G01 Z-0.1500 F30
G01 X37.1833 F508
G00 Z5.0000
G00 X37.1071
G00 Z0.5000
G01 Z-0.1500 F30
G01 Y24.0709 F508
G01 X37.0792 Y24.0811
G01 X37.0543 Y24.0856
G01 X36.4966 Y24.1838
G01 X36.4717 Y24.1857
G01 X36.4339 Y24.1805
G01 X35.8718 Y24.0835
G01 X35.8477 Y24.0768
G01 X35.8255 Y24.0655
G01 X35.3890 Y23.7619
G03 X35.3414 Y23.7026 I0.0934 J-0.1236
G01 X35.0771 Y23.2267
G01 X35.0695 Y23.2030
G01 X35.0653 Y23.1745
G01 X34.9774 Y22.5384
G01 X34.9776 Y22.5259
G01 X34.9813 Y22.4964
G01 X35.0691 Y21.8716
G01 X35.0750 Y21.8474
G01 X35.0797 Y21.8358
G01 X35.3548 Y21.3329
G03 X35.4068 Y21.2803 I0.1265 J0.0729
G01 X35.8229 Y20.9757
G01 X35.8444 Y20.9631
G01 X35.8680 Y20.9550
G01 X36.4468 Y20.8482
G01 X36.4717 Y20.8462
G01 X36.5106 Y20.8515
G01 X37.0758 Y20.9501
G01 X37.0998 Y20.9568
G01 X37.1221 Y20.9682
G01 X37.5576 Y21.2775
G03 X37.6048 Y21.3377 I-0.0939 J0.1220
G01 X37.8662 Y21.8240
G01 X37.8734 Y21.8479
G01 X37.8773 Y21.8753
G01 X37.9642 Y22.5295
G01 X37.9602 Y22.5707
G01 X37.8739 Y23.1877
G01 X37.8680 Y23.2119
G01 X37.8632 Y23.2235
G01 X37.5919 Y23.7143
G01 X37.5777 Y23.7349
G01 X37.5597 Y23.7522
G01 X37.1246 Y24.0609
G01 X37.1071 Y24.0709
G01 Y24.2048
G00 Z5.0000
G00 X37.1251
G00 Z0.5000
G01 Z-0.1500 F30
G01 Y24.2530 F508
G02 X38.1892 Y23.0633 I-0.3812 J-1.4117
G01 X38.2418 Y22.5410
G01 Y22.5264
G01 X38.1886 Y22.0040
G01 X38.1863 Y21.9941
G02 X36.4756 Y20.6772 I-1.6005 J0.3094
G01 X36.4631
G02 X34.9129 Y21.5394 I-0.1234 J1.6028
G01 X34.7571 Y21.9909
G01 X34.7548 Y22.0013
G01 X34.7027 Y22.5344
G01 X34.8213 Y23.3066
G01 X35.1697 Y23.8776
G01 X35.7239 Y24.2355
G01 X36.4815 Y24.3574
G01 X36.9945 Y24.3017
G01 X37.1251 Y24.2530
G01 Y24.2048
G00 Z5.0000
G00 X36.4090 Y20.8298
G00 Z0.3500
G01 Z-0.2500 F30
G01 X35.7676 F508
G00 Z5.0000
G00 X36.5318
G00 Z0.3500
G01 Z-0.2500 F30
G01 X37.1631 F508
G00 Z5.0000
G00 X35.6725 Y21.0548
G00 Z0.3500
G01 Z-0.2500 F30
G01 X35.3560 F508
G01 X35.3670 Y21.2798
G01 X35.1220
G01 X35.2323 Y21.5048
G01 X34.9663
G01 X34.8739 Y21.7298
G01 X35.1093
G01 X35.0321 Y21.9548
G01 X34.7965
G01 X34.7622 Y22.1798
G01 X35.0005
G01 X34.9689 Y22.4048
G01 X34.7399
G01 X34.7427 Y22.6298
G01 X34.9649
G01 X34.9959 Y22.8548
G01 X34.7772
G01 X34.8118 Y23.0798
G01 X35.0270
G01 X35.0920 Y23.3048
G01 X34.8499
G01 X34.9868 Y23.5298
G01 X35.2169
G01 X35.1241 Y23.7548
G01 X35.3456
G00 Z5.0000
G00 X37.2872 Y21.0548
G00 Z0.3500
G01 Z-0.2500 F30
G01 X37.5752 F508
G00 Z5.0000
G00 X37.5970 Y21.2798
G00 Z0.3500
G01 Z-0.2500 F30
G01 X37.8128 F508
G01 X37.7229 Y21.5048
G01 X37.9705
G01 X38.0666 Y21.7298
G01 X37.8438
G01 X37.9131 Y21.9548
G01 X38.1460
G01 X38.1810 Y22.1798
G01 X37.9429
G01 X37.9727 Y22.4048
G01 X38.2042
G01 X38.2070 Y22.6298
G01 X37.9772
G01 X37.9457 Y22.8548
G01 X38.1847
G01 X38.1577 Y23.0798
G01 X37.9142
G01 X37.8468 Y23.3048
G01 X38.0786
G01 X37.9918 Y23.5298
G01 X37.7225
G01 X37.8318 Y23.7548
G01 X37.5929
G01 X37.5988 Y23.9798
G01 X37.2821
G00 Z5.0000
G00 X35.6585
G00 Z0.3500
G01 Z-0.2500 F30
G01 X35.3741 F508
G00 Z5.0000
G00 X35.7225 Y24.2048
G00 Z0.3500
G01 Z-0.2500 F30
G01 X36.4278 F508
G00 Z5.0000
G00 X36.5215
G00 Z0.3500
G01 Z-0.2500 F30
G01 X37.1833 F508
G00 Z5.0000
G00 X37.1071
G00 Z0.3500
G01 Z-0.2500 F30
G01 Y24.0709 F508
G01 X37.0792 Y24.0811
G01 X37.0543 Y24.0856
G01 X36.4966 Y24.1838
G01 X36.4717 Y24.1857
G01 X36.4339 Y24.1805
G01 X35.8718 Y24.0835
G01 X35.8477 Y24.0768
G01 X35.8255 Y24.0655
G01 X35.3890 Y23.7619
G03 X35.3414 Y23.7026 I0.0934 J-0.1236
G01 X35.0771 Y23.2267
G01 X35.0695 Y23.2030
G01 X35.0653 Y23.1745
G01 X34.9774 Y22.5384
G01 X34.9776 Y22.5259
G01 X34.9813 Y22.4964
G01 X35.0691 Y21.8716
G01 X35.0750 Y21.8474
G01 X35.0797 Y21.8358
G01 X35.3548 Y21.3329
G03 X35.4068 Y21.2803 I0.1265 J0.0729
G01 X35.8229 Y20.9757
G01 X35.8444 Y20.9631
G01 X35.8680 Y20.9550
G01 X36.4468 Y20.8482
G01 X36.4717 Y20.8462
G01 X36.5106 Y20.8515
G01 X37.0758 Y20.9501
G01 X37.0998 Y20.9568
G01 X37.1221 Y20.9682
G01 X37.5576 Y21.2775
G03 X37.6048 Y21.3377 I-0.0939 J0.1220
G01 X37.8662 Y21.8240
G01 X37.8734 Y21.8479
G01 X37.8773 Y21.8753
G01 X37.9642 Y22.5295
G01 X37.9602 Y22.5707
G01 X37.8739 Y23.1877
G01 X37.8680 Y23.2119
G01 X37.8632 Y23.2235
G01 X37.5919 Y23.7143
G01 X37.5777 Y23.7349
G01 X37.5597 Y23.7522
G01 X37.1246 Y24.0609
G01 X37.1071 Y24.0709
G01 Y24.2048
G00 Z5.0000
G00 X37.1251
G00 Z0.3500
G01 Z-0.2500 F30
G01 Y24.2530 F508
G02 X38.1892 Y23.0633 I-0.3812 J-1.4117
G01 X38.2418 Y22.5410
G01 Y22.5264
G01 X38.1886 Y22.0040
G01 X38.1863 Y21.9941
G02 X36.4756 Y20.6772 I-1.6005 J0.3094
G01 X36.4631
G02 X34.9129 Y21.5394 I-0.1234 J1.6028
G01 X34.7571 Y21.9909
G01 X34.7548 Y22.0013
G01 X34.7027 Y22.5344
G01 X34.8213 Y23.3066
G01 X35.1697 Y23.8776
G01 X35.7239 Y24.2355
G01 X36.4815 Y24.3574
G01 X36.9945 Y24.3017
G01 X37.1251 Y24.2530
G01 Y24.2048
G00 Z5.0000


(No. 18: Hole 3)
G00 X33.6864 Y20.8284 Z20.0000
G00 Z0.5000
G01 Z-0.1500 F30
G01 X33.4683 F508
G01 Y21.0534
G01 X33.6864
G01 Y21.2784
G01 X33.4683
G01 Y21.5034
G01 X33.6864
G01 Y21.7284
G01 X33.4683
G01 Y21.9534
G01 X33.6864
G01 Y22.1784
G01 X33.4683
G01 Y22.4034
G01 X33.6864
G01 Y22.6284
G01 X33.4683
G01 Y22.8534
G01 X33.6864
G01 Y23.0784
G01 X33.4683
G01 Y23.3034
G01 X33.6864
G01 Y23.5284
G01 X33.4683
G01 Y23.7534
G01 X33.6864
G01 Y23.9784
G01 X33.4683
G01 Y24.2034
G01 X33.6864
G00 Z5.0000
G00 Z0.5000
G01 Z-0.1500 F30
G01 X33.7114 F508
G01 Y20.7300
G01 X33.4433
G01 Y24.3019
G01 X33.7114
G01 Y24.2034
G01 X33.6864
G00 Z5.0000
G00 Y20.8284
G00 Z0.3500
G01 Z-0.2500 F30
G01 X33.4683 F508
G01 Y21.0534
G01 X33.6864
G01 Y21.2784
G01 X33.4683
G01 Y21.5034
G01 X33.6864
G01 Y21.7284
G01 X33.4683
G01 Y21.9534
G01 X33.6864
G01 Y22.1784
G01 X33.4683
G01 Y22.4034
G01 X33.6864
G01 Y22.6284
G01 X33.4683
G01 Y22.8534
G01 X33.6864
G01 Y23.0784
G01 X33.4683
G01 Y23.3034
G01 X33.6864
G01 Y23.5284
G01 X33.4683
G01 Y23.7534
G01 X33.6864
G01 Y23.9784
G01 X33.4683
G01 Y24.2034
G01 X33.6864
G00 Z5.0000
G00 Z0.3500
G01 Z-0.2500 F30
G01 X33.7114 F508
G01 Y20.7300
G01 X33.4433
G01 Y24.3019
G01 X33.7114
G01 Y24.2034
G01 X33.6864
G00 Z5.0000


(No. 19: Hole 2)
G00 X30.0108 Y20.9409 Z20.0000
G00 Z0.5000
G01 Z-0.1500 F30
G01 X29.7927 F508
G01 Y21.1659
G01 X30.0108
G01 Y21.3909
G01 X29.7927
G01 Y21.6159
G01 X30.0108
G01 Y21.8409
G01 X29.7927
G01 Y22.0659
G01 X30.0108
G01 X29.7927 Y22.2909
G01 X31.5910
G01 X30.0108
G01 Y22.5159
G01 X29.7927
G01 Y22.7409
G01 X30.0109
G01 Y22.9659
G01 X29.7927
G01 Y23.1909
G01 X30.0110
G01 Y23.4159
G01 X29.7927
G01 Y23.6409
G01 X30.0111
G01 Y23.8659
G01 X29.7927
G01 Y24.0909
G01 X30.0336
G00 Z5.0000
G00 X31.7824 Y22.5159
G00 Z0.5000
G01 Z-0.1500 F30
G01 X32.1213 F508
G01 X32.0388 Y22.7409
G01 X32.2925
G01 X32.3903 Y22.9659
G01 X32.1237
G01 X32.2085 Y23.1909
G01 X32.4312
G01 X32.4216 Y23.4159
G01 X32.1819
G01 X32.0916 Y23.6409
G01 X32.3808
G01 X32.2505 Y23.8659
G01 X32.0012
G00 Z5.0000
G00 X31.9925 Y24.0909
G00 Z0.5000
G01 Z-0.1500 F30
G01 X31.4650 F508
G00 Z5.0000
G00 Z0.5000
G01 Z-0.1500 F30
G01 X31.4583 Y24.0669 F508
G01 X31.2223 Y24.1323
G01 X31.1977 Y24.1366
G01 X31.1688 Y24.1369
G01 X30.1483 Y24.1363
G03 X30.0361 Y24.0207 I0.0125 J-0.1244
G01 X30.0358 Y22.5037
G03 X30.0737 Y22.4141 I0.1250 J0.0000
G03 X30.1520 Y22.3791 I0.0871 J0.0897
G01 X31.2230 Y22.3794
G01 X31.2354 Y22.3812
G01 X31.2651 Y22.3895
G01 X31.8969 Y22.5758
G03 X31.9774 Y22.6488 I-0.0353 J0.1199
G01 X32.1955 Y23.2273
G03 X32.1964 Y23.3130 I-0.1170 J0.0441
G01 X31.9669 Y23.8846
G03 X31.8918 Y23.9466 I-0.1108 J-0.0578
G01 X31.4583 Y24.0669
G01 X31.4650 Y24.0909
G00 Z5.0000
G00 X31.4885
G00 Z0.5000
G01 Z-0.1500 F30
G01 Y24.2695 F508
G02 X32.4723 Y23.2768 I0.0446 J-0.9396
G02 X31.7862 Y22.2944 I-0.9738 J-0.0507
G01 X31.2746 Y22.2192
G01 X30.1520 Y22.2188
G03 X30.0383 Y22.1190 I0.0088 J-0.1247
G01 X30.0358 Y22.0942
G01 Y20.7300
G01 X29.7677
G01 Y24.3019
G01 X31.2430
G01 X31.4885 Y24.2695
G01 Y24.0909
G00 Z5.0000
G00 X30.0108 Y20.9409
G00 Z0.3500
G01 Z-0.2500 F30
G01 X29.7927 F508
G01 Y21.1659
G01 X30.0108
G01 Y21.3909
G01 X29.7927
G01 Y21.6159
G01 X30.0108
G01 Y21.8409
G01 X29.7927
G01 Y22.0659
G01 X30.0108
G01 X29.7927 Y22.2909
G01 X31.5910
G01 X30.0108
G01 Y22.5159
G01 X29.7927
G01 Y22.7409
G01 X30.0109
G01 Y22.9659
G01 X29.7927
G01 Y23.1909
G01 X30.0110
G01 Y23.4159
G01 X29.7927
G01 Y23.6409
G01 X30.0111
G01 Y23.8659
G01 X29.7927
G01 Y24.0909
G01 X30.0336
G00 Z5.0000
G00 X31.7824 Y22.5159
G00 Z0.3500
G01 Z-0.2500 F30
G01 X32.1213 F508
G01 X32.0388 Y22.7409
G01 X32.2925
G01 X32.3903 Y22.9659
G01 X32.1237
G01 X32.2085 Y23.1909
G01 X32.4312
G01 X32.4216 Y23.4159
G01 X32.1819
G01 X32.0916 Y23.6409
G01 X32.3808
G01 X32.2505 Y23.8659
G01 X32.0012
G00 Z5.0000
G00 X31.9925 Y24.0909
G00 Z0.3500
G01 Z-0.2500 F30
G01 X31.4650 F508
G00 Z5.0000
G00 Z0.3500
G01 Z-0.2500 F30
G01 X31.4583 Y24.0669 F508
G01 X31.2223 Y24.1323
G01 X31.1977 Y24.1366
G01 X31.1688 Y24.1369
G01 X30.1483 Y24.1363
G03 X30.0361 Y24.0207 I0.0125 J-0.1244
G01 X30.0358 Y22.5037
G03 X30.0737 Y22.4141 I0.1250 J0.0000
G03 X30.1520 Y22.3791 I0.0871 J0.0897
G01 X31.2230 Y22.3794
G01 X31.2354 Y22.3812
G01 X31.2651 Y22.3895
G01 X31.8969 Y22.5758
G03 X31.9774 Y22.6488 I-0.0353 J0.1199
G01 X32.1955 Y23.2273
G03 X32.1964 Y23.3130 I-0.1170 J0.0441
G01 X31.9669 Y23.8846
G03 X31.8918 Y23.9466 I-0.1108 J-0.0578
G01 X31.4583 Y24.0669
G01 X31.4650 Y24.0909
G00 Z5.0000
G00 X31.4885
G00 Z0.3500
G01 Z-0.2500 F30
G01 Y24.2695 F508
G02 X32.4723 Y23.2768 I0.0446 J-0.9396
G02 X31.7862 Y22.2944 I-0.9738 J-0.0507
G01 X31.2746 Y22.2192
G01 X30.1520 Y22.2188
G03 X30.0383 Y22.1190 I0.0088 J-0.1247
G01 X30.0358 Y22.0942
G01 Y20.7300
G01 X29.7677
G01 Y24.3019
G01 X31.2430
G01 X31.4885 Y24.2695
G01 Y24.0909
G00 Z5.0000


(No. 20: Hole 1)
G00 X27.1120 Y20.8298 Z20.0000
G00 Z0.5000
G01 Z-0.1500 F30
G01 X26.4572 F508
G00 Z5.0000
G00 X27.2864
G00 Z0.5000
G01 Z-0.1500 F30
G01 X27.9591 F508
G00 Z5.0000
G00 X26.3577 Y21.0548
G00 Z0.5000
G01 Z-0.1500 F30
G01 X26.0377 F508
G01 X26.0438 Y21.2798
G01 X25.7989
G01 X25.9077 Y21.5048
G01 X25.6397
G01 X25.5459 Y21.7298
G01 X25.7811
G01 X25.7045 Y21.9548
G01 X25.4670
G01 X25.4329 Y22.1798
G01 X25.6723
G01 X25.6402 Y22.4048
G01 X25.4104
G01 X25.4127 Y22.6298
G01 X25.6343
G01 X25.6648 Y22.8548
G01 X25.4467
G01 X25.4807 Y23.0798
G01 X25.6953
G01 X25.7579 Y23.3048
G01 X25.5164
G01 X25.6508 Y23.5298
G01 X25.8805
G01 X25.7877 Y23.7548
G01 X26.0061
G00 Z5.0000
G00 X28.1645 Y21.0548
G00 Z0.5000
G01 Z-0.1500 F30
G01 X28.4560 F508
G00 Z5.0000
G00 X28.4919 Y21.2798
G00 Z0.5000
G01 Z-0.1500 F30
G01 X28.7230 F508
G01 Y21.5048
G01 X28.5455
G01 X28.5454 Y21.7298
G01 X28.7230
G01 Y21.9548
G01 X28.5453
G01 X28.5102 Y22.1798
G01 X28.7230
G00 Z5.0000
G00 X28.5011 Y23.7548
G00 Z0.5000
G01 Z-0.1500 F30
G01 X28.2585 F508
G01 X28.3021 Y23.9798
G01 X28.0043
G00 Z5.0000
G00 X26.3165
G00 Z0.5000
G01 Z-0.1500 F30
G01 X26.0338 F508
G00 Z5.0000
G00 X26.3869 Y24.2048
G00 Z0.5000
G01 Z-0.1500 F30
G01 X27.0913 F508
G00 Z5.0000
G00 X27.2026
G00 Z0.5000
G01 Z-0.1500 F30
G01 X27.9113 F508
G00 Z5.0000
G00 Z0.5000
G01 Z-0.1500 F30
G01 X27.9196 Y24.2284 F508
G02 X28.5944 Y23.6560 I-0.2633 J-0.9944
G01 X28.3556 Y23.5851
G01 X28.3415 Y23.5900
G01 X28.2031 Y23.7912
G01 X28.1866 Y23.8099
G01 X27.9205 Y24.0121
G01 X27.8990 Y24.0248
G01 X27.8874 Y24.0295
G01 X27.5852 Y24.1349
G01 X27.5495 Y24.1460
G01 X27.1661 Y24.1832
G01 X27.1256 Y24.1854
G01 X26.5242 Y24.0829
G01 X26.5004 Y24.0752
G01 X26.4787 Y24.0630
G01 X26.0671 Y23.7744
G03 X26.0127 Y23.7204 I0.0668 J-0.1216
G01 X25.7599 Y23.2561
G01 X25.7420 Y23.2199
G01 X25.7362 Y23.1956
G01 X25.6514 Y22.5702
G01 X25.6478 Y22.5408
G01 X25.6477 Y22.5283
G01 X25.7433 Y21.8593
G01 X25.7510 Y21.8355
G01 X25.7565 Y21.8243
G01 X26.0379 Y21.3245
G01 X26.0530 Y21.3047
G01 X26.0718 Y21.2883
G01 X26.4984 Y20.9856
G03 X26.5650 Y20.9529 I0.0913 J0.1019
G01 X27.1571 Y20.8471
G01 X27.1821 Y20.8466
G03 X28.2180 Y21.1066 I0.0369 J2.0462
G01 X28.2394 Y21.1196
G01 X28.4733 Y21.2964
G03 X28.5206 Y21.3943 I-0.0777 J0.0979
G01 X28.5203 Y22.0921
G03 X28.4081 Y22.2077 I-0.1247 J-0.0088
G01 X27.3787 Y22.2083
G01 Y22.3923
G01 X28.7480
G01 X28.7476 Y21.2583
G01 X28.4717 Y21.0344
G01 X28.4609 Y21.0274
G01 X28.0901 Y20.8409
G01 X28.0758 Y20.8354
G01 X27.6549 Y20.7189
G01 X27.6384 Y20.7160
G01 X27.1816 Y20.6770
G01 X27.1657 Y20.6772
G02 X25.5869 Y21.5374 I-0.1297 J1.6409
G01 X25.4283 Y21.9883
G01 X25.4261 Y21.9981
G01 X25.3730 Y22.5347
G01 X25.4910 Y23.3153
G01 X25.8372 Y23.8841
G01 X26.3909 Y24.2370
G01 X27.1562 Y24.3575
G01 X27.7002 Y24.3057
G01 X27.9196 Y24.2284
G01 X27.9113 Y24.2048
G00 Z5.0000
G00 X27.1120 Y20.8298
G00 Z0.3500
G01 Z-0.2500 F30
G01 X26.4572 F508
G00 Z5.0000
G00 X27.2864
G00 Z0.3500
G01 Z-0.2500 F30
G01 X27.9591 F508
G00 Z5.0000
G00 X26.3577 Y21.0548
G00 Z0.3500
G01 Z-0.2500 F30
G01 X26.0377 F508
G01 X26.0438 Y21.2798
G01 X25.7989
G01 X25.9077 Y21.5048
G01 X25.6397
G01 X25.5459 Y21.7298
G01 X25.7811
G01 X25.7045 Y21.9548
G01 X25.4670
G01 X25.4329 Y22.1798
G01 X25.6723
G01 X25.6402 Y22.4048
G01 X25.4104
G01 X25.4127 Y22.6298
G01 X25.6343
G01 X25.6648 Y22.8548
G01 X25.4467
G01 X25.4807 Y23.0798
G01 X25.6953
G01 X25.7579 Y23.3048
G01 X25.5164
G01 X25.6508 Y23.5298
G01 X25.8805
G01 X25.7877 Y23.7548
G01 X26.0061
G00 Z5.0000
G00 X28.1645 Y21.0548
G00 Z0.3500
G01 Z-0.2500 F30
G01 X28.4560 F508
G00 Z5.0000
G00 X28.4919 Y21.2798
G00 Z0.3500
G01 Z-0.2500 F30
G01 X28.7230 F508
G01 Y21.5048
G01 X28.5455
G01 X28.5454 Y21.7298
G01 X28.7230
G01 Y21.9548
G01 X28.5453
G01 X28.5102 Y22.1798
G01 X28.7230
G00 Z5.0000
G00 X28.5011 Y23.7548
G00 Z0.3500
G01 Z-0.2500 F30
G01 X28.2585 F508
G01 X28.3021 Y23.9798
G01 X28.0043
G00 Z5.0000
G00 X26.3165
G00 Z0.3500
G01 Z-0.2500 F30
G01 X26.0338 F508
G00 Z5.0000
G00 X26.3869 Y24.2048
G00 Z0.3500
G01 Z-0.2500 F30
G01 X27.0913 F508
G00 Z5.0000
G00 X27.2026
G00 Z0.3500
G01 Z-0.2500 F30
G01 X27.9113 F508
G00 Z5.0000
G00 Z0.3500
G01 Z-0.2500 F30
G01 X27.9196 Y24.2284 F508
G02 X28.5944 Y23.6560 I-0.2633 J-0.9944
G01 X28.3556 Y23.5851
G01 X28.3415 Y23.5900
G01 X28.2031 Y23.7912
G01 X28.1866 Y23.8099
G01 X27.9205 Y24.0121
G01 X27.8990 Y24.0248
G01 X27.8874 Y24.0295
G01 X27.5852 Y24.1349
G01 X27.5495 Y24.1460
G01 X27.1661 Y24.1832
G01 X27.1256 Y24.1854
G01 X26.5242 Y24.0829
G01 X26.5004 Y24.0752
G01 X26.4787 Y24.0630
G01 X26.0671 Y23.7744
G03 X26.0127 Y23.7204 I0.0668 J-0.1216
G01 X25.7599 Y23.2561
G01 X25.7420 Y23.2199
G01 X25.7362 Y23.1956
G01 X25.6514 Y22.5702
G01 X25.6478 Y22.5408
G01 X25.6477 Y22.5283
G01 X25.7433 Y21.8593
G01 X25.7510 Y21.8355
G01 X25.7565 Y21.8243
G01 X26.0379 Y21.3245
G01 X26.0530 Y21.3047
G01 X26.0718 Y21.2883
G01 X26.4984 Y20.9856
G03 X26.5650 Y20.9529 I0.0913 J0.1019
G01 X27.1571 Y20.8471
G01 X27.1821 Y20.8466
G03 X28.2180 Y21.1066 I0.0369 J2.0462
G01 X28.2394 Y21.1196
G01 X28.4733 Y21.2964
G03 X28.5206 Y21.3943 I-0.0777 J0.0979
G01 X28.5203 Y22.0921
G03 X28.4081 Y22.2077 I-0.1247 J-0.0088
G01 X27.3787 Y22.2083
G01 Y22.3923
G01 X28.7480
G01 X28.7476 Y21.2583
G01 X28.4717 Y21.0344
G01 X28.4609 Y21.0274
G01 X28.0901 Y20.8409
G01 X28.0758 Y20.8354
G01 X27.6549 Y20.7189
G01 X27.6384 Y20.7160
G01 X27.1816 Y20.6770
G01 X27.1657 Y20.6772
G02 X25.5869 Y21.5374 I-0.1297 J1.6409
G01 X25.4283 Y21.9883
G01 X25.4261 Y21.9981
G01 X25.3730 Y22.5347
G01 X25.4910 Y23.3153
G01 X25.8372 Y23.8841
G01 X26.3909 Y24.2370
G01 X27.1562 Y24.3575
G01 X27.7002 Y24.3057
G01 X27.9196 Y24.2284
G01 X27.9113 Y24.2048
G00 Z20.0000
G00 X0.0000 Y0.0000

M05
M30
