%
( Provides a 1.5mm depth cut-out in the spoil-board in which to slot the enclosure's face places for milling )
( Use a spoil-board, true and at least 5mm thick )
( Zero is the bottom-left vertex of the spoil-board cut-out, with Z on top of the spoil-board )

(Project spoilboard-cutout)
(Created by Estlcam version 11 build 11.107)
(Machining time about 00:05:15 hours)

(Required tools:)
(Al - HSS 1-Flute Endmill, 3.175mm)

G90
M03 S18335

G00 Z-20.0000


(No. 1: Hole)
G00 X1.9080 Y2.1210
G00 Z-0.5000
G01 Z0.0000 F60 S18335
G01 X2.7740 Z0.2500
G01 X1.9080 Z0.5000
G01 X61.5920 F1164
G01 Y4.9830
G01 X1.9080
G01 Y7.8450
G01 X61.5920
G01 Y10.7070
G01 X1.9080
G01 Y13.5690
G01 X61.5920
G01 Y16.4310
G01 X1.9080
G01 Y19.2930
G01 X61.5920
G01 Y22.1550
G01 X1.9080
G01 Y25.0170
G01 X61.5920
G01 Y27.8790
G01 X1.9080
G00 Z-20.0000
G00 Z-0.5000
G01 Z0.5000 F60
G01 X1.5900 F1164
G01 Y28.4100
G01 X61.9000
G01 X61.9100 Y28.4000
G01 Y1.5900
G01 X1.6000
G01 X1.5900 Y1.6000
G01 Y27.8790
G01 X1.9080
G00 Z-20.0000
G00 Y2.1210
G00 Z0.0000
G01 Z0.5000 F60
G01 X2.7740 Z0.7500
G01 X1.9080 Z1.0000
G01 X61.5920 F1164
G01 Y4.9830
G01 X1.9080
G01 Y7.8450
G01 X61.5920
G01 Y10.7070
G01 X1.9080
G01 Y13.5690
G01 X61.5920
G01 Y16.4310
G01 X1.9080
G01 Y19.2930
G01 X61.5920
G01 Y22.1550
G01 X1.9080
G01 Y25.0170
G01 X61.5920
G01 Y27.8790
G01 X1.9080
G00 Z-20.0000
G00 Z0.0000
G01 Z1.0000 F60
G01 X1.5900 F1164
G01 Y28.4100
G01 X61.9000
G01 X61.9100 Y28.4000
G01 Y1.5900
G01 X1.6000
G01 X1.5900 Y1.6000
G01 Y27.8790
G01 X1.9080
G00 Z-20.0000
G00 Y2.1210
G00 Z0.5000
G01 Z1.0000 F60
G01 X2.7740 Z1.2500
G01 X1.9080 Z1.5000
G01 X61.5920 F1164
G01 Y4.9830
G01 X1.9080
G01 Y7.8450
G01 X61.5920
G01 Y10.7070
G01 X1.9080
G01 Y13.5690
G01 X61.5920
G01 Y16.4310
G01 X1.9080
G01 Y19.2930
G01 X61.5920
G01 Y22.1550
G01 X1.9080
G01 Y25.0170
G01 X61.5920
G01 Y27.8790
G01 X1.9080
G00 Z-20.0000
G00 Z0.5000
G01 Z1.5000 F60
G01 X1.5900 F1164
G01 Y28.4100
G01 X61.9000
G01 X61.9100 Y28.4000
G01 Y1.5900
G01 X1.6000
G01 X1.5900 Y1.6000
G01 Y27.8790
G01 X1.9080
G00 Z-20.0000
G00 X0.0000 Y0.0000

M05
M30
%

