( Provides a rough cut-out of a size the same as the enclosure's face-plates for testing and tuning cuts, hole locations and engraving )
( Use a spoil-board, true and at least 5mm thick )
( Secure the stock with clamps external to the cut-out profile )
( Zero is the bottom-left vertex of the cut-out, with Z on top of the plate )
( Tool is an HSS 3.175mm single-flute endmill running at 18335rpm )


(Project test-piece-cutout)
(Created by Estlcam version 11 build 11.107)
(Machining time about 00:04:01 hours)

(Required tools:)
(Al - HSS 1-Flute Endmill, 3.175mm)

G90
M03 S18335
G00 Z20.0000


(No. 1: Part)
G00 X33.4000 Y-1.5900
G00 Z0.5000
G01 Z0.0000 F60 S18335
G01 X34.2660 Z-0.2500
G01 X33.4000 Z-0.5000
G01 X63.5000 F1164
G03 X65.0900 Y0.0200 I-0.0001 J1.5902
G01 Y30.0000
G03 X63.4800 Y31.5900 I-1.5902 J-0.0001
G01 X0.0000
G03 X-1.5860 Y30.1125 I0.0000 J-1.5900
G01 X-1.5900 Y29.9800
G01 Y0.0000
G03 X-1.3123 Y-0.8978 I1.5900 J0.0000
G03 X0.0200 Y-1.5900 I1.3127 J0.8983
G01 X30.1200
G01 X33.4000
G01 X34.2660 Z-0.7500 F60
G01 X33.4000 Z-1.0000
G01 X63.5000 F1164
G03 X65.0900 Y0.0200 I-0.0001 J1.5902
G01 Y30.0000
G03 X63.4800 Y31.5900 I-1.5902 J-0.0001
G01 X0.0000
G03 X-1.5860 Y30.1125 I0.0000 J-1.5900
G01 X-1.5900 Y29.9800
G01 Y0.0000
G03 X-1.3123 Y-0.8978 I1.5900 J0.0000
G03 X0.0200 Y-1.5900 I1.3127 J0.8983
G01 X30.1200
G01 X33.4000
G01 X34.2660 Z-1.2500 F60
G01 X33.4000 Z-1.5000
G01 X63.5000 F1164
G03 X65.0900 Y0.0200 I-0.0001 J1.5902
G01 Y30.0000
G03 X63.4800 Y31.5900 I-1.5902 J-0.0001
G01 X0.0000
G03 X-1.5860 Y30.1125 I0.0000 J-1.5900
G01 X-1.5900 Y29.9800
G01 Y0.0000
G03 X-1.3123 Y-0.8978 I1.5900 J0.0000
G03 X0.0200 Y-1.5900 I1.3127 J0.8983
G01 X30.1200
G01 X33.4000
G01 X34.2660 Z-1.7500 F60
G01 X33.4000 Z-2.0000
G01 X63.5000 F1164
G03 X65.0900 Y0.0200 I-0.0001 J1.5902
G01 Y30.0000
G03 X63.4800 Y31.5900 I-1.5902 J-0.0001
G01 X0.0000
G03 X-1.5860 Y30.1125 I0.0000 J-1.5900
G01 X-1.5900 Y29.9800
G01 Y0.0000
G03 X-1.3123 Y-0.8978 I1.5900 J0.0000
G03 X0.0200 Y-1.5900 I1.3127 J0.8983
G01 X30.1200
G01 X33.4000
G01 X34.2660 Z-2.2500 F60
G01 X33.4000 Z-2.5000
G01 X63.5000 F1164
G03 X65.0900 Y0.0200 I-0.0001 J1.5902
G01 Y30.0000
G03 X63.4800 Y31.5900 I-1.5902 J-0.0001
G01 X0.0000
G03 X-1.5860 Y30.1125 I0.0000 J-1.5900
G01 X-1.5900 Y29.9800
G01 Y0.0000
G03 X-1.3123 Y-0.8978 I1.5900 J0.0000
G03 X0.0200 Y-1.5900 I1.3127 J0.8983
G01 X30.1200
G01 X33.4000
G01 X33.5732 Z-2.5500 F60
G01 X33.4000 Z-2.6000
G01 X63.5000 F1164
G03 X65.0900 Y0.0200 I-0.0001 J1.5902
G01 Y30.0000
G03 X63.4800 Y31.5900 I-1.5902 J-0.0001
G01 X0.0000
G03 X-1.5860 Y30.1125 I0.0000 J-1.5900
G01 X-1.5900 Y29.9800
G01 Y0.0000
G03 X-1.3123 Y-0.8978 I1.5900 J0.0000
G03 X0.0200 Y-1.5900 I1.3127 J0.8983
G01 X30.1200
G01 X33.4000
G00 Z20.0000
G00 X0.0000 Y0.0000

M05
M30
